tests/cmyk_0.cube
LUT_3D_SIZE 16
DOMAIN_MIN 0 0 0
DOMAIN_MAX 1 1 1
0.000000 0.682353 0.937255
0.629068 0.813616 0.960060
1.000000 1.000000 1.000000
0.986560 0.992278 0.998175
1.000000 1.000000 1.000000
0.977463 0.987085 0.996956
1.000000 1.000000 1.000000
1.000000 1.000000 1.000000
1.000000 1.000000 1.000000
1.000000 1.000000 1.000000
1.000000 1.000000 1.000000
0.995547 0.997435 0.999392
1.000000 1.000000 1.000000
1.000000 1.000000 1.000000
1.000000 1.000000 1.000000
1.000000 1.000000 1.000000
0.000000 0.682353 0.937255
0.519281 0.771879 0.952322
0.852664 0.918851 0.981546
0.972872 0.984475 0.996346
1.000000 1.000000 1.000000
0.995547 0.997435 0.999392
0.995547 0.997435 0.999392
1.000000 1.000000 1.000000
0.986560 0.992278 0.998175
1.000000 1.000000 1.000000
1.000000 1.000000 1.000000
0.995547 0.997435 0.999392
1.000000 1.000000 1.000000
1.000000 1.000000 1.000000
1.000000 1.000000 1.000000
1.000000 1.000000 1.000000
0.000000 0.682353 0.937255
0.294834 0.711161 0.941874
0.764537 0.874478 0.972144
0.915376 0.952412 0.988982
0.986560 0.992278 0.998175
1.000000 1.000000 1.000000
1.000000 1.000000 1.000000
1.000000 1.000000 1.000000
0.991067 0.994861 0.998784
1.000000 1.000000 1.000000
1.000000 1.000000 1.000000
1.000000 1.000000 1.000000
1.000000 1.000000 1.000000
1.000000 1.000000 1.000000
1.000000 1.000000 1.000000
1.000000 1.000000 1.000000
0.152571 0.690743 0.938578
0.000000 0.682353 0.937255
0.451320 0.749859 0.948422
0.852664 0.918851 0.981546
1.000000 1.000000 1.000000
0.982025 0.989686 0.997566
1.000000 1.000000 1.000000
0.986560 0.992278 0.998175
1.000000 1.000000 1.000000
1.000000 1.000000 1.000000
0.995547 0.997435 0.999392
0.995547 0.997435 0.999392
1.000000 1.000000 1.000000
1.000000 1.000000 1.000000
1.000000 1.000000 1.000000
1.000000 1.000000 1.000000
0.152571 0.690743 0.938578
0.000000 0.682353 0.937255
0.350886 0.723054 0.943845
0.539583 0.779039 0.953618
0.884752 0.935830 0.985274
0.977463 0.987085 0.996956
1.000000 1.000000 1.000000
0.995547 0.997435 0.999392
1.000000 1.000000 1.000000
1.000000 1.000000 1.000000
1.000000 1.000000 1.000000
1.000000 1.000000 1.000000
1.000000 1.000000 1.000000
1.000000 1.000000 1.000000
1.000000 1.000000 1.000000
1.000000 1.000000 1.000000
0.100502 0.686565 0.937917
0.000000 0.682353 0.937255
0.190775 0.694889 0.939238
0.425591 0.742329 0.947117
0.603997 0.803447 0.958133
0.900236 0.944169 0.987130
1.000000 1.000000 1.000000
1.000000 1.000000 1.000000
0.995547 0.997435 0.999392
0.995547 0.997435 0.999392
0.991067 0.994861 0.998784
0.995547 0.997435 0.999392
1.000000 1.000000 1.000000
1.000000 1.000000 1.000000
1.000000 1.000000 1.000000
1.000000 1.000000 1.000000
0.000000 0.682353 0.937255
0.000000 0.682353 0.937255
0.000000 0.682353 0.937255
0.294834 0.711161 0.941874
0.486793 0.760973 0.950375
0.652915 0.823620 0.961981
0.910366 0.949675 0.988366
1.000000 1.000000 1.000000
1.000000 1.000000 1.000000
0.995547 0.997435 0.999392
1.000000 1.000000 1.000000
0.995547 0.997435 0.999392
1.000000 1.000000 1.000000
1.000000 1.000000 1.000000
1.000000 1.000000 1.000000
1.000000 1.000000 1.000000
0.000000 0.682353 0.937255
0.000000 0.682353 0.937255
0.100502 0.686565 0.937917
0.190775 0.694889 0.939238
0.350886 0.723054 0.943845
0.539583 0.779039 0.953618
0.697506 0.843165 0.965809
0.895114 0.941400 0.986512
0.995547 0.997435 0.999392
0.995547 0.997435 0.999392
0.991067 0.994861 0.998784
1.000000 1.000000 1.000000
1.000000 1.000000 1.000000
0.995547 0.997435 0.999392
1.000000 1.000000 1.000000
1.000000 1.000000 1.000000
0.000000 0.682353 0.937255
0.000000 0.682353 0.937255
0.000000 0.682353 0.937255
0.100502 0.686565 0.937917
0.294834 0.711161 0.941874
0.438690 0.746107 0.947770
0.568333 0.789621 0.955556
0.697506 0.843165 0.965809
0.889953 0.938621 0.985893
1.000000 1.000000 1.000000
1.000000 1.000000 1.000000
1.000000 1.000000 1.000000
1.000000 1.000000 1.000000
0.995547 0.997435 0.999392
1.000000 1.000000 1.000000
1.000000 1.000000 1.000000
0.000000 0.682353 0.937255
0.000000 0.682353 0.937255
0.000000 0.682353 0.937255
0.000000 0.682353 0.937255
0.190775 0.694889 0.939238
0.350886 0.723054 0.943845
0.451320 0.749859 0.948422
0.586512 0.796573 0.956846
0.732021 0.859009 0.968984
0.895114 0.941400 0.986512
0.995547 0.997435 0.999392
0.995547 0.997435 0.999392
0.995547 0.997435 0.999392
1.000000 1.000000 1.000000
1.000000 1.000000 1.000000
1.000000 1.000000 1.000000
0.000000 0.682353 0.937255
0.000000 0.682353 0.937255
0.000000 0.682353 0.937255
0.000000 0.682353 0.937255
0.152571 0.690743 0.938578
0.273071 0.707138 0.941216
0.382922 0.730844 0.945156
0.497920 0.764631 0.951025
0.620856 0.810245 0.959418
0.745249 0.865240 0.970249
0.889953 0.938621 0.985893
0.995547 0.997435 0.999392
1.000000 1.000000 1.000000
1.000000 1.000000 1.000000
1.000000 1.000000 1.000000
1.000000 1.000000 1.000000
0.100502 0.686565 0.937917
0.100502 0.686565 0.937917
0.152571 0.690743 0.938578
0.190775 0.694889 0.939238
0.222074 0.699003 0.939898
0.273071 0.707138 0.941216
0.350886 0.723054 0.943845
0.425591 0.742329 0.947117
0.539583 0.779039 0.953618
0.645092 0.820303 0.961341
0.758179 0.871413 0.971513
0.900236 0.944169 0.987130
1.000000 1.000000 1.000000
0.995547 0.997435 0.999392
1.000000 1.000000 1.000000
1.000000 1.000000 1.000000
0.382922 0.730844 0.945156
0.382922 0.730844 0.945156
0.397773 0.734698 0.945810
0.411972 0.738527 0.946464
0.425591 0.742329 0.947117
0.451320 0.749859 0.948422
0.475337 0.757292 0.949725
0.508742 0.768266 0.951674
0.549380 0.782587 0.954264
0.586512 0.796573 0.956846
0.652915 0.823620 0.961981
0.758179 0.871413 0.971513
0.905320 0.946927 0.987748
0.991067 0.994861 0.998784
1.000000 1.000000 1.000000
1.000000 1.000000 1.000000
0.519281 0.771879 0.952322
0.529556 0.775470 0.952970
0.529556 0.775470 0.952970
0.539583 0.779039 0.953618
0.558959 0.786114 0.954911
0.577514 0.793107 0.956201
0.595337 0.800020 0.957490
0.620856 0.810245 0.959418
0.652915 0.823620 0.961981
0.683060 0.836717 0.964535
0.718473 0.852718 0.967715
0.758179 0.871413 0.971513
0.795340 0.889594 0.975292
0.905320 0.946927 0.987748
0.995547 0.997435 0.999392
1.000000 1.000000 1.000000
0.645092 0.820303 0.961341
0.645092 0.820303 0.961341
0.652915 0.823620 0.961981
0.660618 0.826920 0.962620
0.668207 0.830202 0.963259
0.683060 0.836717 0.964535
0.697506 0.843165 0.965809
0.718473 0.852718 0.967715
0.745249 0.865240 0.970249
0.770827 0.877528 0.972775
0.801316 0.892577 0.975920
0.836007 0.910204 0.979675
0.868903 0.927392 0.983412
0.905320 0.946927 0.987748
0.944703 0.968619 0.992673
1.000000 1.000000 1.000000
0.745249 0.865240 0.970249
0.745249 0.865240 0.970249
0.751750 0.868334 0.970882
0.758179 0.871413 0.971513
0.764537 0.874478 0.972144
0.777050 0.880565 0.973405
0.795340 0.889594 0.975292
0.813096 0.898503 0.977174
0.836007 0.910204 0.979675
0.858122 0.921710 0.982169
0.884752 0.935830 0.985274
0.910366 0.949675 0.988366
0.939899 0.965943 0.992059
0.972872 0.984475 0.996346
1.000000 1.000000 1.000000
1.000000 1.000000 1.000000
0.000000 0.682353 0.937255
0.100502 0.686565 0.937917
0.847159 0.915981 0.980923
0.958924 0.976590 0.994511
1.000000 1.000000 1.000000
0.977463 0.987085 0.996956
0.972872 0.984475 0.996346
0.982025 0.989686 0.997566
0.991067 0.994861 0.998784
1.000000 1.000000 1.000000
1.000000 1.000000 1.000000
1.000000 1.000000 1.000000
1.000000 1.000000 1.000000
1.000000 1.000000 1.000000
1.000000 1.000000 1.000000
1.000000 1.000000 1.000000
0.000000 0.682353 0.937255
0.539583 0.779039 0.953618
0.836007 0.910204 0.979675
0.949475 0.971286 0.993286
0.874228 0.930216 0.984033
0.900236 0.944169 0.987130
0.986560 0.992278 0.998175
0.874228 0.930216 0.984033
0.991067 0.994861 0.998784
1.000000 1.000000 1.000000
0.991067 0.994861 0.998784
1.000000 1.000000 1.000000
1.000000 1.000000 1.000000
1.000000 1.000000 1.000000
1.000000 1.000000 1.000000
1.000000 1.000000 1.000000
0.000000 0.682353 0.937255
0.000000 0.682353 0.937255
0.620856 0.810245 0.959418
0.807234 0.895546 0.976547
0.852664 0.918851 0.981546
0.925288 0.957855 0.990215
0.944703 0.968619 0.992673
0.944703 0.968619 0.992673
0.995547 0.997435 0.999392
0.991067 0.994861 0.998784
1.000000 1.000000 1.000000
0.995547 0.997435 0.999392
1.000000 1.000000 1.000000
1.000000 1.000000 1.000000
1.000000 1.000000 1.000000
1.000000 1.000000 1.000000
0.000000 0.682353 0.937255
0.100502 0.686565 0.937917
0.000000 0.682353 0.937255
0.549380 0.782587 0.954264
0.858122 0.921710 0.982169
0.818903 0.901447 0.977800
0.949475 0.971286 0.993286
0.905320 0.946927 0.987748
0.939899 0.965943 0.992059
0.991067 0.994861 0.998784
1.000000 1.000000 1.000000
0.995547 0.997435 0.999392
0.995547 0.997435 0.999392
1.000000 1.000000 1.000000
1.000000 1.000000 1.000000
1.000000 1.000000 1.000000
0.000000 0.682353 0.937255
0.000000 0.682353 0.937255
0.000000 0.682353 0.937255
0.350886 0.723054 0.943845
0.668207 0.830202 0.963259
0.925288 0.957855 0.990215
0.818903 0.901447 0.977800
0.905320 0.946927 0.987748
0.920349 0.955138 0.989599
0.991067 0.994861 0.998784
0.991067 0.994861 0.998784
1.000000 1.000000 1.000000
1.000000 1.000000 1.000000
1.000000 1.000000 1.000000
1.000000 1.000000 1.000000
1.000000 1.000000 1.000000
0.000000 0.682353 0.937255
0.000000 0.682353 0.937255
0.100502 0.686565 0.937917
0.273071 0.707138 0.941216
0.486793 0.760973 0.950375
0.732021 0.859009 0.968984
0.824656 0.904379 0.978426
0.954215 0.973943 0.993899
0.977463 0.987085 0.996956
0.982025 0.989686 0.997566
0.995547 0.997435 0.999392
0.995547 0.997435 0.999392
0.995547 0.997435 0.999392
1.000000 1.000000 1.000000
1.000000 1.000000 1.000000
1.000000 1.000000 1.000000
0.000000 0.682353 0.937255
0.000000 0.682353 0.937255
0.000000 0.682353 0.937255
0.152571 0.690743 0.938578
0.397773 0.734698 0.945810
0.568333 0.789621 0.955556
0.751750 0.868334 0.970882
0.818903 0.901447 0.977800
0.944703 0.968619 0.992673
0.972872 0.984475 0.996346
0.986560 0.992278 0.998175
1.000000 1.000000 1.000000
1.000000 1.000000 1.000000
0.995547 0.997435 0.999392
1.000000 1.000000 1.000000
1.000000 1.000000 1.000000
0.000000 0.682353 0.937255
0.000000 0.682353 0.937255
0.000000 0.682353 0.937255
0.000000 0.682353 0.937255
0.273071 0.707138 0.941216
0.451320 0.749859 0.948422
0.612501 0.806855 0.958776
0.795340 0.889594 0.975292
0.995547 0.997435 0.999392
0.920349 0.955138 0.989599
0.968252 0.981856 0.995735
0.991067 0.994861 0.998784
0.995547 0.997435 0.999392
1.000000 1.000000 1.000000
1.000000 1.000000 1.000000
1.000000 1.000000 1.000000
0.000000 0.682353 0.937255
0.000000 0.682353 0.937255
0.000000 0.682353 0.937255
0.000000 0.682353 0.937255
0.190775 0.694889 0.939238
0.350886 0.723054 0.943845
0.486793 0.760973 0.950375
0.668207 0.830202 0.963259
0.836007 0.910204 0.979675
0.895114 0.941400 0.986512
0.963603 0.979228 0.995123
0.991067 0.994861 0.998784
0.995547 0.997435 0.999392
1.000000 1.000000 1.000000
1.000000 1.000000 1.000000
1.000000 1.000000 1.000000
0.000000 0.682353 0.937255
0.000000 0.682353 0.937255
0.000000 0.682353 0.937255
0.000000 0.682353 0.937255
0.100502 0.686565 0.937917
0.294834 0.711161 0.941874
0.411972 0.738527 0.946464
0.549380 0.782587 0.954264
0.683060 0.836717 0.964535
0.836007 0.910204 0.979675
0.991067 0.994861 0.998784
0.954215 0.973943 0.993899
0.995547 0.997435 0.999392
0.995547 0.997435 0.999392
1.000000 1.000000 1.000000
1.000000 1.000000 1.000000
0.000000 0.682353 0.937255
0.000000 0.682353 0.937255
0.000000 0.682353 0.937255
0.000000 0.682353 0.937255
0.000000 0.682353 0.937255
0.249071 0.703086 0.940558
0.350886 0.723054 0.943845
0.451320 0.749859 0.948422
0.568333 0.789621 0.955556
0.704585 0.846365 0.966445
0.841607 0.913099 0.980299
0.935062 0.963257 0.991445
0.982025 0.989686 0.997566
1.000000 1.000000 1.000000
1.000000 1.000000 1.000000
1.000000 1.000000 1.000000
0.100502 0.686565 0.937917
0.100502 0.686565 0.937917
0.152571 0.690743 0.938578
0.190775 0.694889 0.939238
0.222074 0.699003 0.939898
0.273071 0.707138 0.941216
0.333453 0.719118 0.943189
0.397773 0.734698 0.945810
0.508742 0.768266 0.951674
0.603997 0.803447 0.958133
0.732021 0.859009 0.968984
0.863534 0.924557 0.982791
0.949475 0.971286 0.993286
0.977463 0.987085 0.996956
0.995547 0.997435 0.999392
1.000000 1.000000 1.000000
0.382922 0.730844 0.945156
0.382922 0.730844 0.945156
0.397773 0.734698 0.945810
0.411972 0.738527 0.946464
0.425591 0.742329 0.947117
0.451320 0.749859 0.948422
0.486793 0.760973 0.950375
0.519281 0.771879 0.952322
0.549380 0.782587 0.954264
0.595337 0.800020 0.957490
0.645092 0.820303 0.961341
0.745249 0.865240 0.970249
0.863534 0.924557 0.982791
0.954215 0.973943 0.993899
0.991067 0.994861 0.998784
1.000000 1.000000 1.000000
0.529556 0.775470 0.952970
0.529556 0.775470 0.952970
0.539583 0.779039 0.953618
0.549380 0.782587 0.954264
0.558959 0.786114 0.954911
0.577514 0.793107 0.956201
0.595337 0.800020 0.957490
0.620856 0.810245 0.959418
0.652915 0.823620 0.961981
0.683060 0.836717 0.964535
0.718473 0.852718 0.967715
0.758179 0.871413 0.971513
0.795340 0.889594 0.975292
0.884752 0.935830 0.985274
0.954215 0.973943 0.993899
1.000000 1.000000 1.000000
0.645092 0.820303 0.961341
0.645092 0.820303 0.961341
0.652915 0.823620 0.961981
0.660618 0.826920 0.962620
0.668207 0.830202 0.963259
0.683060 0.836717 0.964535
0.704585 0.846365 0.966445
0.725288 0.855871 0.968350
0.745249 0.865240 0.970249
0.777050 0.880565 0.973405
0.801316 0.892577 0.975920
0.836007 0.910204 0.979675
0.868903 0.927392 0.983412
0.905320 0.946927 0.987748
0.944703 0.968619 0.992673
1.000000 1.000000 1.000000
0.745249 0.865240 0.970249
0.745249 0.865240 0.970249
0.751750 0.868334 0.970882
0.758179 0.871413 0.971513
0.764537 0.874478 0.972144
0.777050 0.880565 0.973405
0.795340 0.889594 0.975292
0.813096 0.898503 0.977174
0.830357 0.907298 0.979051
0.858122 0.921710 0.982169
0.884752 0.935830 0.985274
0.910366 0.949675 0.988366
0.944703 0.968619 0.992673
0.977463 0.987085 0.996956
1.000000 1.000000 1.000000
1.000000 1.000000 1.000000
0.000000 0.682353 0.937255
0.000000 0.682353 0.937255
0.000000 0.682353 0.937255
0.637145 0.816968 0.960701
0.963603 0.979228 0.995123
1.000000 1.000000 1.000000
0.991067 0.994861 0.998784
0.991067 0.994861 0.998784
1.000000 1.000000 1.000000
1.000000 1.000000 1.000000
1.000000 1.000000 1.000000
1.000000 1.000000 1.000000
0.995547 0.997435 0.999392
0.995547 0.997435 0.999392
1.000000 1.000000 1.000000
1.000000 1.000000 1.000000
0.000000 0.682353 0.937255
0.152571 0.690743 0.938578
0.382922 0.730844 0.945156
0.738674 0.862132 0.969617
0.751750 0.868334 0.970882
0.958924 0.976590 0.994511
0.813096 0.898503 0.977174
0.830357 0.907298 0.979051
0.949475 0.971286 0.993286
1.000000 1.000000 1.000000
1.000000 1.000000 1.000000
1.000000 1.000000 1.000000
0.995547 0.997435 0.999392
0.995547 0.997435 0.999392
1.000000 1.000000 1.000000
1.000000 1.000000 1.000000
0.100502 0.686565 0.937917
0.000000 0.682353 0.937255
0.789305 0.886598 0.974663
0.732021 0.859009 0.968984
0.745249 0.865240 0.970249
0.801316 0.892577 0.975920
0.807234 0.895546 0.976547
0.777050 0.880565 0.973405
0.645092 0.820303 0.961341
0.783209 0.883588 0.974034
0.770827 0.877528 0.972775
0.858122 0.921710 0.982169
0.939899 0.965943 0.992059
0.995547 0.997435 0.999392
1.000000 1.000000 1.000000
1.000000 1.000000 1.000000
0.000000 0.682353 0.937255
0.152571 0.690743 0.938578
0.100502 0.686565 0.937917
0.758179 0.871413 0.971513
0.920349 0.955138 0.989599
0.968252 0.981856 0.995735
0.751750 0.868334 0.970882
0.982025 0.989686 0.997566
0.977463 0.987085 0.996956
0.986560 0.992278 0.998175
0.738674 0.862132 0.969617
0.900236 0.944169 0.987130
0.991067 0.994861 0.998784
0.991067 0.994861 0.998784
1.000000 1.000000 1.000000
1.000000 1.000000 1.000000
0.000000 0.682353 0.937255
0.000000 0.682353 0.937255
0.000000 0.682353 0.937255
0.222074 0.699003 0.939898
0.718473 0.852718 0.967715
0.884752 0.935830 0.985274
0.813096 0.898503 0.977174
0.603997 0.803447 0.958133
0.603997 0.803447 0.958133
0.830357 0.907298 0.979051
0.758179 0.871413 0.971513
0.972872 0.984475 0.996346
0.972872 0.984475 0.996346
0.991067 0.994861 0.998784
1.000000 1.000000 1.000000
1.000000 1.000000 1.000000
0.000000 0.682353 0.937255
0.000000 0.682353 0.937255
0.000000 0.682353 0.937255
0.000000 0.682353 0.937255
0.294834 0.711161 0.941874
0.539583 0.779039 0.953618
0.874228 0.930216 0.984033
1.000000 1.000000 1.000000
0.925288 0.957855 0.990215
0.944703 0.968619 0.992673
0.758179 0.871413 0.971513
0.895114 0.941400 0.986512
0.982025 0.989686 0.997566
1.000000 1.000000 1.000000
1.000000 1.000000 1.000000
1.000000 1.000000 1.000000
0.000000 0.682353 0.937255
0.000000 0.682353 0.937255
0.000000 0.682353 0.937255
0.000000 0.682353 0.937255
0.100502 0.686565 0.937917
0.382922 0.730844 0.945156
0.745249 0.865240 0.970249
0.758179 0.871413 0.971513
0.977463 0.987085 0.996956
0.697506 0.843165 0.965809
0.824656 0.904379 0.978426
0.847159 0.915981 0.980923
0.949475 0.971286 0.993286
0.972872 0.984475 0.996346
1.000000 1.000000 1.000000
1.000000 1.000000 1.000000
0.000000 0.682353 0.937255
0.000000 0.682353 0.937255
0.000000 0.682353 0.937255
0.000000 0.682353 0.937255
0.000000 0.682353 0.937255
0.294834 0.711161 0.941874
0.475337 0.757292 0.949725
0.645092 0.820303 0.961341
0.863534 0.924557 0.982791
0.830357 0.907298 0.979051
0.991067 0.994861 0.998784
0.818903 0.901447 0.977800
0.879511 0.933029 0.984654
1.000000 1.000000 1.000000
1.000000 1.000000 1.000000
1.000000 1.000000 1.000000
0.000000 0.682353 0.937255
0.000000 0.682353 0.937255
0.000000 0.682353 0.937255
0.000000 0.682353 0.937255
0.000000 0.682353 0.937255
0.249071 0.703086 0.940558
0.411972 0.738527 0.946464
0.558959 0.786114 0.954911
0.789305 0.886598 0.974663
0.830357 0.907298 0.979051
0.995547 0.997435 0.999392
1.000000 1.000000 1.000000
0.879511 0.933029 0.984654
0.977463 0.987085 0.996956
1.000000 1.000000 1.000000
1.000000 1.000000 1.000000
0.000000 0.682353 0.937255
0.000000 0.682353 0.937255
0.000000 0.682353 0.937255
0.000000 0.682353 0.937255
0.000000 0.682353 0.937255
0.152571 0.690743 0.938578
0.333453 0.719118 0.943189
0.463523 0.753588 0.949074
0.612501 0.806855 0.958776
0.795340 0.889594 0.975292
0.770827 0.877528 0.972775
0.995547 0.997435 0.999392
0.925288 0.957855 0.990215
0.972872 0.984475 0.996346
1.000000 1.000000 1.000000
1.000000 1.000000 1.000000
0.000000 0.682353 0.937255
0.000000 0.682353 0.937255
0.000000 0.682353 0.937255
0.000000 0.682353 0.937255
0.000000 0.682353 0.937255
0.100502 0.686565 0.937917
0.273071 0.707138 0.941216
0.397773 0.734698 0.945810
0.508742 0.768266 0.951674
0.645092 0.820303 0.961341
0.777050 0.880565 0.973405
0.868903 0.927392 0.983412
0.977463 0.987085 0.996956
0.954215 0.973943 0.993899
1.000000 1.000000 1.000000
1.000000 1.000000 1.000000
0.100502 0.686565 0.937917
0.152571 0.690743 0.938578
0.152571 0.690743 0.938578
0.190775 0.694889 0.939238
0.249071 0.703086 0.940558
0.294834 0.711161 0.941874
0.333453 0.719118 0.943189
0.382922 0.730844 0.945156
0.451320 0.749859 0.948422
0.549380 0.782587 0.954264
0.675686 0.833468 0.963898
0.795340 0.889594 0.975292
0.968252 0.981856 0.995735
0.944703 0.968619 0.992673
0.982025 0.989686 0.997566
1.000000 1.000000 1.000000
0.382922 0.730844 0.945156
0.382922 0.730844 0.945156
0.397773 0.734698 0.945810
0.411972 0.738527 0.946464
0.425591 0.742329 0.947117
0.451320 0.749859 0.948422
0.486793 0.760973 0.950375
0.519281 0.771879 0.952322
0.549380 0.782587 0.954264
0.595337 0.800020 0.957490
0.637145 0.816968 0.960701
0.697506 0.843165 0.965809
0.813096 0.898503 0.977174
0.863534 0.924557 0.982791
0.968252 0.981856 0.995735
1.000000 1.000000 1.000000
0.529556 0.775470 0.952970
0.529556 0.775470 0.952970
0.539583 0.779039 0.953618
0.549380 0.782587 0.954264
0.558959 0.786114 0.954911
0.577514 0.793107 0.956201
0.603997 0.803447 0.958133
0.629068 0.813616 0.960060
0.652915 0.823620 0.961981
0.690332 0.839949 0.965172
0.725288 0.855871 0.968350
0.758179 0.871413 0.971513
0.795340 0.889594 0.975292
0.852664 0.918851 0.981546
0.944703 0.968619 0.992673
1.000000 1.000000 1.000000
0.645092 0.820303 0.961341
0.645092 0.820303 0.961341
0.652915 0.823620 0.961981
0.660618 0.826920 0.962620
0.668207 0.830202 0.963259
0.683060 0.836717 0.964535
0.704585 0.846365 0.966445
0.725288 0.855871 0.968350
0.745249 0.865240 0.970249
0.777050 0.880565 0.973405
0.801316 0.892577 0.975920
0.836007 0.910204 0.979675
0.868903 0.927392 0.983412
0.905320 0.946927 0.987748
0.944703 0.968619 0.992673
1.000000 1.000000 1.000000
0.745249 0.865240 0.970249
0.745249 0.865240 0.970249
0.751750 0.868334 0.970882
0.758179 0.871413 0.971513
0.764537 0.874478 0.972144
0.777050 0.880565 0.973405
0.795340 0.889594 0.975292
0.813096 0.898503 0.977174
0.830357 0.907298 0.979051
0.858122 0.921710 0.982169
0.884752 0.935830 0.985274
0.910366 0.949675 0.988366
0.939899 0.965943 0.992059
0.972872 0.984475 0.996346
1.000000 1.000000 1.000000
1.000000 1.000000 1.000000
0.000000 0.682353 0.937255
0.000000 0.682353 0.937255
0.000000 0.682353 0.937255
0.000000 0.682353 0.937255
0.577514 0.793107 0.956201
0.874228 0.930216 0.984033
0.995547 0.997435 0.999392
0.995547 0.997435 0.999392
1.000000 1.000000 1.000000
1.000000 1.000000 1.000000
0.991067 0.994861 0.998784
1.000000 1.000000 1.000000
1.000000 1.000000 1.000000
1.000000 1.000000 1.000000
1.000000 1.000000 1.000000
1.000000 1.000000 1.000000
0.000000 0.682353 0.937255
0.000000 0.682353 0.937255
0.000000 0.682353 0.937255
0.100502 0.686565 0.937917
0.586512 0.796573 0.956846
0.789305 0.886598 0.974663
0.777050 0.880565 0.973405
0.920349 0.955138 0.989599
0.889953 0.938621 0.985893
0.986560 0.992278 0.998175
0.982025 0.989686 0.997566
1.000000 1.000000 1.000000
1.000000 1.000000 1.000000
1.000000 1.000000 1.000000
1.000000 1.000000 1.000000
1.000000 1.000000 1.000000
0.000000 0.682353 0.937255
0.190775 0.694889 0.939238
0.222074 0.699003 0.939898
0.475337 0.757292 0.949725
0.818903 0.901447 0.977800
0.612501 0.806855 0.958776
0.718473 0.852718 0.967715
0.675686 0.833468 0.963898
0.958924 0.976590 0.994511
0.758179 0.871413 0.971513
0.874228 0.930216 0.984033
0.847159 0.915981 0.980923
0.915376 0.952412 0.988982
1.000000 1.000000 1.000000
1.000000 1.000000 1.000000
1.000000 1.000000 1.000000
0.000000 0.682353 0.937255
0.000000 0.682353 0.937255
0.249071 0.703086 0.940558
0.858122 0.921710 0.982169
0.652915 0.823620 0.961981
0.841607 0.913099 0.980299
0.711573 0.849549 0.967080
0.889953 0.938621 0.985893
0.879511 0.933029 0.984654
0.745249 0.865240 0.970249
0.847159 0.915981 0.980923
1.000000 1.000000 1.000000
1.000000 1.000000 1.000000
0.986560 0.992278 0.998175
1.000000 1.000000 1.000000
1.000000 1.000000 1.000000
0.000000 0.682353 0.937255
0.000000 0.682353 0.937255
0.000000 0.682353 0.937255
0.249071 0.703086 0.940558
0.629068 0.813616 0.960060
0.818903 0.901447 0.977800
0.995547 0.997435 0.999392
0.711573 0.849549 0.967080
0.612501 0.806855 0.958776
0.895114 0.941400 0.986512
0.920349 0.955138 0.989599
0.958924 0.976590 0.994511
0.939899 0.965943 0.992059
0.986560 0.992278 0.998175
1.000000 1.000000 1.000000
1.000000 1.000000 1.000000
0.000000 0.682353 0.937255
0.000000 0.682353 0.937255
0.000000 0.682353 0.937255
0.000000 0.682353 0.937255
0.000000 0.682353 0.937255
0.529556 0.775470 0.952970
0.764537 0.874478 0.972144
0.549380 0.782587 0.954264
0.968252 0.981856 0.995735
0.925288 0.957855 0.990215
0.889953 0.938621 0.985893
0.982025 0.989686 0.997566
0.963603 0.979228 0.995123
0.995547 0.997435 0.999392
1.000000 1.000000 1.000000
1.000000 1.000000 1.000000
0.000000 0.682353 0.937255
0.000000 0.682353 0.937255
0.000000 0.682353 0.937255
0.000000 0.682353 0.937255
0.000000 0.682353 0.937255
0.411972 0.738527 0.946464
0.100502 0.686565 0.937917
0.612501 0.806855 0.958776
0.841607 0.913099 0.980299
0.852664 0.918851 0.981546
0.968252 0.981856 0.995735
0.858122 0.921710 0.982169
0.939899 0.965943 0.992059
0.968252 0.981856 0.995735
1.000000 1.000000 1.000000
1.000000 1.000000 1.000000
0.000000 0.682353 0.937255
0.000000 0.682353 0.937255
0.000000 0.682353 0.937255
0.000000 0.682353 0.937255
0.000000 0.682353 0.937255
0.000000 0.682353 0.937255
0.000000 0.682353 0.937255
