tests/cmyk_3.cube
LUT_3D_SIZE 6
DOMAIN_MIN 0 0 0
DOMAIN_MAX 1 1 1
0.137255 0.121569 0.125490
0.239047 0.230976 0.232933
0.456189 0.453019 0.453779
0.682876 0.681555 0.681871
0.907020 0.906706 0.906781
1.000000 1.000000 1.000000
0.285928 0.279542 0.281083
0.239047 0.230976 0.232933
0.443945 0.440626 0.441422
0.682876 0.681555 0.681871
0.911970 0.911674 0.911744
1.000000 1.000000 1.000000
0.561104 0.558961 0.559474
0.561104 0.558961 0.559474
0.443945 0.440626 0.441422
0.653241 0.651745 0.652103
0.897012 0.896662 0.896746
1.000000 1.000000 1.000000
0.833592 0.832995 0.833138
0.850033 0.849503 0.849630
0.799364 0.798623 0.798800
0.668271 0.666866 0.667202
0.855421 0.854913 0.855034
1.000000 1.000000 1.000000
1.000000 1.000000 1.000000
1.000000 1.000000 1.000000
1.000000 1.000000 1.000000
1.000000 1.000000 1.000000
0.881718 0.881311 0.881408
1.000000 1.000000 1.000000
1.000000 1.000000 1.000000
1.000000 1.000000 1.000000
1.000000 1.000000 1.000000
1.000000 1.000000 1.000000
1.000000 1.000000 1.000000
1.000000 1.000000 1.000000
0.211102 0.201669 0.203966
0.431266 0.427783 0.428618
0.443945 0.440626 0.441422
0.675624 0.674262 0.674588
0.907020 0.906706 0.906781
1.000000 1.000000 1.000000
0.306295 0.300482 0.301883
0.239047 0.230976 0.232933
0.570278 0.568208 0.568704
0.833592 0.832995 0.833138
0.911970 0.911674 0.911744
1.000000 1.000000 1.000000
0.570278 0.568208 0.568704
0.605222 0.603411 0.603844
0.839119 0.838545 0.838682
0.737617 0.736587 0.736833
0.936203 0.935992 0.936043
1.000000 1.000000 1.000000
0.844599 0.844048 0.844179
0.866066 0.865599 0.865711
0.911970 0.911674 0.911744
0.756834 0.755898 0.756122
0.897012 0.896662 0.896746
1.000000 1.000000 1.000000
1.000000 1.000000 1.000000
1.000000 1.000000 1.000000
1.000000 1.000000 1.000000
1.000000 1.000000 1.000000
0.977847 0.977776 0.977793
1.000000 1.000000 1.000000
1.000000 1.000000 1.000000
1.000000 1.000000 1.000000
1.000000 1.000000 1.000000
1.000000 1.000000 1.000000
1.000000 1.000000 1.000000
1.000000 1.000000 1.000000
0.375160 0.370820 0.371863
0.490663 0.487877 0.488545
0.799364 0.798623 0.798800
0.763101 0.762194 0.762411
0.881718 0.881311 0.881408
1.000000 1.000000 1.000000
0.404413 0.400549 0.401476
0.551734 0.549515 0.550046
0.876542 0.876115 0.876217
0.844599 0.844048 0.844179
0.964230 0.964114 0.964142
1.000000 1.000000 1.000000
0.579268 0.577267 0.577746
0.621760 0.620063 0.620469
0.532361 0.529975 0.530546
0.645556 0.644013 0.644382
0.891953 0.891584 0.891672
1.000000 1.000000 1.000000
0.850033 0.849503 0.849630
0.871325 0.870878 0.870985
0.931423 0.931196 0.931250
0.977847 0.977776 0.977793
0.921764 0.921503 0.921565
1.000000 1.000000 1.000000
1.000000 1.000000 1.000000
1.000000 1.000000 1.000000
1.000000 1.000000 1.000000
1.000000 1.000000 1.000000
0.921764 0.921503 0.921565
1.000000 1.000000 1.000000
1.000000 1.000000 1.000000
1.000000 1.000000 1.000000
1.000000 1.000000 1.000000
1.000000 1.000000 1.000000
1.000000 1.000000 1.000000
1.000000 1.000000 1.000000
0.551734 0.549515 0.550046
0.570278 0.568208 0.568704
0.886855 0.886467 0.886560
1.000000 1.000000 1.000000
1.000000 1.000000 1.000000
1.000000 1.000000 1.000000
0.570278 0.568208 0.568704
0.613563 0.611810 0.612229
0.911970 0.911674 0.911744
1.000000 1.000000 1.000000
1.000000 1.000000 1.000000
1.000000 1.000000 1.000000
0.629821 0.628177 0.628570
0.731064 0.730001 0.730255
0.921764 0.921503 0.921565
0.968797 0.968697 0.968721
0.945668 0.945489 0.945532
1.000000 1.000000 1.000000
0.860766 0.860278 0.860394
0.881718 0.881311 0.881408
0.986788 0.986745 0.986756
0.605222 0.603411 0.603844
0.886855 0.886467 0.886560
1.000000 1.000000 1.000000
1.000000 1.000000 1.000000
1.000000 1.000000 1.000000
1.000000 1.000000 1.000000
1.000000 1.000000 1.000000
0.871325 0.870878 0.870985
1.000000 1.000000 1.000000
1.000000 1.000000 1.000000
1.000000 1.000000 1.000000
1.000000 1.000000 1.000000
1.000000 1.000000 1.000000
1.000000 1.000000 1.000000
1.000000 1.000000 1.000000
0.737617 0.736587 0.736833
0.744095 0.743097 0.743335
0.940951 0.940757 0.940803
1.000000 1.000000 1.000000
1.000000 1.000000 1.000000
1.000000 1.000000 1.000000
0.750500 0.749533 0.749764
0.756834 0.755898 0.756122
0.964230 0.964114 0.964142
1.000000 1.000000 1.000000
1.000000 1.000000 1.000000
1.000000 1.000000 1.000000
0.793470 0.792703 0.792886
0.799364 0.798623 0.798800
1.000000 1.000000 1.000000
1.000000 1.000000 1.000000
1.000000 1.000000 1.000000
1.000000 1.000000 1.000000
0.881718 0.881311 0.881408
0.866066 0.865599 0.865711
0.955009 0.954862 0.954897
1.000000 1.000000 1.000000
1.000000 1.000000 1.000000
1.000000 1.000000 1.000000
1.000000 1.000000 1.000000
1.000000 1.000000 1.000000
1.000000 1.000000 1.000000
1.000000 1.000000 1.000000
1.000000 1.000000 1.000000
1.000000 1.000000 1.000000
1.000000 1.000000 1.000000
1.000000 1.000000 1.000000
1.000000 1.000000 1.000000
1.000000 1.000000 1.000000
1.000000 1.000000 1.000000
1.000000 1.000000 1.000000
0.921764 0.921503 0.921565
0.926610 0.926366 0.926424
1.000000 1.000000 1.000000
1.000000 1.000000 1.000000
1.000000 1.000000 1.000000
1.000000 1.000000 1.000000
0.931423 0.931196 0.931250
0.936203 0.935992 0.936043
1.000000 1.000000 1.000000
1.000000 1.000000 1.000000
1.000000 1.000000 1.000000
1.000000 1.000000 1.000000
0.964230 0.964114 0.964142
0.968797 0.968697 0.968721
1.000000 1.000000 1.000000
1.000000 1.000000 1.000000
1.000000 1.000000 1.000000
1.000000 1.000000 1.000000
1.000000 1.000000 1.000000
1.000000 1.000000 1.000000
1.000000 1.000000 1.000000
1.000000 1.000000 1.000000
1.000000 1.000000 1.000000
1.000000 1.000000 1.000000
1.000000 1.000000 1.000000
1.000000 1.000000 1.000000
1.000000 1.000000 1.000000
1.000000 1.000000 1.000000
1.000000 1.000000 1.000000
1.000000 1.000000 1.000000
1.000000 1.000000 1.000000
1.000000 1.000000 1.000000
1.000000 1.000000 1.000000
1.000000 1.000000 1.000000
1.000000 1.000000 1.000000
1.000000 1.000000 1.000000
