tests/cmyk_3m.cube
LUT_3D_SIZE 16
DOMAIN_MIN 0 0 0
DOMAIN_MAX 1 1 1
1.000000 1.000000 1.000000
1.000000 1.000000 1.000000
1.000000 1.000000 1.000000
0.969697 0.969697 0.969697
0.939394 0.939394 0.939394
0.888889 0.888889 0.888889
0.838384 0.838384 0.838384
0.767677 0.767677 0.767677
0.686869 0.686869 0.686869
0.585859 0.585859 0.585859
0.474747 0.474747 0.474747
0.343434 0.343434 0.343434
0.202020 0.202020 0.202020
0.040404 0.040404 0.040404
0.000000 0.000000 0.000000
0.000000 0.000000 0.000000
1.000000 1.000000 1.000000
1.000000 1.000000 1.000000
0.989899 0.989899 0.989899
0.969697 0.969697 0.969697
0.939394 0.939394 0.939394
0.888889 0.888889 0.888889
0.828283 0.828283 0.828283
0.757576 0.757576 0.757576
0.666667 0.666667 0.666667
0.575758 0.575758 0.575758
0.464646 0.464646 0.464646
0.333333 0.333333 0.333333
0.191919 0.191919 0.191919
0.030303 0.030303 0.030303
0.000000 0.000000 0.000000
0.000000 0.000000 0.000000
0.979798 0.979798 0.979798
0.979798 0.979798 0.979798
0.989899 0.989899 0.989899
0.969697 0.969697 0.969697
0.939394 0.939394 0.939394
0.898990 0.898990 0.898990
0.838384 0.838384 0.838384
0.767677 0.767677 0.767677
0.676768 0.676768 0.676768
0.575758 0.575758 0.575758
0.454545 0.454545 0.454545
0.333333 0.333333 0.333333
0.171717 0.171717 0.171717
0.010101 0.010101 0.010101
0.000000 0.000000 0.000000
0.000000 0.000000 0.000000
0.949495 0.949495 0.949495
0.939394 0.939394 0.939394
0.949495 0.949495 0.949495
0.969697 0.969697 0.969697
0.949495 0.949495 0.949495
0.898990 0.898990 0.898990
0.848485 0.848485 0.848485
0.767677 0.767677 0.767677
0.686869 0.686869 0.686869
0.585859 0.585859 0.585859
0.464646 0.464646 0.464646
0.333333 0.333333 0.333333
0.191919 0.191919 0.191919
0.020202 0.020202 0.020202
0.000000 0.000000 0.000000
0.000000 0.000000 0.000000
0.898990 0.898990 0.898990
0.888889 0.888889 0.888889
0.898990 0.898990 0.898990
0.909091 0.909091 0.909091
0.939394 0.939394 0.939394
0.909091 0.909091 0.909091
0.858586 0.858586 0.858586
0.777778 0.777778 0.777778
0.696970 0.696970 0.696970
0.595960 0.595960 0.595960
0.474747 0.474747 0.474747
0.343434 0.343434 0.343434
0.191919 0.191919 0.191919
0.030303 0.030303 0.030303
0.000000 0.000000 0.000000
0.000000 0.000000 0.000000
0.828283 0.828283 0.828283
0.818182 0.818182 0.818182
0.818182 0.818182 0.818182
0.838384 0.838384 0.838384
0.858586 0.858586 0.858586
0.898990 0.898990 0.898990
0.868687 0.868687 0.868687
0.797980 0.797980 0.797980
0.707071 0.707071 0.707071
0.606061 0.606061 0.606061
0.484848 0.484848 0.484848
0.353535 0.353535 0.353535
0.212121 0.212121 0.212121
0.050505 0.050505 0.050505
0.000000 0.000000 0.000000
0.000000 0.000000 0.000000
0.737374 0.737374 0.737374
0.727273 0.727273 0.727273
0.717172 0.717172 0.717172
0.737374 0.737374 0.737374
0.767677 0.767677 0.767677
0.797980 0.797980 0.797980
0.848485 0.848485 0.848485
0.818182 0.818182 0.818182
0.727273 0.727273 0.727273
0.626263 0.626263 0.626263
0.515152 0.515152 0.515152
0.373737 0.373737 0.373737
0.222222 0.222222 0.222222
0.060606 0.060606 0.060606
0.000000 0.000000 0.000000
0.000000 0.000000 0.000000
0.626263 0.626263 0.626263
0.626263 0.626263 0.626263
0.616162 0.616162 0.616162
0.616162 0.616162 0.616162
0.636364 0.636364 0.636364
0.686869 0.686869 0.686869
0.727273 0.727273 0.727273
0.777778 0.777778 0.777778
0.747475 0.747475 0.747475
0.646465 0.646465 0.646465
0.525253 0.525253 0.525253
0.404040 0.404040 0.404040
0.252525 0.252525 0.252525
0.080808 0.080808 0.080808
0.000000 0.000000 0.000000
0.000000 0.000000 0.000000
0.494949 0.494949 0.494949
0.494949 0.494949 0.494949
0.484848 0.484848 0.484848
0.474747 0.474747 0.474747
0.505050 0.505050 0.505050
0.545455 0.545455 0.545455
0.585859 0.585859 0.585859
0.626263 0.626263 0.626263
0.696970 0.696970 0.696970
0.676768 0.676768 0.676768
0.565657 0.565657 0.565657
0.424242 0.424242 0.424242
0.272727 0.272727 0.272727
0.111111 0.111111 0.111111
0.000000 0.000000 0.000000
0.000000 0.000000 0.000000
0.343434 0.343434 0.343434
0.343434 0.343434 0.343434
0.333333 0.333333 0.333333
0.313131 0.313131 0.313131
0.323232 0.323232 0.323232
0.373737 0.373737 0.373737
0.404040 0.404040 0.404040
0.464646 0.464646 0.464646
0.535354 0.535354 0.535354
0.606061 0.606061 0.606061
0.585859 0.585859 0.585859
0.454545 0.454545 0.454545
0.303030 0.303030 0.303030
0.141414 0.141414 0.141414
0.000000 0.000000 0.000000
0.000000 0.000000 0.000000
0.171717 0.171717 0.171717
0.171717 0.171717 0.171717
0.151515 0.151515 0.151515
0.141414 0.141414 0.141414
0.141414 0.141414 0.141414
0.171717 0.171717 0.171717
0.212121 0.212121 0.212121
0.272727 0.272727 0.272727
0.343434 0.343434 0.343434
0.414141 0.414141 0.414141
0.494949 0.494949 0.494949
0.494949 0.494949 0.494949
0.343434 0.343434 0.343434
0.181818 0.181818 0.181818
0.000000 0.000000 0.000000
0.000000 0.000000 0.000000
0.000000 0.000000 0.000000
0.000000 0.000000 0.000000
0.000000 0.000000 0.000000
0.000000 0.000000 0.000000
0.000000 0.000000 0.000000
0.000000 0.000000 0.000000
0.020202 0.020202 0.020202
0.050505 0.050505 0.050505
0.131313 0.131313 0.131313
0.202020 0.202020 0.202020
0.282828 0.282828 0.282828
0.383838 0.383838 0.383838
0.383838 0.383838 0.383838
0.212121 0.212121 0.212121
0.030303 0.030303 0.030303
0.000000 0.000000 0.000000
0.000000 0.000000 0.000000
0.000000 0.000000 0.000000
0.000000 0.000000 0.000000
0.000000 0.000000 0.000000
0.000000 0.000000 0.000000
0.000000 0.000000 0.000000
0.000000 0.000000 0.000000
0.000000 0.000000 0.000000
0.000000 0.000000 0.000000
0.000000 0.000000 0.000000
0.030303 0.030303 0.030303
0.121212 0.121212 0.121212
0.252525 0.252525 0.252525
0.242424 0.242424 0.242424
0.090909 0.090909 0.090909
0.000000 0.000000 0.000000
0.000000 0.000000 0.000000
0.000000 0.000000 0.000000
0.000000 0.000000 0.000000
0.000000 0.000000 0.000000
0.000000 0.000000 0.000000
0.000000 0.000000 0.000000
0.000000 0.000000 0.000000
0.000000 0.000000 0.000000
0.000000 0.000000 0.000000
0.000000 0.000000 0.000000
0.000000 0.000000 0.000000
0.000000 0.000000 0.000000
0.000000 0.000000 0.000000
0.101010 0.101010 0.101010
0.121212 0.121212 0.121212
0.000000 0.000000 0.000000
0.000000 0.000000 0.000000
0.000000 0.000000 0.000000
0.000000 0.000000 0.000000
0.000000 0.000000 0.000000
0.000000 0.000000 0.000000
0.000000 0.000000 0.000000
0.000000 0.000000 0.000000
0.000000 0.000000 0.000000
0.000000 0.000000 0.000000
0.000000 0.000000 0.000000
0.000000 0.000000 0.000000
0.000000 0.000000 0.000000
0.000000 0.000000 0.000000
0.000000 0.000000 0.000000
0.000000 0.000000 0.000000
0.000000 0.000000 0.000000
0.000000 0.000000 0.000000
0.000000 0.000000 0.000000
0.000000 0.000000 0.000000
0.000000 0.000000 0.000000
0.000000 0.000000 0.000000
0.000000 0.000000 0.000000
0.000000 0.000000 0.000000
0.000000 0.000000 0.000000
0.000000 0.000000 0.000000
0.000000 0.000000 0.000000
0.000000 0.000000 0.000000
0.000000 0.000000 0.000000
0.000000 0.000000 0.000000
0.000000 0.000000 0.000000
0.000000 0.000000 0.000000
0.000000 0.000000 0.000000
1.000000 1.000000 1.000000
0.989899 0.989899 0.989899
0.989899 0.989899 0.989899
0.969697 0.969697 0.969697
0.939394 0.939394 0.939394
0.888889 0.888889 0.888889
0.828283 0.828283 0.828283
0.757576 0.757576 0.757576
0.676768 0.676768 0.676768
0.585859 0.585859 0.585859
0.474747 0.474747 0.474747
0.343434 0.343434 0.343434
0.202020 0.202020 0.202020
0.040404 0.040404 0.040404
0.000000 0.000000 0.000000
0.000000 0.000000 0.000000
1.000000 1.000000 1.000000
1.000000 1.000000 1.000000
0.989899 0.989899 0.989899
0.969697 0.969697 0.969697
0.919192 0.919192 0.919192
0.868687 0.868687 0.868687
0.828283 0.828283 0.828283
0.696970 0.696970 0.696970
0.666667 0.666667 0.666667
0.575758 0.575758 0.575758
0.454545 0.454545 0.454545
0.333333 0.333333 0.333333
0.191919 0.191919 0.191919
0.030303 0.030303 0.030303
0.000000 0.000000 0.000000
0.000000 0.000000 0.000000
0.979798 0.979798 0.979798
0.969697 0.969697 0.969697
0.979798 0.979798 0.979798
0.959596 0.959596 0.959596
0.919192 0.919192 0.919192
0.878788 0.878788 0.878788
0.818182 0.818182 0.818182
0.737374 0.737374 0.737374
0.676768 0.676768 0.676768
0.565657 0.565657 0.565657
0.464646 0.464646 0.464646
0.323232 0.323232 0.323232
0.171717 0.171717 0.171717
0.010101 0.010101 0.010101
0.000000 0.000000 0.000000
0.000000 0.000000 0.000000
0.939394 0.939394 0.939394
0.939394 0.939394 0.939394
0.919192 0.919192 0.919192
0.929293 0.929293 0.929293
0.929293 0.929293 0.929293
0.858586 0.858586 0.858586
0.828283 0.828283 0.828283
0.727273 0.727273 0.727273
0.646465 0.646465 0.646465
0.575758 0.575758 0.575758
0.464646 0.464646 0.464646
0.333333 0.333333 0.333333
0.181818 0.181818 0.181818
0.020202 0.020202 0.020202
0.000000 0.000000 0.000000
0.000000 0.000000 0.000000
0.888889 0.888889 0.888889
0.878788 0.878788 0.878788
0.868687 0.868687 0.868687
0.878788 0.878788 0.878788
0.898990 0.898990 0.898990
0.898990 0.898990 0.898990
0.787879 0.787879 0.787879
0.737374 0.737374 0.737374
0.646465 0.646465 0.646465
0.585859 0.585859 0.585859
0.464646 0.464646 0.464646
0.343434 0.343434 0.343434
0.191919 0.191919 0.191919
0.030303 0.030303 0.030303
0.000000 0.000000 0.000000
0.000000 0.000000 0.000000
0.818182 0.818182 0.818182
0.818182 0.818182 0.818182
0.808081 0.808081 0.808081
0.808081 0.808081 0.808081
0.828283 0.828283 0.828283
0.858586 0.858586 0.858586
0.808081 0.808081 0.808081
0.777778 0.777778 0.777778
0.696970 0.696970 0.696970
0.595960 0.595960 0.595960
0.484848 0.484848 0.484848
0.353535 0.353535 0.353535
0.202020 0.202020 0.202020
0.040404 0.040404 0.040404
0.000000 0.000000 0.000000
0.000000 0.000000 0.000000
0.737374 0.737374 0.737374
0.727273 0.727273 0.727273
0.717172 0.717172 0.717172
0.707071 0.707071 0.707071
0.737374 0.737374 0.737374
0.767677 0.767677 0.767677
0.797980 0.797980 0.797980
0.727273 0.727273 0.727273
0.696970 0.696970 0.696970
0.606061 0.606061 0.606061
0.494949 0.494949 0.494949
0.373737 0.373737 0.373737
0.232323 0.232323 0.232323
0.050505 0.050505 0.050505
0.000000 0.000000 0.000000
0.000000 0.000000 0.000000
0.626263 0.626263 0.626263
0.616162 0.616162 0.616162
0.606061 0.606061 0.606061
0.585859 0.585859 0.585859
0.606061 0.606061 0.606061
0.646465 0.646465 0.646465
0.686869 0.686869 0.686869
0.737374 0.737374 0.737374
0.747475 0.747475 0.747475
0.585859 0.585859 0.585859
0.505050 0.505050 0.505050
0.383838 0.383838 0.383838
0.242424 0.242424 0.242424
0.080808 0.080808 0.080808
0.000000 0.000000 0.000000
0.000000 0.000000 0.000000
0.494949 0.494949 0.494949
0.484848 0.484848 0.484848
0.474747 0.474747 0.474747
0.454545 0.454545 0.454545
0.464646 0.464646 0.464646
0.494949 0.494949 0.494949
0.535354 0.535354 0.535354
0.606061 0.606061 0.606061
0.666667 0.666667 0.666667
0.595960 0.595960 0.595960
0.525253 0.525253 0.525253
0.414141 0.414141 0.414141
0.272727 0.272727 0.272727
0.101010 0.101010 0.101010
0.000000 0.000000 0.000000
0.000000 0.000000 0.000000
0.343434 0.343434 0.343434
0.333333 0.333333 0.333333
0.323232 0.323232 0.323232
0.303030 0.303030 0.303030
0.292929 0.292929 0.292929
0.333333 0.333333 0.333333
0.373737 0.373737 0.373737
0.434343 0.434343 0.434343
0.494949 0.494949 0.494949
0.565657 0.565657 0.565657
0.585859 0.585859 0.585859
0.404040 0.404040 0.404040
0.303030 0.303030 0.303030
0.131313 0.131313 0.131313
0.000000 0.000000 0.000000
0.000000 0.000000 0.000000
0.171717 0.171717 0.171717
0.161616 0.161616 0.161616
0.151515 0.151515 0.151515
0.131313 0.131313 0.131313
0.101010 0.101010 0.101010
0.151515 0.151515 0.151515
0.181818 0.181818 0.181818
0.222222 0.222222 0.222222
0.292929 0.292929 0.292929
0.373737 0.373737 0.373737
0.454545 0.454545 0.454545
0.424242 0.424242 0.424242
0.323232 0.323232 0.323232
0.171717 0.171717 0.171717
0.000000 0.000000 0.000000
0.000000 0.000000 0.000000
0.000000 0.000000 0.000000
0.000000 0.000000 0.000000
0.000000 0.000000 0.000000
0.000000 0.000000 0.000000
0.000000 0.000000 0.000000
0.000000 0.000000 0.000000
0.000000 0.000000 0.000000
0.020202 0.020202 0.020202
0.090909 0.090909 0.090909
0.151515 0.151515 0.151515
0.252525 0.252525 0.252525
0.343434 0.343434 0.343434
0.323232 0.323232 0.323232
0.181818 0.181818 0.181818
0.020202 0.020202 0.020202
0.000000 0.000000 0.000000
0.000000 0.000000 0.000000
0.000000 0.000000 0.000000
0.000000 0.000000 0.000000
0.000000 0.000000 0.000000
0.000000 0.000000 0.000000
0.000000 0.000000 0.000000
0.000000 0.000000 0.000000
0.000000 0.000000 0.000000
0.000000 0.000000 0.000000
0.000000 0.000000 0.000000
0.020202 0.020202 0.020202
0.101010 0.101010 0.101010
0.202020 0.202020 0.202020
0.191919 0.191919 0.191919
0.060606 0.060606 0.060606
0.000000 0.000000 0.000000
0.000000 0.000000 0.000000
0.000000 0.000000 0.000000
0.000000 0.000000 0.000000
0.000000 0.000000 0.000000
0.000000 0.000000 0.000000
0.000000 0.000000 0.000000
0.000000 0.000000 0.000000
0.000000 0.000000 0.000000
0.000000 0.000000 0.000000
0.000000 0.000000 0.000000
0.000000 0.000000 0.000000
0.000000 0.000000 0.000000
0.000000 0.000000 0.000000
0.070707 0.070707 0.070707
0.040404 0.040404 0.040404
0.000000 0.000000 0.000000
0.000000 0.000000 0.000000
0.000000 0.000000 0.000000
0.000000 0.000000 0.000000
0.000000 0.000000 0.000000
0.000000 0.000000 0.000000
0.000000 0.000000 0.000000
0.000000 0.000000 0.000000
0.000000 0.000000 0.000000
0.000000 0.000000 0.000000
0.000000 0.000000 0.000000
0.000000 0.000000 0.000000
0.000000 0.000000 0.000000
0.000000 0.000000 0.000000
0.000000 0.000000 0.000000
0.000000 0.000000 0.000000
0.000000 0.000000 0.000000
0.000000 0.000000 0.000000
0.000000 0.000000 0.000000
0.000000 0.000000 0.000000
0.000000 0.000000 0.000000
0.000000 0.000000 0.000000
0.000000 0.000000 0.000000
0.000000 0.000000 0.000000
0.000000 0.000000 0.000000
0.000000 0.000000 0.000000
0.000000 0.000000 0.000000
0.000000 0.000000 0.000000
0.000000 0.000000 0.000000
0.000000 0.000000 0.000000
0.000000 0.000000 0.000000
0.000000 0.000000 0.000000
0.000000 0.000000 0.000000
1.000000 1.000000 1.000000
0.979798 0.979798 0.979798
0.939394 0.939394 0.939394
0.939394 0.939394 0.939394
0.939394 0.939394 0.939394
0.898990 0.898990 0.898990
0.838384 0.838384 0.838384
0.767677 0.767677 0.767677
0.686869 0.686869 0.686869
0.585859 0.585859 0.585859
0.474747 0.474747 0.474747
0.343434 0.343434 0.343434
0.191919 0.191919 0.191919
0.030303 0.030303 0.030303
0.000000 0.000000 0.000000
0.000000 0.000000 0.000000
0.989899 0.989899 0.989899
0.979798 0.979798 0.979798
0.949495 0.949495 0.949495
0.949495 0.949495 0.949495
0.898990 0.898990 0.898990
0.888889 0.888889 0.888889
0.767677 0.767677 0.767677
0.676768 0.676768 0.676768
0.646465 0.646465 0.646465
0.575758 0.575758 0.575758
0.464646 0.464646 0.464646
0.333333 0.333333 0.333333
0.181818 0.181818 0.181818
0.020202 0.020202 0.020202
0.000000 0.000000 0.000000
0.000000 0.000000 0.000000
0.979798 0.979798 0.979798
0.969697 0.969697 0.969697
0.989899 0.989899 0.989899
0.949495 0.949495 0.949495
0.898990 0.898990 0.898990
0.848485 0.848485 0.848485
0.767677 0.767677 0.767677
0.646465 0.646465 0.646465
0.383838 0.383838 0.383838
0.373737 0.373737 0.373737
0.181818 0.181818 0.181818
0.131313 0.131313 0.131313
0.080808 0.080808 0.080808
0.000000 0.000000 0.000000
0.000000 0.000000 0.000000
0.000000 0.000000 0.000000
0.939394 0.939394 0.939394
0.939394 0.939394 0.939394
0.919192 0.919192 0.919192
0.959596 0.959596 0.959596
0.939394 0.939394 0.939394
0.898990 0.898990 0.898990
0.747475 0.747475 0.747475
0.767677 0.767677 0.767677
0.676768 0.676768 0.676768
0.575758 0.575758 0.575758
0.141414 0.141414 0.141414
0.202020 0.202020 0.202020
0.171717 0.171717 0.171717
0.000000 0.000000 0.000000
0.000000 0.000000 0.000000
0.000000 0.000000 0.000000
0.888889 0.888889 0.888889
0.878788 0.878788 0.878788
0.868687 0.868687 0.868687
0.858586 0.858586 0.858586
0.909091 0.909091 0.909091
0.888889 0.888889 0.888889
0.787879 0.787879 0.787879
0.525253 0.525253 0.525253
0.353535 0.353535 0.353535
0.444444 0.444444 0.444444
0.181818 0.181818 0.181818
0.313131 0.313131 0.313131
0.151515 0.151515 0.151515
0.010101 0.010101 0.010101
0.000000 0.000000 0.000000
0.000000 0.000000 0.000000
0.818182 0.818182 0.818182
0.808081 0.808081 0.808081
0.797980 0.797980 0.797980
0.777778 0.777778 0.777778
0.777778 0.777778 0.777778
0.767677 0.767677 0.767677
0.828283 0.828283 0.828283
0.797980 0.797980 0.797980
0.666667 0.666667 0.666667
0.565657 0.565657 0.565657
0.202020 0.202020 0.202020
0.222222 0.222222 0.222222
0.181818 0.181818 0.181818
0.040404 0.040404 0.040404
0.000000 0.000000 0.000000
0.000000 0.000000 0.000000
0.727273 0.727273 0.727273
0.717172 0.717172 0.717172
0.707071 0.707071 0.707071
0.686869 0.686869 0.686869
0.666667 0.666667 0.666667
0.696970 0.696970 0.696970
0.787879 0.787879 0.787879
0.686869 0.686869 0.686869
0.717172 0.717172 0.717172
0.323232 0.323232 0.323232
0.313131 0.313131 0.313131
0.171717 0.171717 0.171717
0.151515 0.151515 0.151515
0.010101 0.010101 0.010101
0.000000 0.000000 0.000000
0.000000 0.000000 0.000000
0.616162 0.616162 0.616162
0.606061 0.606061 0.606061
0.595960 0.595960 0.595960
0.575758 0.575758 0.575758
0.555556 0.555556 0.555556
0.575758 0.575758 0.575758
0.616162 0.616162 0.616162
0.626263 0.626263 0.626263
0.666667 0.666667 0.666667
0.505050 0.505050 0.505050
0.525253 0.525253 0.525253
0.151515 0.151515 0.151515
0.060606 0.060606 0.060606
0.080808 0.080808 0.080808
0.000000 0.000000 0.000000
0.000000 0.000000 0.000000
0.484848 0.484848 0.484848
0.484848 0.484848 0.484848
0.474747 0.474747 0.474747
0.454545 0.454545 0.454545
0.424242 0.424242 0.424242
0.444444 0.444444 0.444444
0.484848 0.484848 0.484848
0.535354 0.535354 0.535354
0.636364 0.636364 0.636364
0.535354 0.535354 0.535354
0.555556 0.555556 0.555556
0.424242 0.424242 0.424242
0.090909 0.090909 0.090909
0.070707 0.070707 0.070707
0.000000 0.000000 0.000000
0.000000 0.000000 0.000000
0.333333 0.333333 0.333333
0.333333 0.333333 0.333333
0.323232 0.323232 0.323232
0.303030 0.303030 0.303030
0.272727 0.272727 0.272727
0.262626 0.262626 0.262626
0.313131 0.313131 0.313131
0.363636 0.363636 0.363636
0.434343 0.434343 0.434343
0.535354 0.535354 0.535354
0.333333 0.333333 0.333333
0.454545 0.454545 0.454545
0.202020 0.202020 0.202020
0.101010 0.101010 0.101010
0.000000 0.000000 0.000000
0.000000 0.000000 0.000000
0.161616 0.161616 0.161616
0.151515 0.151515 0.151515
0.141414 0.141414 0.141414
0.121212 0.121212 0.121212
0.101010 0.101010 0.101010
0.080808 0.080808 0.080808
0.121212 0.121212 0.121212
0.171717 0.171717 0.171717
0.222222 0.222222 0.222222
0.313131 0.313131 0.313131
0.383838 0.383838 0.383838
0.333333 0.333333 0.333333
0.313131 0.313131 0.313131
0.101010 0.101010 0.101010
0.000000 0.000000 0.000000
0.000000 0.000000 0.000000
0.000000 0.000000 0.000000
0.000000 0.000000 0.000000
0.000000 0.000000 0.000000
0.000000 0.000000 0.000000
0.000000 0.000000 0.000000
0.000000 0.000000 0.000000
0.000000 0.000000 0.000000
0.000000 0.000000 0.000000
0.020202 0.020202 0.020202
0.080808 0.080808 0.080808
0.181818 0.181818 0.181818
0.262626 0.262626 0.262626
0.343434 0.343434 0.343434
0.131313 0.131313 0.131313
0.000000 0.000000 0.000000
0.000000 0.000000 0.000000
0.000000 0.000000 0.000000
0.000000 0.000000 0.000000
0.000000 0.000000 0.000000
0.000000 0.000000 0.000000
0.000000 0.000000 0.000000
0.000000 0.000000 0.000000
0.000000 0.000000 0.000000
0.000000 0.000000 0.000000
0.000000 0.000000 0.000000
0.000000 0.000000 0.000000
0.000000 0.000000 0.000000
0.030303 0.030303 0.030303
0.131313 0.131313 0.131313
0.020202 0.020202 0.020202
0.020202 0.020202 0.020202
0.000000 0.000000 0.000000
0.000000 0.000000 0.000000
0.000000 0.000000 0.000000
0.000000 0.000000 0.000000
0.000000 0.000000 0.000000
0.000000 0.000000 0.000000
0.000000 0.000000 0.000000
0.000000 0.000000 0.000000
0.000000 0.000000 0.000000
0.000000 0.000000 0.000000
0.000000 0.000000 0.000000
0.000000 0.000000 0.000000
0.000000 0.000000 0.000000
0.000000 0.000000 0.000000
0.020202 0.020202 0.020202
0.020202 0.020202 0.020202
0.000000 0.000000 0.000000
0.000000 0.000000 0.000000
0.000000 0.000000 0.000000
0.000000 0.000000 0.000000
0.000000 0.000000 0.000000
0.000000 0.000000 0.000000
0.000000 0.000000 0.000000
0.000000 0.000000 0.000000
0.000000 0.000000 0.000000
0.000000 0.000000 0.000000
0.000000 0.000000 0.000000
0.000000 0.000000 0.000000
0.000000 0.000000 0.000000
0.000000 0.000000 0.000000
0.000000 0.000000 0.000000
0.000000 0.000000 0.000000
0.000000 0.000000 0.000000
0.000000 0.000000 0.000000
0.000000 0.000000 0.000000
0.000000 0.000000 0.000000
0.000000 0.000000 0.000000
0.000000 0.000000 0.000000
0.000000 0.000000 0.000000
0.000000 0.000000 0.000000
0.000000 0.000000 0.000000
0.000000 0.000000 0.000000
0.000000 0.000000 0.000000
0.000000 0.000000 0.000000
0.000000 0.000000 0.000000
0.000000 0.000000 0.000000
0.000000 0.000000 0.000000
0.000000 0.000000 0.000000
0.000000 0.000000 0.000000
0.979798 0.979798 0.979798
0.979798 0.979798 0.979798
0.929293 0.929293 0.929293
0.858586 0.858586 0.858586
0.868687 0.868687 0.868687
0.878788 0.878788 0.878788
0.848485 0.848485 0.848485
0.777778 0.777778 0.777778
0.696970 0.696970 0.696970
0.595960 0.595960 0.595960
0.474747 0.474747 0.474747
0.353535 0.353535 0.353535
0.202020 0.202020 0.202020
0.040404 0.040404 0.040404
0.000000 0.000000 0.000000
0.000000 0.000000 0.000000
0.979798 0.979798 0.979798
0.969697 0.969697 0.969697
0.919192 0.919192 0.919192
0.838384 0.838384 0.838384
0.858586 0.858586 0.858586
0.848485 0.848485 0.848485
0.757576 0.757576 0.757576
0.737374 0.737374 0.737374
0.616162 0.616162 0.616162
0.575758 0.575758 0.575758
0.454545 0.454545 0.454545
0.343434 0.343434 0.343434
0.191919 0.191919 0.191919
0.030303 0.030303 0.030303
0.000000 0.000000 0.000000
0.000000 0.000000 0.000000
0.969697 0.969697 0.969697
0.959596 0.959596 0.959596
0.919192 0.919192 0.919192
0.898990 0.898990 0.898990
0.919192 0.919192 0.919192
0.777778 0.777778 0.777778
0.727273 0.727273 0.727273
0.575758 0.575758 0.575758
0.666667 0.666667 0.666667
0.353535 0.353535 0.353535
0.333333 0.333333 0.333333
0.121212 0.121212 0.121212
0.050505 0.050505 0.050505
0.010101 0.010101 0.010101
0.000000 0.000000 0.000000
0.000000 0.000000 0.000000
0.939394 0.939394 0.939394
0.929293 0.929293 0.929293
0.919192 0.919192 0.919192
0.969697 0.969697 0.969697
0.878788 0.878788 0.878788
0.868687 0.868687 0.868687
0.727273 0.727273 0.727273
0.727273 0.727273 0.727273
0.616162 0.616162 0.616162
0.343434 0.343434 0.343434
0.303030 0.303030 0.303030
0.343434 0.343434 0.343434
0.191919 0.191919 0.191919
0.000000 0.000000 0.000000
0.000000 0.000000 0.000000
0.000000 0.000000 0.000000
0.888889 0.888889 0.888889
0.878788 0.878788 0.878788
0.868687 0.868687 0.868687
0.848485 0.848485 0.848485
0.878788 0.878788 0.878788
0.868687 0.868687 0.868687
0.858586 0.858586 0.858586
0.616162 0.616162 0.616162
0.363636 0.363636 0.363636
0.515152 0.515152 0.515152
0.404040 0.404040 0.404040
0.303030 0.303030 0.303030
0.111111 0.111111 0.111111
0.010101 0.010101 0.010101
0.000000 0.000000 0.000000
0.000000 0.000000 0.000000
0.818182 0.818182 0.818182
0.808081 0.808081 0.808081
0.797980 0.797980 0.797980
0.777778 0.777778 0.777778
0.686869 0.686869 0.686869
0.757576 0.757576 0.757576
0.777778 0.777778 0.777778
0.484848 0.484848 0.484848
0.696970 0.696970 0.696970
0.555556 0.555556 0.555556
0.383838 0.383838 0.383838
0.343434 0.343434 0.343434
0.161616 0.161616 0.161616
0.040404 0.040404 0.040404
0.000000 0.000000 0.000000
0.000000 0.000000 0.000000
0.727273 0.727273 0.727273
0.717172 0.717172 0.717172
0.707071 0.707071 0.707071
0.686869 0.686869 0.686869
0.656566 0.656566 0.656566
0.707071 0.707071 0.707071
0.333333 0.333333 0.333333
0.565657 0.565657 0.565657
0.626263 0.626263 0.626263
0.505050 0.505050 0.505050
0.484848 0.484848 0.484848
0.191919 0.191919 0.191919
0.141414 0.141414 0.141414
0.010101 0.010101 0.010101
0.000000 0.000000 0.000000
0.000000 0.000000 0.000000
0.616162 0.616162 0.616162
0.606061 0.606061 0.606061
0.595960 0.595960 0.595960
0.575758 0.575758 0.575758
0.545455 0.545455 0.545455
0.505050 0.505050 0.505050
0.313131 0.313131 0.313131
