tests/cmyk_3m.cube
LUT_3D_SIZE 6
DOMAIN_MIN 0 0 0
DOMAIN_MAX 1 1 1
1.000000 1.000000 1.000000
0.969697 0.969697 0.969697
0.838384 0.838384 0.838384
0.585859 0.585859 0.585859
0.202020 0.202020 0.202020
0.000000 0.000000 0.000000
0.949495 0.949495 0.949495
0.969697 0.969697 0.969697
0.848485 0.848485 0.848485
0.585859 0.585859 0.585859
0.191919 0.191919 0.191919
0.000000 0.000000 0.000000
0.737374 0.737374 0.737374
0.737374 0.737374 0.737374
0.848485 0.848485 0.848485
0.626263 0.626263 0.626263
0.222222 0.222222 0.222222
0.000000 0.000000 0.000000
0.343434 0.343434 0.343434
0.313131 0.313131 0.313131
0.404040 0.404040 0.404040
0.606061 0.606061 0.606061
0.303030 0.303030 0.303030
0.000000 0.000000 0.000000
0.000000 0.000000 0.000000
0.000000 0.000000 0.000000
0.000000 0.000000 0.000000
0.000000 0.000000 0.000000
0.252525 0.252525 0.252525
0.000000 0.000000 0.000000
0.000000 0.000000 0.000000
0.000000 0.000000 0.000000
0.000000 0.000000 0.000000
0.000000 0.000000 0.000000
0.000000 0.000000 0.000000
0.000000 0.000000 0.000000
0.979798 0.979798 0.979798
0.858586 0.858586 0.858586
0.848485 0.848485 0.848485
0.595960 0.595960 0.595960
0.202020 0.202020 0.202020
0.000000 0.000000 0.000000
0.939394 0.939394 0.939394
0.969697 0.969697 0.969697
0.727273 0.727273 0.727273
0.343434 0.343434 0.343434
0.191919 0.191919 0.191919
0.000000 0.000000 0.000000
0.727273 0.727273 0.727273
0.686869 0.686869 0.686869
0.333333 0.333333 0.333333
0.505050 0.505050 0.505050
0.141414 0.141414 0.141414
0.000000 0.000000 0.000000
0.323232 0.323232 0.323232
0.282828 0.282828 0.282828
0.191919 0.191919 0.191919
0.474747 0.474747 0.474747
0.222222 0.222222 0.222222
0.000000 0.000000 0.000000
0.000000 0.000000 0.000000
0.000000 0.000000 0.000000
0.000000 0.000000 0.000000
0.000000 0.000000 0.000000
0.050505 0.050505 0.050505
0.000000 0.000000 0.000000
0.000000 0.000000 0.000000
0.000000 0.000000 0.000000
0.000000 0.000000 0.000000
0.000000 0.000000 0.000000
0.000000 0.000000 0.000000
0.000000 0.000000 0.000000
0.898990 0.898990 0.898990
0.808081 0.808081 0.808081
0.404040 0.404040 0.404040
0.464646 0.464646 0.464646
0.252525 0.252525 0.252525
0.000000 0.000000 0.000000
0.878788 0.878788 0.878788
0.747475 0.747475 0.747475
0.262626 0.262626 0.262626
0.323232 0.323232 0.323232
0.080808 0.080808 0.080808
0.000000 0.000000 0.000000
0.717172 0.717172 0.717172
0.666667 0.666667 0.666667
0.767677 0.767677 0.767677
0.636364 0.636364 0.636364
0.232323 0.232323 0.232323
0.000000 0.000000 0.000000
0.313131 0.313131 0.313131
0.272727 0.272727 0.272727
0.151515 0.151515 0.151515
0.050505 0.050505 0.050505
0.171717 0.171717 0.171717
0.000000 0.000000 0.000000
0.000000 0.000000 0.000000
0.000000 0.000000 0.000000
0.000000 0.000000 0.000000
0.000000 0.000000 0.000000
0.171717 0.171717 0.171717
0.000000 0.000000 0.000000
0.000000 0.000000 0.000000
0.000000 0.000000 0.000000
0.000000 0.000000 0.000000
0.000000 0.000000 0.000000
0.000000 0.000000 0.000000
0.000000 0.000000 0.000000
0.747475 0.747475 0.747475
0.727273 0.727273 0.727273
0.242424 0.242424 0.242424
0.000000 0.000000 0.000000
0.000000 0.000000 0.000000
0.000000 0.000000 0.000000
0.727273 0.727273 0.727273
0.676768 0.676768 0.676768
0.191919 0.191919 0.191919
0.000000 0.000000 0.000000
0.000000 0.000000 0.000000
0.000000 0.000000 0.000000
0.656566 0.656566 0.656566
0.515152 0.515152 0.515152
0.171717 0.171717 0.171717
0.070707 0.070707 0.070707
0.121212 0.121212 0.121212
0.000000 0.000000 0.000000
0.292929 0.292929 0.292929
0.252525 0.252525 0.252525
0.030303 0.030303 0.030303
0.686869 0.686869 0.686869
0.242424 0.242424 0.242424
0.000000 0.000000 0.000000
0.000000 0.000000 0.000000
0.000000 0.000000 0.000000
0.000000 0.000000 0.000000
0.000000 0.000000 0.000000
0.272727 0.272727 0.272727
0.000000 0.000000 0.000000
0.000000 0.000000 0.000000
0.000000 0.000000 0.000000
0.000000 0.000000 0.000000
0.000000 0.000000 0.000000
0.000000 0.000000 0.000000
0.000000 0.000000 0.000000
0.505050 0.505050 0.505050
0.494949 0.494949 0.494949
0.131313 0.131313 0.131313
0.000000 0.000000 0.000000
0.000000 0.000000 0.000000
0.000000 0.000000 0.000000
0.484848 0.484848 0.484848
0.474747 0.474747 0.474747
0.080808 0.080808 0.080808
0.000000 0.000000 0.000000
0.000000 0.000000 0.000000
0.000000 0.000000 0.000000
0.414141 0.414141 0.414141
0.404040 0.404040 0.404040
0.000000 0.000000 0.000000
0.000000 0.000000 0.000000
0.000000 0.000000 0.000000
0.000000 0.000000 0.000000
0.252525 0.252525 0.252525
0.282828 0.282828 0.282828
0.101010 0.101010 0.101010
0.000000 0.000000 0.000000
0.000000 0.000000 0.000000
0.000000 0.000000 0.000000
0.000000 0.000000 0.000000
0.000000 0.000000 0.000000
0.000000 0.000000 0.000000
0.000000 0.000000 0.000000
0.000000 0.000000 0.000000
0.000000 0.000000 0.000000
0.000000 0.000000 0.000000
0.000000 0.000000 0.000000
0.000000 0.000000 0.000000
0.000000 0.000000 0.000000
0.000000 0.000000 0.000000
0.000000 0.000000 0.000000
0.171717 0.171717 0.171717
0.161616 0.161616 0.161616
0.000000 0.000000 0.000000
0.000000 0.000000 0.000000
0.000000 0.000000 0.000000
0.000000 0.000000 0.000000
0.151515 0.151515 0.151515
0.141414 0.141414 0.141414
0.000000 0.000000 0.000000
0.000000 0.000000 0.000000
0.000000 0.000000 0.000000
0.000000 0.000000 0.000000
0.080808 0.080808 0.080808
0.070707 0.070707 0.070707
0.000000 0.000000 0.000000
0.000000 0.000000 0.000000
0.000000 0.000000 0.000000
0.000000 0.000000 0.000000
0.000000 0.000000 0.000000
0.000000 0.000000 0.000000
0.000000 0.000000 0.000000
0.000000 0.000000 0.000000
0.000000 0.000000 0.000000
0.000000 0.000000 0.000000
0.000000 0.000000 0.000000
0.000000 0.000000 0.000000
0.000000 0.000000 0.000000
0.000000 0.000000 0.000000
0.000000 0.000000 0.000000
0.000000 0.000000 0.000000
0.000000 0.000000 0.000000
0.000000 0.000000 0.000000
0.000000 0.000000 0.000000
0.000000 0.000000 0.000000
0.000000 0.000000 0.000000
0.000000 0.000000 0.000000
