tests/cmyk_2m.cube
LUT_3D_SIZE 16
DOMAIN_MIN 0 0 0
DOMAIN_MAX 1 1 1
0.000000 0.000000 0.000000
0.353535 0.353535 0.353535
1.000000 1.000000 1.000000
1.000000 1.000000 1.000000
1.000000 1.000000 1.000000
1.000000 1.000000 1.000000
1.000000 1.000000 1.000000
1.000000 1.000000 1.000000
1.000000 1.000000 1.000000
1.000000 1.000000 1.000000
1.000000 1.000000 1.000000
1.000000 1.000000 1.000000
1.000000 1.000000 1.000000
1.000000 1.000000 1.000000
1.000000 1.000000 1.000000
1.000000 1.000000 1.000000
1.000000 1.000000 1.000000
1.000000 1.000000 1.000000
1.000000 1.000000 1.000000
1.000000 1.000000 1.000000
1.000000 1.000000 1.000000
1.000000 1.000000 1.000000
1.000000 1.000000 1.000000
1.000000 1.000000 1.000000
1.000000 1.000000 1.000000
1.000000 1.000000 1.000000
1.000000 1.000000 1.000000
1.000000 1.000000 1.000000
1.000000 1.000000 1.000000
1.000000 1.000000 1.000000
1.000000 1.000000 1.000000
1.000000 1.000000 1.000000
1.000000 1.000000 1.000000
1.000000 1.000000 1.000000
1.000000 1.000000 1.000000
1.000000 1.000000 1.000000
1.000000 1.000000 1.000000
1.000000 1.000000 1.000000
1.000000 1.000000 1.000000
1.000000 1.000000 1.000000
1.000000 1.000000 1.000000
1.000000 1.000000 1.000000
1.000000 1.000000 1.000000
1.000000 1.000000 1.000000
1.000000 1.000000 1.000000
1.000000 1.000000 1.000000
1.000000 1.000000 1.000000
1.000000 1.000000 1.000000
1.000000 1.000000 1.000000
1.000000 1.000000 1.000000
1.000000 1.000000 1.000000
1.000000 1.000000 1.000000
1.000000 1.000000 1.000000
1.000000 1.000000 1.000000
1.000000 1.000000 1.000000
1.000000 1.000000 1.000000
1.000000 1.000000 1.000000
1.000000 1.000000 1.000000
1.000000 1.000000 1.000000
1.000000 1.000000 1.000000
1.000000 1.000000 1.000000
1.000000 1.000000 1.000000
1.000000 1.000000 1.000000
1.000000 1.000000 1.000000
1.000000 1.000000 1.000000
1.000000 1.000000 1.000000
1.000000 1.000000 1.000000
1.000000 1.000000 1.000000
1.000000 1.000000 1.000000
1.000000 1.000000 1.000000
1.000000 1.000000 1.000000
1.000000 1.000000 1.000000
1.000000 1.000000 1.000000
1.000000 1.000000 1.000000
1.000000 1.000000 1.000000
1.000000 1.000000 1.000000
1.000000 1.000000 1.000000
1.000000 1.000000 1.000000
1.000000 1.000000 1.000000
1.000000 1.000000 1.000000
1.000000 1.000000 1.000000
1.000000 1.000000 1.000000
1.000000 1.000000 1.000000
1.000000 1.000000 1.000000
1.000000 1.000000 1.000000
1.000000 1.000000 1.000000
1.000000 1.000000 1.000000
1.000000 1.000000 1.000000
1.000000 1.000000 1.000000
1.000000 1.000000 1.000000
1.000000 1.000000 1.000000
1.000000 1.000000 1.000000
1.000000 1.000000 1.000000
1.000000 1.000000 1.000000
1.000000 1.000000 1.000000
1.000000 1.000000 1.000000
1.000000 1.000000 1.000000
1.000000 1.000000 1.000000
1.000000 1.000000 1.000000
1.000000 1.000000 1.000000
1.000000 1.000000 1.000000
1.000000 1.000000 1.000000
1.000000 1.000000 1.000000
1.000000 1.000000 1.000000
1.000000 1.000000 1.000000
1.000000 1.000000 1.000000
1.000000 1.000000 1.000000
1.000000 1.000000 1.000000
1.000000 1.000000 1.000000
1.000000 1.000000 1.000000
1.000000 1.000000 1.000000
1.000000 1.000000 1.000000
1.000000 1.000000 1.000000
1.000000 1.000000 1.000000
1.000000 1.000000 1.000000
1.000000 1.000000 1.000000
1.000000 1.000000 1.000000
1.000000 1.000000 1.000000
1.000000 1.000000 1.000000
1.000000 1.000000 1.000000
1.000000 1.000000 1.000000
1.000000 1.000000 1.000000
1.000000 1.000000 1.000000
1.000000 1.000000 1.000000
1.000000 1.000000 1.000000
1.000000 1.000000 1.000000
1.000000 1.000000 1.000000
1.000000 1.000000 1.000000
1.000000 1.000000 1.000000
1.000000 1.000000 1.000000
1.000000 1.000000 1.000000
1.000000 1.000000 1.000000
1.000000 1.000000 1.000000
1.000000 1.000000 1.000000
1.000000 1.000000 1.000000
1.000000 1.000000 1.000000
1.000000 1.000000 1.000000
1.000000 1.000000 1.000000
1.000000 1.000000 1.000000
1.000000 1.000000 1.000000
1.000000 1.000000 1.000000
1.000000 1.000000 1.000000
1.000000 1.000000 1.000000
1.000000 1.000000 1.000000
1.000000 1.000000 1.000000
1.000000 1.000000 1.000000
1.000000 1.000000 1.000000
1.000000 1.000000 1.000000
1.000000 1.000000 1.000000
1.000000 1.000000 1.000000
1.000000 1.000000 1.000000
1.000000 1.000000 1.000000
1.000000 1.000000 1.000000
1.000000 1.000000 1.000000
1.000000 1.000000 1.000000
1.000000 1.000000 1.000000
1.000000 1.000000 1.000000
1.000000 1.000000 1.000000
1.000000 1.000000 1.000000
1.000000 1.000000 1.000000
1.000000 1.000000 1.000000
1.000000 1.000000 1.000000
1.000000 1.000000 1.000000
1.000000 1.000000 1.000000
1.000000 1.000000 1.000000
1.000000 1.000000 1.000000
1.000000 1.000000 1.000000
1.000000 1.000000 1.000000
1.000000 1.000000 1.000000
1.000000 1.000000 1.000000
1.000000 1.000000 1.000000
1.000000 1.000000 1.000000
1.000000 1.000000 1.000000
1.000000 1.000000 1.000000
1.000000 1.000000 1.000000
1.000000 1.000000 1.000000
1.000000 1.000000 1.000000
1.000000 1.000000 1.000000
1.000000 1.000000 1.000000
1.000000 1.000000 1.000000
1.000000 1.000000 1.000000
1.000000 1.000000 1.000000
1.000000 1.000000 1.000000
1.000000 1.000000 1.000000
1.000000 1.000000 1.000000
1.000000 1.000000 1.000000
1.000000 1.000000 1.000000
1.000000 1.000000 1.000000
1.000000 1.000000 1.000000
1.000000 1.000000 1.000000
1.000000 1.000000 1.000000
1.000000 1.000000 1.000000
1.000000 1.000000 1.000000
1.000000 1.000000 1.000000
1.000000 1.000000 1.000000
1.000000 1.000000 1.000000
1.000000 1.000000 1.000000
1.000000 1.000000 1.000000
1.000000 1.000000 1.000000
1.000000 1.000000 1.000000
1.000000 1.000000 1.000000
1.000000 1.000000 1.000000
1.000000 1.000000 1.000000
1.000000 1.000000 1.000000
1.000000 1.000000 1.000000
1.000000 1.000000 1.000000
1.000000 1.000000 1.000000
1.000000 1.000000 1.000000
1.000000 1.000000 1.000000
1.000000 1.000000 1.000000
1.000000 1.000000 1.000000
1.000000 1.000000 1.000000
1.000000 1.000000 1.000000
1.000000 1.000000 1.000000
1.000000 1.000000 1.000000
1.000000 1.000000 1.000000
1.000000 1.000000 1.000000
1.000000 1.000000 1.000000
1.000000 1.000000 1.000000
1.000000 1.000000 1.000000
1.000000 1.000000 1.000000
1.000000 1.000000 1.000000
1.000000 1.000000 1.000000
1.000000 1.000000 1.000000
1.000000 1.000000 1.000000
1.000000 1.000000 1.000000
1.000000 1.000000 1.000000
1.000000 1.000000 1.000000
1.000000 1.000000 1.000000
1.000000 1.000000 1.000000
1.000000 1.000000 1.000000
1.000000 1.000000 1.000000
1.000000 1.000000 1.000000
1.000000 1.000000 1.000000
1.000000 1.000000 1.000000
1.000000 1.000000 1.000000
1.000000 1.000000 1.000000
1.000000 1.000000 1.000000
1.000000 1.000000 1.000000
1.000000 1.000000 1.000000
1.000000 1.000000 1.000000
1.000000 1.000000 1.000000
1.000000 1.000000 1.000000
1.000000 1.000000 1.000000
1.000000 1.000000 1.000000
1.000000 1.000000 1.000000
1.000000 1.000000 1.000000
1.000000 1.000000 1.000000
1.000000 1.000000 1.000000
1.000000 1.000000 1.000000
1.000000 1.000000 1.000000
0.989899 0.989899 0.989899
0.989899 0.989899 0.989899
0.989899 0.989899 0.989899
0.979798 0.979798 0.979798
0.949495 0.949495 0.949495
0.000000 0.000000 0.000000
0.000000 0.000000 0.000000
0.080808 0.080808 0.080808
0.545455 0.545455 0.545455
0.757576 0.757576 0.757576
0.888889 0.888889 0.888889
0.949495 0.949495 0.949495
0.989899 0.989899 0.989899
1.000000 1.000000 1.000000
1.000000 1.000000 1.000000
1.000000 1.000000 1.000000
1.000000 1.000000 1.000000
1.000000 1.000000 1.000000
1.000000 1.000000 1.000000
1.000000 1.000000 1.000000
1.000000 1.000000 1.000000
0.505050 0.505050 0.505050
0.494949 0.494949 0.494949
0.525253 0.525253 0.525253
0.676768 0.676768 0.676768
0.848485 0.848485 0.848485
0.919192 0.919192 0.919192
0.949495 0.949495 0.949495
1.000000 1.000000 1.000000
1.000000 1.000000 1.000000
1.000000 1.000000 1.000000
1.000000 1.000000 1.000000
1.000000 1.000000 1.000000
1.000000 1.000000 1.000000
1.000000 1.000000 1.000000
1.000000 1.000000 1.000000
1.000000 1.000000 1.000000
0.858586 0.858586 0.858586
0.898990 0.898990 0.898990
0.838384 0.838384 0.838384
0.838384 0.838384 0.838384
0.888889 0.888889 0.888889
0.929293 0.929293 0.929293
0.959596 0.959596 0.959596
0.989899 0.989899 0.989899
1.000000 1.000000 1.000000
1.000000 1.000000 1.000000
1.000000 1.000000 1.000000
1.000000 1.000000 1.000000
1.000000 1.000000 1.000000
1.000000 1.000000 1.000000
1.000000 1.000000 1.000000
1.000000 1.000000 1.000000
0.969697 0.969697 0.969697
0.969697 0.969697 0.969697
0.989899 0.989899 0.989899
0.959596 0.959596 0.959596
0.919192 0.919192 0.919192
0.959596 0.959596 0.959596
0.959596 0.959596 0.959596
0.989899 0.989899 0.989899
1.000000 1.000000 1.000000
1.000000 1.000000 1.000000
1.000000 1.000000 1.000000
1.000000 1.000000 1.000000
1.000000 1.000000 1.000000
1.000000 1.000000 1.000000
1.000000 1.000000 1.000000
1.000000 1.000000 1.000000
1.000000 1.000000 1.000000
1.000000 1.000000 1.000000
1.000000 1.000000 1.000000
1.000000 1.000000 1.000000
0.979798 0.979798 0.979798
0.949495 0.949495 0.949495
0.989899 0.989899 0.989899
0.989899 0.989899 0.989899
1.000000 1.000000 1.000000
1.000000 1.000000 1.000000
1.000000 1.000000 1.000000
1.000000 1.000000 1.000000
1.000000 1.000000 1.000000
1.000000 1.000000 1.000000
1.000000 1.000000 1.000000
1.000000 1.000000 1.000000
1.000000 1.000000 1.000000
1.000000 1.000000 1.000000
1.000000 1.000000 1.000000
1.000000 1.000000 1.000000
1.000000 1.000000 1.000000
0.989899 0.989899 0.989899
0.989899 0.989899 0.989899
0.979798 0.979798 0.979798
0.989899 0.989899 0.989899
1.000000 1.000000 1.000000
1.000000 1.000000 1.000000
1.000000 1.000000 1.000000
1.000000 1.000000 1.000000
1.000000 1.000000 1.000000
1.000000 1.000000 1.000000
1.000000 1.000000 1.000000
1.000000 1.000000 1.000000
1.000000 1.000000 1.000000
1.000000 1.000000 1.000000
1.000000 1.000000 1.000000
1.000000 1.000000 1.000000
1.000000 1.000000 1.000000
1.000000 1.000000 1.000000
1.000000 1.000000 1.000000
0.989899 0.989899 0.989899
1.000000 1.000000 1.000000
1.000000 1.000000 1.000000
1.000000 1.000000 1.000000
1.000000 1.000000 1.000000
1.000000 1.000000 1.000000
1.000000 1.000000 1.000000
1.000000 1.000000 1.000000
1.000000 1.000000 1.000000
1.000000 1.000000 1.000000
1.000000 1.000000 1.000000
1.000000 1.000000 1.000000
1.000000 1.000000 1.000000
1.000000 1.000000 1.000000
1.000000 1.000000 1.000000
1.000000 1.000000 1.000000
0.979798 0.979798 0.979798
1.000000 1.000000 1.000000
1.000000 1.000000 1.000000
1.000000 1.000000 1.000000
1.000000 1.000000 1.000000
1.000000 1.000000 1.000000
1.000000 1.000000 1.000000
1.000000 1.000000 1.000000
1.000000 1.000000 1.000000
1.000000 1.000000 1.000000
1.000000 1.000000 1.000000
1.000000 1.000000 1.000000
1.000000 1.000000 1.000000
1.000000 1.000000 1.000000
1.000000 1.000000 1.000000
1.000000 1.000000 1.000000
1.000000 1.000000 1.000000
1.000000 1.000000 1.000000
1.000000 1.000000 1.000000
1.000000 1.000000 1.000000
1.000000 1.000000 1.000000
1.000000 1.000000 1.000000
1.000000 1.000000 1.000000
1.000000 1.000000 1.000000
1.000000 1.000000 1.000000
1.000000 1.000000 1.000000
1.000000 1.000000 1.000000
1.000000 1.000000 1.000000
1.000000 1.000000 1.000000
1.000000 1.000000 1.000000
1.000000 1.000000 1.000000
1.000000 1.000000 1.000000
1.000000 1.000000 1.000000
1.000000 1.000000 1.000000
0.989899 0.989899 0.989899
1.000000 1.000000 1.000000
1.000000 1.000000 1.000000
1.000000 1.000000 1.000000
1.000000 1.000000 1.000000
1.000000 1.000000 1.000000
1.000000 1.000000 1.000000
1.000000 1.000000 1.000000
1.000000 1.000000 1.000000
1.000000 1.000000 1.000000
1.000000 1.000000 1.000000
1.000000 1.000000 1.000000
1.000000 1.000000 1.000000
1.000000 1.000000 1.000000
1.000000 1.000000 1.000000
1.000000 1.000000 1.000000
1.000000 1.000000 1.000000
1.000000 1.000000 1.000000
1.000000 1.000000 1.000000
1.000000 1.000000 1.000000
1.000000 1.000000 1.000000
1.000000 1.000000 1.000000
1.000000 1.000000 1.000000
1.000000 1.000000 1.000000
1.000000 1.000000 1.000000
1.000000 1.000000 1.000000
1.000000 1.000000 1.000000
1.000000 1.000000 1.000000
1.000000 1.000000 1.000000
1.000000 1.000000 1.000000
1.000000 1.000000 1.000000
1.000000 1.000000 1.000000
1.000000 1.000000 1.000000
1.000000 1.000000 1.000000
1.000000 1.000000 1.000000
1.000000 1.000000 1.000000
1.000000 1.000000 1.000000
1.000000 1.000000 1.000000
1.000000 1.000000 1.000000
1.000000 1.000000 1.000000
1.000000 1.000000 1.000000
1.000000 1.000000 1.000000
1.000000 1.000000 1.000000
1.000000 1.000000 1.000000
1.000000 1.000000 1.000000
1.000000 1.000000 1.000000
1.000000 1.000000 1.000000
1.000000 1.000000 1.000000
1.000000 1.000000 1.000000
1.000000 1.000000 1.000000
1.000000 1.000000 1.000000
1.000000 1.000000 1.000000
1.000000 1.000000 1.000000
1.000000 1.000000 1.000000
1.000000 1.000000 1.000000
1.000000 1.000000 1.000000
1.000000 1.000000 1.000000
1.000000 1.000000 1.000000
1.000000 1.000000 1.000000
1.000000 1.000000 1.000000
1.000000 1.000000 1.000000
1.000000 1.000000 1.000000
1.000000 1.000000 1.000000
1.000000 1.000000 1.000000
1.000000 1.000000 1.000000
1.000000 1.000000 1.000000
1.000000 1.000000 1.000000
1.000000 1.000000 1.000000
1.000000 1.000000 1.000000
1.000000 1.000000 1.000000
1.000000 1.000000 1.000000
1.000000 1.000000 1.000000
1.000000 1.000000 1.000000
1.000000 1.000000 1.000000
1.000000 1.000000 1.000000
1.000000 1.000000 1.000000
1.000000 1.000000 1.000000
1.000000 1.000000 1.000000
1.000000 1.000000 1.000000
1.000000 1.000000 1.000000
1.000000 1.000000 1.000000
1.000000 1.000000 1.000000
1.000000 1.000000 1.000000
1.000000 1.000000 1.000000
1.000000 1.000000 1.000000
1.000000 1.000000 1.000000
0.989899 0.989899 0.989899
0.989899 0.989899 0.989899
0.989899 0.989899 0.989899
0.989899 0.989899 0.989899
0.989899 0.989899 0.989899
0.989899 0.989899 0.989899
0.989899 0.989899 0.989899
0.989899 0.989899 0.989899
0.989899 0.989899 0.989899
0.989899 0.989899 0.989899
0.989899 0.989899 0.989899
0.989899 0.989899 0.989899
0.989899 0.989899 0.989899
0.989899 0.989899 0.989899
0.979798 0.979798 0.979798
0.949495 0.949495 0.949495
0.000000 0.000000 0.000000
0.000000 0.000000 0.000000
0.010101 0.010101 0.010101
0.080808 0.080808 0.080808
0.181818 0.181818 0.181818
0.505050 0.505050 0.505050
0.696970 0.696970 0.696970
0.808081 0.808081 0.808081
0.868687 0.868687 0.868687
0.919192 0.919192 0.919192
0.949495 0.949495 0.949495
0.979798 0.979798 0.979798
0.989899 0.989899 0.989899
1.000000 1.000000 1.000000
0.989899 0.989899 0.989899
0.969697 0.969697 0.969697
0.000000 0.000000 0.000000
0.000000 0.000000 0.000000
0.222222 0.222222 0.222222
0.222222 0.222222 0.222222
0.525253 0.525253 0.525253
0.585859 0.585859 0.585859
0.797980 0.797980 0.797980
0.868687 0.868687 0.868687
0.888889 0.888889 0.888889
0.919192 0.919192 0.919192
0.949495 0.949495 0.949495
0.979798 0.979798 0.979798
0.989899 0.989899 0.989899
1.000000 1.000000 1.000000
0.979798 0.979798 0.979798
0.979798 0.979798 0.979798
0.484848 0.484848 0.484848
0.595960 0.595960 0.595960
0.262626 0.262626 0.262626
0.515152 0.515152 0.515152
0.656566 0.656566 0.656566
0.747475 0.747475 0.747475
0.828283 0.828283 0.828283
0.898990 0.898990 0.898990
0.969697 0.969697 0.969697
0.969697 0.969697 0.969697
1.000000 1.000000 1.000000
1.000000 1.000000 1.000000
1.000000 1.000000 1.000000
1.000000 1.000000 1.000000
0.979798 0.979798 0.979798
0.979798 0.979798 0.979798
0.797980 0.797980 0.797980
0.797980 0.797980 0.797980
0.848485 0.848485 0.848485
0.686869 0.686869 0.686869
0.676768 0.676768 0.676768
0.737374 0.737374 0.737374
0.878788 0.878788 0.878788
0.858586 0.858586 0.858586
0.898990 0.898990 0.898990
0.929293 0.929293 0.929293
1.000000 1.000000 1.000000
0.989899 0.989899 0.989899
0.989899 0.989899 0.989899
1.000000 1.000000 1.000000
0.979798 0.979798 0.979798
0.969697 0.969697 0.969697
0.898990 0.898990 0.898990
0.919192 0.919192 0.919192
0.929293 0.929293 0.929293
0.939394 0.939394 0.939394
0.848485 0.848485 0.848485
0.828283 0.828283 0.828283
0.888889 0.888889 0.888889
0.969697 0.969697 0.969697
0.989899 0.989899 0.989899
0.969697 0.969697 0.969697
1.000000 1.000000 1.000000
0.979798 0.979798 0.979798
0.989899 0.989899 0.989899
1.000000 1.000000 1.000000
0.979798 0.979798 0.979798
0.979798 0.979798 0.979798
0.959596 0.959596 0.959596
0.969697 0.969697 0.969697
0.969697 0.969697 0.969697
0.989899 0.989899 0.989899
0.979798 0.979798 0.979798
0.959596 0.959596 0.959596
0.898990 0.898990 0.898990
0.888889 0.888889 0.888889
0.929293 0.929293 0.929293
0.949495 0.949495 0.949495
1.000000 1.000000 1.000000
0.989899 0.989899 0.989899
0.989899 0.989899 0.989899
1.000000 1.000000 1.000000
0.989899 0.989899 0.989899
0.979798 0.979798 0.979798
0.989899 0.989899 0.989899
1.000000 1.000000 1.000000
1.000000 1.000000 1.000000
1.000000 1.000000 1.000000
1.000000 1.000000 1.000000
1.000000 1.000000 1.000000
0.949495 0.949495 0.949495
0.959596 0.959596 0.959596
0.929293 0.929293 0.929293
1.000000 1.000000 1.000000
0.989899 0.989899 0.989899
1.000000 1.000000 1.000000
0.989899 0.989899 0.989899
1.000000 1.000000 1.000000
0.989899 0.989899 0.989899
0.979798 0.979798 0.979798
1.000000 1.000000 1.000000
1.000000 1.000000 1.000000
1.000000 1.000000 1.000000
1.000000 1.000000 1.000000
1.000000 1.000000 1.000000
1.000000 1.000000 1.000000
1.000000 1.000000 1.000000
0.989899 0.989899 0.989899
0.959596 0.959596 0.959596
0.979798 0.979798 0.979798
0.959596 0.959596 0.959596
1.000000 1.000000 1.000000
1.000000 1.000000 1.000000
0.989899 0.989899 0.989899
0.989899 0.989899 0.989899
0.979798 0.979798 0.979798
1.000000 1.000000 1.000000
1.000000 1.000000 1.000000
1.000000 1.000000 1.000000
1.000000 1.000000 1.000000
1.000000 1.000000 1.000000
1.000000 1.000000 1.000000
1.000000 1.000000 1.000000
1.000000 1.000000 1.000000
0.979798 0.979798 0.979798
0.979798 0.979798 0.979798
0.959596 0.959596 0.959596
0.969697 0.969697 0.969697
1.000000 1.000000 1.000000
0.989899 0.989899 0.989899
0.989899 0.989899 0.989899
0.979798 0.979798 0.979798
1.000000 1.000000 1.000000
1.000000 1.000000 1.000000
1.000000 1.000000 1.000000
1.000000 1.000000 1.000000
1.000000 1.000000 1.000000
1.000000 1.000000 1.000000
1.000000 1.000000 1.000000
1.000000 1.000000 1.000000
1.000000 1.000000 1.000000
0.989899 0.989899 0.989899
1.000000 1.000000 1.000000
0.969697 0.969697 0.969697
0.989899 0.989899 0.989899
0.989899 0.989899 0.989899
0.989899 0.989899 0.989899
0.979798 0.979798 0.979798
1.000000 1.000000 1.000000
1.000000 1.000000 1.000000
1.000000 1.000000 1.000000
1.000000 1.000000 1.000000
1.000000 1.000000 1.000000
1.000000 1.000000 1.000000
1.000000 1.000000 1.000000
1.000000 1.000000 1.000000
1.000000 1.000000 1.000000
1.000000 1.000000 1.000000
1.000000 1.000000 1.000000
0.989899 0.989899 0.989899
0.979798 0.979798 0.979798
0.989899 0.989899 0.989899
0.989899 0.989899 0.989899
0.989899 0.989899 0.989899
1.000000 1.000000 1.000000
1.000000 1.000000 1.000000
1.000000 1.000000 1.000000
1.000000 1.000000 1.000000
1.000000 1.000000 1.000000
1.000000 1.000000 1.000000
1.000000 1.000000 1.000000
1.000000 1.000000 1.000000
1.000000 1.000000 1.000000
1.000000 1.000000 1.000000
1.000000 1.000000 1.000000
1.000000 1.000000 1.000000
0.979798 0.979798 0.979798
0.989899 0.989899 0.989899
0.989899 0.989899 0.989899
0.989899 0.989899 0.989899
1.000000 1.000000 1.000000
1.000000 1.000000 1.000000
1.000000 1.000000 1.000000
1.000000 1.000000 1.000000
1.000000 1.000000 1.000000
1.000000 1.000000 1.000000
1.000000 1.000000 1.000000
1.000000 1.000000 1.000000
1.000000 1.000000 1.000000
1.000000 1.000000 1.000000
1.000000 1.000000 1.000000
1.000000 1.000000 1.000000
1.000000 1.000000 1.000000
1.000000 1.000000 1.000000
0.989899 0.989899 0.989899
0.989899 0.989899 0.989899
1.000000 1.000000 1.000000
1.000000 1.000000 1.000000
1.000000 1.000000 1.000000
1.000000 1.000000 1.000000
1.000000 1.000000 1.000000
1.000000 1.000000 1.000000
1.000000 1.000000 1.000000
1.000000 1.000000 1.000000
1.000000 1.000000 1.000000
1.000000 1.000000 1.000000
1.000000 1.000000 1.000000
1.000000 1.000000 1.000000
1.000000 1.000000 1.000000
1.000000 1.000000 1.000000
0.989899 0.989899 0.989899
0.989899 0.989899 0.989899
0.989899 0.989899 0.989899
0.989899 0.989899 0.989899
1.000000 1.000000 1.000000
0.989899 0.989899 0.989899
0.989899 0.989899 0.989899
0.989899 0.989899 0.989899
1.000000 1.000000 1.000000
0.989899 0.989899 0.989899
0.989899 0.989899 0.989899
0.989899 0.989899 0.989899
0.989899 0.989899 0.989899
0.989899 0.989899 0.989899
0.989899 0.989899 0.989899
0.989899 0.989899 0.989899
0.989899 0.989899 0.989899
0.989899 0.989899 0.989899
0.979798 0.979798 0.979798
0.979798 0.979798 0.979798
0.979798 0.979798 0.979798
0.979798 0.979798 0.979798
0.979798 0.979798 0.979798
0.979798 0.979798 0.979798
0.979798 0.979798 0.979798
0.979798 0.979798 0.979798
0.979798 0.979798 0.979798
0.979798 0.979798 0.979798
0.979798 0.979798 0.979798
0.979798 0.979798 0.979798
0.979798 0.979798 0.979798
0.979798 0.979798 0.979798
0.969697 0.969697 0.969697
0.939394 0.939394 0.939394
0.000000 0.000000 0.000000
0.000000 0.000000 0.000000
0.000000 0.000000 0.000000
0.010101 0.010101 0.010101
0.000000 0.000000 0.000000
0.010101 0.010101 0.010101
0.242424 0.242424 0.242424
0.494949 0.494949 0.494949
0.636364 0.636364 0.636364
0.747475 0.747475 0.747475
0.818182 0.818182 0.818182
0.868687 0.868687 0.868687
0.909091 0.909091 0.909091
0.939394 0.939394 0.939394
0.909091 0.909091 0.909091
0.929293 0.929293 0.929293
0.000000 0.000000 0.000000
0.000000 0.000000 0.000000
0.000000 0.000000 0.000000
0.181818 0.181818 0.181818
0.151515 0.151515 0.151515
0.252525 0.252525 0.252525
0.515152 0.515152 0.515152
0.575758 0.575758 0.575758
0.717172 0.717172 0.717172
0.757576 0.757576 0.757576
0.828283 0.828283 0.828283
0.868687 0.868687 0.868687
0.909091 0.909091 0.909091
0.939394 0.939394 0.939394
0.919192 0.919192 0.919192
0.919192 0.919192 0.919192
0.000000 0.000000 0.000000
0.050505 0.050505 0.050505
0.242424 0.242424 0.242424
0.262626 0.262626 0.262626
0.111111 0.111111 0.111111
0.555556 0.555556 0.555556
0.626263 0.626263 0.626263
0.757576 0.757576 0.757576
0.707071 0.707071 0.707071
0.858586 0.858586 0.858586
0.868687 0.868687 0.868687
0.919192 0.919192 0.919192
0.929293 0.929293 0.929293
0.939394 0.939394 0.939394
0.919192 0.919192 0.919192
0.919192 0.919192 0.919192
0.515152 0.515152 0.515152
0.565657 0.565657 0.565657
0.575758 0.575758 0.575758
0.181818 0.181818 0.181818
0.535354 0.535354 0.535354
0.515152 0.515152 0.515152
0.707071 0.707071 0.707071
0.696970 0.696970 0.696970
0.777778 0.777778 0.777778
0.878788 0.878788 0.878788
0.888889 0.888889 0.888889
0.878788 0.878788 0.878788
0.909091 0.909091 0.909091
0.939394 0.939394 0.939394
0.929293 0.929293 0.929293
0.929293 0.929293 0.929293
0.727273 0.727273 0.727273
0.757576 0.757576 0.757576
0.787879 0.787879 0.787879
0.797980 0.797980 0.797980
0.696970 0.696970 0.696970
0.656566 0.656566 0.656566
0.626263 0.626263 0.626263
0.828283 0.828283 0.828283
0.898990 0.898990 0.898990
0.848485 0.848485 0.848485
0.878788 0.878788 0.878788
0.898990 0.898990 0.898990
0.929293 0.929293 0.929293
0.939394 0.939394 0.939394
0.929293 0.929293 0.929293
0.929293 0.929293 0.929293
0.848485 0.848485 0.848485
0.858586 0.858586 0.858586
0.868687 0.868687 0.868687
0.888889 0.888889 0.888889
0.919192 0.919192 0.919192
0.858586 0.858586 0.858586
0.808081 0.808081 0.808081
0.909091 0.909091 0.909091
0.808081 0.808081 0.808081
0.858586 0.858586 0.858586
0.898990 0.898990 0.898990
0.898990 0.898990 0.898990
0.929293 0.929293 0.929293
0.939394 0.939394 0.939394
0.929293 0.929293 0.929293
0.939394 0.939394 0.939394
0.919192 0.919192 0.919192
0.919192 0.919192 0.919192
0.929293 0.929293 0.929293
0.939394 0.939394 0.939394
0.959596 0.959596 0.959596
0.929293 0.929293 0.929293
0.979798 0.979798 0.979798
0.919192 0.919192 0.919192
0.878788 0.878788 0.878788
0.898990 0.898990 0.898990
0.888889 0.888889 0.888889
0.939394 0.939394 0.939394
0.939394 0.939394 0.939394
0.949495 0.949495 0.949495
0.949495 0.949495 0.949495
0.949495 0.949495 0.949495
0.959596 0.959596 0.959596
0.959596 0.959596 0.959596
0.959596 0.959596 0.959596
0.969697 0.969697 0.969697
0.979798 0.979798 0.979798
0.989899 0.989899 0.989899
1.000000 1.000000 1.000000
