tests/cmyk_0m.cube
LUT_3D_SIZE 6
DOMAIN_MIN 0 0 0
DOMAIN_MAX 1 1 1
1.000000 1.000000 1.000000
0.030303 0.030303 0.030303
0.000000 0.000000 0.000000
0.000000 0.000000 0.000000
0.000000 0.000000 0.000000
0.000000 0.000000 0.000000
0.979798 0.979798 0.979798
0.303030 0.303030 0.303030
0.000000 0.000000 0.000000
0.000000 0.000000 0.000000
0.000000 0.000000 0.000000
0.000000 0.000000 0.000000
1.000000 1.000000 1.000000
0.929293 0.929293 0.929293
0.191919 0.191919 0.191919
0.010101 0.010101 0.010101
0.000000 0.000000 0.000000
0.000000 0.000000 0.000000
1.000000 1.000000 1.000000
1.000000 1.000000 1.000000
0.828283 0.828283 0.828283
0.222222 0.222222 0.222222
0.010101 0.010101 0.010101
0.000000 0.000000 0.000000
0.878788 0.878788 0.878788
0.858586 0.858586 0.858586
0.808081 0.808081 0.808081
0.696970 0.696970 0.696970
0.202020 0.202020 0.202020
0.000000 0.000000 0.000000
0.484848 0.484848 0.484848
0.464646 0.464646 0.464646
0.404040 0.404040 0.404040
0.292929 0.292929 0.292929
0.131313 0.131313 0.131313
0.000000 0.000000 0.000000
1.000000 1.000000 1.000000
1.000000 1.000000 1.000000
0.010101 0.010101 0.010101
0.000000 0.000000 0.000000
0.000000 0.000000 0.000000
0.000000 0.000000 0.000000
1.000000 1.000000 1.000000
0.292929 0.292929 0.292929
0.535354 0.535354 0.535354
0.484848 0.484848 0.484848
0.000000 0.000000 0.000000
0.000000 0.000000 0.000000
1.000000 1.000000 1.000000
1.000000 1.000000 1.000000
0.989899 0.989899 0.989899
0.303030 0.303030 0.303030
0.131313 0.131313 0.131313
0.000000 0.000000 0.000000
1.000000 1.000000 1.000000
1.000000 1.000000 1.000000
0.989899 0.989899 0.989899
0.484848 0.484848 0.484848
0.131313 0.131313 0.131313
0.000000 0.000000 0.000000
0.878788 0.878788 0.878788
0.858586 0.858586 0.858586
0.797980 0.797980 0.797980
0.686869 0.686869 0.686869
0.444444 0.444444 0.444444
0.000000 0.000000 0.000000
0.484848 0.484848 0.484848
0.464646 0.464646 0.464646
0.404040 0.404040 0.404040
0.303030 0.303030 0.303030
0.131313 0.131313 0.131313
0.000000 0.000000 0.000000
1.000000 1.000000 1.000000
1.000000 1.000000 1.000000
0.989899 0.989899 0.989899
0.404040 0.404040 0.404040
0.000000 0.000000 0.000000
0.000000 0.000000 0.000000
1.000000 1.000000 1.000000
1.000000 1.000000 1.000000
1.000000 1.000000 1.000000
0.545455 0.545455 0.545455
0.222222 0.222222 0.222222
0.000000 0.000000 0.000000
1.000000 1.000000 1.000000
1.000000 1.000000 1.000000
0.474747 0.474747 0.474747
0.030303 0.030303 0.030303
0.050505 0.050505 0.050505
0.000000 0.000000 0.000000
1.000000 1.000000 1.000000
1.000000 1.000000 1.000000
1.000000 1.000000 1.000000
0.777778 0.777778 0.777778
0.202020 0.202020 0.202020
0.000000 0.000000 0.000000
0.868687 0.868687 0.868687
0.858586 0.858586 0.858586
0.797980 0.797980 0.797980
0.686869 0.686869 0.686869
0.323232 0.323232 0.323232
0.000000 0.000000 0.000000
0.494949 0.494949 0.494949
0.474747 0.474747 0.474747
0.414141 0.414141 0.414141
0.303030 0.303030 0.303030
0.141414 0.141414 0.141414
0.000000 0.000000 0.000000
1.000000 1.000000 1.000000
1.000000 1.000000 1.000000
1.000000 1.000000 1.000000
0.909091 0.909091 0.909091
0.444444 0.444444 0.444444
0.000000 0.000000 0.000000
1.000000 1.000000 1.000000
1.000000 1.000000 1.000000
1.000000 1.000000 1.000000
0.858586 0.858586 0.858586
0.424242 0.424242 0.424242
0.000000 0.000000 0.000000
1.000000 1.000000 1.000000
1.000000 1.000000 1.000000
0.959596 0.959596 0.959596
0.727273 0.727273 0.727273
0.252525 0.252525 0.252525
0.000000 0.000000 0.000000
1.000000 1.000000 1.000000
1.000000 1.000000 1.000000
0.989899 0.989899 0.989899
0.020202 0.020202 0.020202
0.131313 0.131313 0.131313
0.000000 0.000000 0.000000
0.868687 0.868687 0.868687
0.848485 0.848485 0.848485
0.787879 0.787879 0.787879
0.686869 0.686869 0.686869
0.191919 0.191919 0.191919
0.000000 0.000000 0.000000
0.494949 0.494949 0.494949
0.474747 0.474747 0.474747
0.424242 0.424242 0.424242
0.313131 0.313131 0.313131
0.151515 0.151515 0.151515
0.000000 0.000000 0.000000
1.000000 1.000000 1.000000
1.000000 1.000000 1.000000
1.000000 1.000000 1.000000
1.000000 1.000000 1.000000
0.808081 0.808081 0.808081
0.313131 0.313131 0.313131
1.000000 1.000000 1.000000
1.000000 1.000000 1.000000
1.000000 1.000000 1.000000
1.000000 1.000000 1.000000
0.767677 0.767677 0.767677
0.262626 0.262626 0.262626
1.000000 1.000000 1.000000
1.000000 1.000000 1.000000
1.000000 1.000000 1.000000
0.939394 0.939394 0.939394
0.656566 0.656566 0.656566
0.171717 0.171717 0.171717
1.000000 1.000000 1.000000
0.959596 0.959596 0.959596
0.898990 0.898990 0.898990
0.737374 0.737374 0.737374
0.464646 0.464646 0.464646
0.010101 0.010101 0.010101
0.858586 0.858586 0.858586
0.838384 0.838384 0.838384
0.787879 0.787879 0.787879
0.686869 0.686869 0.686869
0.404040 0.404040 0.404040
0.000000 0.000000 0.000000
0.505050 0.505050 0.505050
0.484848 0.484848 0.484848
0.434343 0.434343 0.434343
0.333333 0.333333 0.333333
0.181818 0.181818 0.181818
0.000000 0.000000 0.000000
1.000000 1.000000 1.000000
1.000000 1.000000 1.000000
1.000000 1.000000 1.000000
1.000000 1.000000 1.000000
1.000000 1.000000 1.000000
0.787879 0.787879 0.787879
1.000000 1.000000 1.000000
1.000000 1.000000 1.000000
1.000000 1.000000 1.000000
1.000000 1.000000 1.000000
0.989899 0.989899 0.989899
0.757576 0.757576 0.757576
1.000000 1.000000 1.000000
1.000000 1.000000 1.000000
1.000000 1.000000 1.000000
1.000000 1.000000 1.000000
0.898990 0.898990 0.898990
0.666667 0.666667 0.666667
1.000000 1.000000 1.000000
1.000000 1.000000 1.000000
0.979798 0.979798 0.979798
0.888889 0.888889 0.888889
0.747475 0.747475 0.747475
0.515152 0.515152 0.515152
0.818182 0.818182 0.818182
0.797980 0.797980 0.797980
0.747475 0.747475 0.747475
0.656566 0.656566 0.656566
0.515152 0.515152 0.515152
0.282828 0.282828 0.282828
0.484848 0.484848 0.484848
0.474747 0.474747 0.474747
0.424242 0.424242 0.424242
0.333333 0.333333 0.333333
0.191919 0.191919 0.191919
0.000000 0.000000 0.000000
