tests/cmyk_1m.cube
LUT_3D_SIZE 6
DOMAIN_MIN 0 0 0
DOMAIN_MAX 1 1 1
1.000000 1.000000 1.000000
1.000000 1.000000 1.000000
1.000000 1.000000 1.000000
1.000000 1.000000 1.000000
1.000000 1.000000 1.000000
0.878788 0.878788 0.878788
0.000000 0.000000 0.000000
0.000000 0.000000 0.000000
0.777778 0.777778 0.777778
0.929293 0.929293 0.929293
0.969697 0.969697 0.969697
0.848485 0.848485 0.848485
0.000000 0.000000 0.000000
0.000000 0.000000 0.000000
0.000000 0.000000 0.000000
0.616162 0.616162 0.616162
0.828283 0.828283 0.828283
0.747475 0.747475 0.747475
0.000000 0.000000 0.000000
0.000000 0.000000 0.000000
0.000000 0.000000 0.000000
0.000000 0.000000 0.000000
0.494949 0.494949 0.494949
0.565657 0.565657 0.565657
0.000000 0.000000 0.000000
0.000000 0.000000 0.000000
0.000000 0.000000 0.000000
0.000000 0.000000 0.000000
0.000000 0.000000 0.000000
0.282828 0.282828 0.282828
0.000000 0.000000 0.000000
0.000000 0.000000 0.000000
0.000000 0.000000 0.000000
0.000000 0.000000 0.000000
0.000000 0.000000 0.000000
0.000000 0.000000 0.000000
0.262626 0.262626 0.262626
1.000000 1.000000 1.000000
1.000000 1.000000 1.000000
1.000000 1.000000 1.000000
1.000000 1.000000 1.000000
0.878788 0.878788 0.878788
0.000000 0.000000 0.000000
0.070707 0.070707 0.070707
0.838384 0.838384 0.838384
0.949495 0.949495 0.949495
0.969697 0.969697 0.969697
0.848485 0.848485 0.848485
0.000000 0.000000 0.000000
0.000000 0.000000 0.000000
0.494949 0.494949 0.494949
0.656566 0.656566 0.656566
0.828283 0.828283 0.828283
0.747475 0.747475 0.747475
0.000000 0.000000 0.000000
0.000000 0.000000 0.000000
0.000000 0.000000 0.000000
0.060606 0.060606 0.060606
0.515152 0.515152 0.515152
0.565657 0.565657 0.565657
0.000000 0.000000 0.000000
0.000000 0.000000 0.000000
0.000000 0.000000 0.000000
0.000000 0.000000 0.000000
0.030303 0.030303 0.030303
0.282828 0.282828 0.282828
0.000000 0.000000 0.000000
0.000000 0.000000 0.000000
0.000000 0.000000 0.000000
0.000000 0.000000 0.000000
0.000000 0.000000 0.000000
0.000000 0.000000 0.000000
0.040404 0.040404 0.040404
0.545455 0.545455 0.545455
1.000000 1.000000 1.000000
1.000000 1.000000 1.000000
1.000000 1.000000 1.000000
0.898990 0.898990 0.898990
0.010101 0.010101 0.010101
0.616162 0.616162 0.616162
0.949495 0.949495 0.949495
0.949495 0.949495 0.949495
0.969697 0.969697 0.969697
0.868687 0.868687 0.868687
0.000000 0.000000 0.000000
0.020202 0.020202 0.020202
0.222222 0.222222 0.222222
0.626263 0.626263 0.626263
0.818182 0.818182 0.818182
0.767677 0.767677 0.767677
0.000000 0.000000 0.000000
0.000000 0.000000 0.000000
0.000000 0.000000 0.000000
0.333333 0.333333 0.333333
0.535354 0.535354 0.535354
0.575758 0.575758 0.575758
0.000000 0.000000 0.000000
0.000000 0.000000 0.000000
0.000000 0.000000 0.000000
0.000000 0.000000 0.000000
0.010101 0.010101 0.010101
0.292929 0.292929 0.292929
0.000000 0.000000 0.000000
0.000000 0.000000 0.000000
0.000000 0.000000 0.000000
0.000000 0.000000 0.000000
0.000000 0.000000 0.000000
0.000000 0.000000 0.000000
0.000000 0.000000 0.000000
0.040404 0.040404 0.040404
0.797980 0.797980 0.797980
0.888889 0.888889 0.888889
0.939394 0.939394 0.939394
0.919192 0.919192 0.919192
0.000000 0.000000 0.000000
0.141414 0.141414 0.141414
0.797980 0.797980 0.797980
0.878788 0.878788 0.878788
0.919192 0.919192 0.919192
0.898990 0.898990 0.898990
0.000000 0.000000 0.000000
0.353535 0.353535 0.353535
0.676768 0.676768 0.676768
0.777778 0.777778 0.777778
0.828283 0.828283 0.828283
0.787879 0.787879 0.787879
0.000000 0.000000 0.000000
0.000000 0.000000 0.000000
0.171717 0.171717 0.171717
0.000000 0.000000 0.000000
0.535354 0.535354 0.535354
0.606061 0.606061 0.606061
0.000000 0.000000 0.000000
0.000000 0.000000 0.000000
0.000000 0.000000 0.000000
0.000000 0.000000 0.000000
0.010101 0.010101 0.010101
0.313131 0.313131 0.313131
0.000000 0.000000 0.000000
0.000000 0.000000 0.000000
0.000000 0.000000 0.000000
0.000000 0.000000 0.000000
0.000000 0.000000 0.000000
0.000000 0.000000 0.000000
0.000000 0.000000 0.000000
0.000000 0.000000 0.000000
0.505050 0.505050 0.505050
0.535354 0.535354 0.535354
0.555556 0.555556 0.555556
0.676768 0.676768 0.676768
0.000000 0.000000 0.000000
0.000000 0.000000 0.000000
0.515152 0.515152 0.515152
0.505050 0.505050 0.505050
0.555556 0.555556 0.555556
0.676768 0.676768 0.676768
0.000000 0.000000 0.000000
0.000000 0.000000 0.000000
0.494949 0.494949 0.494949
0.464646 0.464646 0.464646
0.535354 0.535354 0.535354
0.646465 0.646465 0.646465
0.000000 0.000000 0.000000
0.010101 0.010101 0.010101
0.272727 0.272727 0.272727
0.444444 0.444444 0.444444
0.505050 0.505050 0.505050
0.595960 0.595960 0.595960
0.000000 0.000000 0.000000
0.000000 0.000000 0.000000
0.000000 0.000000 0.000000
0.000000 0.000000 0.000000
0.191919 0.191919 0.191919
0.353535 0.353535 0.353535
0.000000 0.000000 0.000000
0.000000 0.000000 0.000000
0.000000 0.000000 0.000000
0.000000 0.000000 0.000000
0.000000 0.000000 0.000000
0.000000 0.000000 0.000000
0.000000 0.000000 0.000000
0.000000 0.000000 0.000000
0.171717 0.171717 0.171717
0.090909 0.090909 0.090909
0.000000 0.000000 0.000000
0.050505 0.050505 0.050505
0.000000 0.000000 0.000000
0.000000 0.000000 0.000000
0.141414 0.141414 0.141414
0.070707 0.070707 0.070707
0.000000 0.000000 0.000000
0.060606 0.060606 0.060606
0.000000 0.000000 0.000000
0.000000 0.000000 0.000000
0.050505 0.050505 0.050505
0.000000 0.000000 0.000000
0.000000 0.000000 0.000000
0.060606 0.060606 0.060606
0.000000 0.000000 0.000000
0.000000 0.000000 0.000000
0.000000 0.000000 0.000000
0.000000 0.000000 0.000000
0.000000 0.000000 0.000000
0.060606 0.060606 0.060606
0.000000 0.000000 0.000000
0.000000 0.000000 0.000000
0.000000 0.000000 0.000000
0.000000 0.000000 0.000000
0.000000 0.000000 0.000000
0.040404 0.040404 0.040404
0.000000 0.000000 0.000000
0.000000 0.000000 0.000000
0.000000 0.000000 0.000000
0.000000 0.000000 0.000000
0.000000 0.000000 0.000000
0.000000 0.000000 0.000000
