tests/cmyk_3.cube
LUT_3D_SIZE 16
DOMAIN_MIN 0 0 0
DOMAIN_MAX 1 1 1
0.137255 0.121569 0.125490
0.137255 0.121569 0.125490
0.137255 0.121569 0.125490
0.239047 0.230976 0.232933
0.306295 0.300482 0.301883
0.390123 0.386035 0.387017
0.456189 0.453019 0.453779
0.532361 0.529975 0.530546
0.605222 0.603411 0.603844
0.682876 0.681555 0.681871
0.756834 0.755898 0.756122
0.833592 0.832995 0.833138
0.907020 0.906706 0.906781
0.982331 0.982274 0.982288
1.000000 1.000000 1.000000
1.000000 1.000000 1.000000
0.137255 0.121569 0.125490
0.137255 0.121569 0.125490
0.178289 0.166715 0.169556
0.239047 0.230976 0.232933
0.306295 0.300482 0.301883
0.390123 0.386035 0.387017
0.468035 0.465003 0.465730
0.542158 0.539857 0.540408
0.621760 0.620063 0.620469
0.690029 0.688748 0.689054
0.763101 0.762194 0.762411
0.839119 0.838545 0.838682
0.911970 0.911674 0.911744
0.986788 0.986745 0.986756
1.000000 1.000000 1.000000
1.000000 1.000000 1.000000
0.211102 0.201669 0.203966
0.211102 0.201669 0.203966
0.178289 0.166715 0.169556
0.239047 0.230976 0.232933
0.306295 0.300482 0.301883
0.375160 0.370820 0.371863
0.456189 0.453019 0.453779
0.532361 0.529975 0.530546
0.613563 0.611810 0.612229
0.690029 0.688748 0.689054
0.769300 0.768423 0.768633
0.839119 0.838545 0.838682
0.921764 0.921503 0.921565
0.995622 0.995608 0.995611
1.000000 1.000000 1.000000
1.000000 1.000000 1.000000
0.285928 0.279542 0.281083
0.306295 0.300482 0.301883
0.285928 0.279542 0.281083
0.239047 0.230976 0.232933
0.285928 0.279542 0.281083
0.375160 0.370820 0.371863
0.443945 0.440626 0.441422
0.532361 0.529975 0.530546
0.605222 0.603411 0.603844
0.682876 0.681555 0.681871
0.763101 0.762194 0.762411
0.839119 0.838545 0.838682
0.911970 0.911674 0.911744
0.991218 0.991190 0.991196
1.000000 1.000000 1.000000
1.000000 1.000000 1.000000
0.375160 0.370820 0.371863
0.390123 0.386035 0.387017
0.375160 0.370820 0.371863
0.359430 0.354803 0.355915
0.306295 0.300482 0.301883
0.359430 0.354803 0.355915
0.431266 0.427783 0.428618
0.522330 0.519853 0.520446
0.596731 0.594860 0.595308
0.675624 0.674262 0.674588
0.756834 0.755898 0.756122
0.833592 0.832995 0.833138
0.911970 0.911674 0.911744
0.986788 0.986745 0.986756
1.000000 1.000000 1.000000
1.000000 1.000000 1.000000
0.468035 0.465003 0.465730
0.479517 0.476612 0.477308
0.479517 0.476612 0.477308
0.456189 0.453019 0.453779
0.431266 0.427783 0.428618
0.375160 0.370820 0.371863
0.418107 0.414442 0.415321
0.501500 0.498824 0.499465
0.588082 0.586148 0.586611
0.668271 0.666866 0.667202
0.750500 0.749533 0.749764
0.828016 0.827396 0.827544
0.902034 0.901702 0.901782
0.977847 0.977776 0.977793
1.000000 1.000000 1.000000
1.000000 1.000000 1.000000
0.561104 0.558961 0.559474
0.570278 0.568208 0.568704
0.579268 0.577267 0.577746
0.561104 0.558961 0.559474
0.532361 0.529975 0.530546
0.501500 0.498824 0.499465
0.443945 0.440626 0.441422
0.479517 0.476612 0.477308
0.570278 0.568208 0.568704
0.653241 0.651745 0.652103
0.731064 0.730001 0.730255
0.816713 0.816047 0.816206
0.897012 0.896662 0.896746
0.973336 0.973250 0.973271
1.000000 1.000000 1.000000
1.000000 1.000000 1.000000
0.653241 0.651745 0.652103
0.653241 0.651745 0.652103
0.660811 0.659361 0.659708
0.660811 0.659361 0.659708
0.645556 0.644013 0.644382
0.605222 0.603411 0.603844
0.570278 0.568208 0.568704
0.522330 0.519853 0.520446
0.551734 0.549515 0.550046
0.637751 0.636158 0.636539
0.724434 0.723337 0.723600
0.799364 0.798623 0.798800
0.881718 0.881311 0.881408
0.964230 0.964114 0.964142
1.000000 1.000000 1.000000
1.000000 1.000000 1.000000
0.744095 0.743097 0.743335
0.744095 0.743097 0.743335
0.750500 0.749533 0.749764
0.756834 0.755898 0.756122
0.737617 0.736587 0.736833
0.710931 0.709764 0.710043
0.682876 0.681555 0.681871
0.653241 0.651745 0.652103
0.596731 0.594860 0.595308
0.613563 0.611810 0.612229
0.697087 0.695845 0.696142
0.787519 0.786725 0.786915
0.871325 0.870878 0.870985
0.950353 0.950191 0.950230
1.000000 1.000000 1.000000
1.000000 1.000000 1.000000
0.833592 0.832995 0.833138
0.833592 0.832995 0.833138
0.839119 0.838545 0.838682
0.850033 0.849503 0.849630
0.844599 0.844048 0.844179
0.816713 0.816047 0.816206
0.799364 0.798623 0.798800
0.763101 0.762194 0.762411
0.717724 0.716593 0.716863
0.668271 0.666866 0.667202
0.682876 0.681555 0.681871
0.769300 0.768423 0.768633
0.855421 0.854913 0.855034
0.936203 0.935992 0.936043
1.000000 1.000000 1.000000
1.000000 1.000000 1.000000
0.921764 0.921503 0.921565
0.921764 0.921503 0.921565
0.931423 0.931196 0.931250
0.936203 0.935992 0.936043
0.936203 0.935992 0.936043
0.921764 0.921503 0.921565
0.902034 0.901702 0.901782
0.871325 0.870878 0.870985
0.833592 0.832995 0.833138
0.793470 0.792703 0.792886
0.744095 0.743097 0.743335
0.744095 0.743097 0.743335
0.833592 0.832995 0.833138
0.916884 0.916606 0.916672
1.000000 1.000000 1.000000
1.000000 1.000000 1.000000
1.000000 1.000000 1.000000
1.000000 1.000000 1.000000
1.000000 1.000000 1.000000
1.000000 1.000000 1.000000
1.000000 1.000000 1.000000
1.000000 1.000000 1.000000
0.991218 0.991190 0.991196
0.977847 0.977776 0.977793
0.940951 0.940757 0.940803
0.907020 0.906706 0.906781
0.866066 0.865599 0.865711
0.810984 0.810293 0.810458
0.810984 0.810293 0.810458
0.902034 0.901702 0.901782
0.986788 0.986745 0.986756
1.000000 1.000000 1.000000
1.000000 1.000000 1.000000
1.000000 1.000000 1.000000
1.000000 1.000000 1.000000
1.000000 1.000000 1.000000
1.000000 1.000000 1.000000
1.000000 1.000000 1.000000
1.000000 1.000000 1.000000
1.000000 1.000000 1.000000
1.000000 1.000000 1.000000
1.000000 1.000000 1.000000
0.986788 0.986745 0.986756
0.945668 0.945489 0.945532
0.881718 0.881311 0.881408
0.886855 0.886467 0.886560
0.959634 0.959503 0.959534
1.000000 1.000000 1.000000
1.000000 1.000000 1.000000
1.000000 1.000000 1.000000
1.000000 1.000000 1.000000
1.000000 1.000000 1.000000
1.000000 1.000000 1.000000
1.000000 1.000000 1.000000
1.000000 1.000000 1.000000
1.000000 1.000000 1.000000
1.000000 1.000000 1.000000
1.000000 1.000000 1.000000
1.000000 1.000000 1.000000
1.000000 1.000000 1.000000
1.000000 1.000000 1.000000
0.955009 0.954862 0.954897
0.945668 0.945489 0.945532
1.000000 1.000000 1.000000
1.000000 1.000000 1.000000
1.000000 1.000000 1.000000
1.000000 1.000000 1.000000
1.000000 1.000000 1.000000
1.000000 1.000000 1.000000
1.000000 1.000000 1.000000
1.000000 1.000000 1.000000
1.000000 1.000000 1.000000
1.000000 1.000000 1.000000
1.000000 1.000000 1.000000
1.000000 1.000000 1.000000
1.000000 1.000000 1.000000
1.000000 1.000000 1.000000
1.000000 1.000000 1.000000
1.000000 1.000000 1.000000
1.000000 1.000000 1.000000
1.000000 1.000000 1.000000
1.000000 1.000000 1.000000
1.000000 1.000000 1.000000
1.000000 1.000000 1.000000
1.000000 1.000000 1.000000
1.000000 1.000000 1.000000
1.000000 1.000000 1.000000
1.000000 1.000000 1.000000
1.000000 1.000000 1.000000
1.000000 1.000000 1.000000
1.000000 1.000000 1.000000
1.000000 1.000000 1.000000
1.000000 1.000000 1.000000
1.000000 1.000000 1.000000
1.000000 1.000000 1.000000
1.000000 1.000000 1.000000
0.137255 0.121569 0.125490
0.178289 0.166715 0.169556
0.178289 0.166715 0.169556
0.239047 0.230976 0.232933
0.306295 0.300482 0.301883
0.390123 0.386035 0.387017
0.468035 0.465003 0.465730
0.542158 0.539857 0.540408
0.613563 0.611810 0.612229
0.682876 0.681555 0.681871
0.756834 0.755898 0.756122
0.833592 0.832995 0.833138
0.907020 0.906706 0.906781
0.982331 0.982274 0.982288
1.000000 1.000000 1.000000
1.000000 1.000000 1.000000
0.137255 0.121569 0.125490
0.137255 0.121569 0.125490
0.178289 0.166715 0.169556
0.239047 0.230976 0.232933
0.342817 0.337858 0.339051
0.418107 0.414442 0.415321
0.468035 0.465003 0.465730
0.596731 0.594860 0.595308
0.621760 0.620063 0.620469
0.690029 0.688748 0.689054
0.769300 0.768423 0.768633
0.839119 0.838545 0.838682
0.911970 0.911674 0.911744
0.986788 0.986745 0.986756
1.000000 1.000000 1.000000
1.000000 1.000000 1.000000
0.211102 0.201669 0.203966
0.239047 0.230976 0.232933
0.211102 0.201669 0.203966
0.263696 0.256586 0.258305
0.342817 0.337858 0.339051
0.404413 0.400549 0.401476
0.479517 0.476612 0.477308
0.561104 0.558961 0.559474
0.613563 0.611810 0.612229
0.697087 0.695845 0.696142
0.763101 0.762194 0.762411
0.844599 0.844048 0.844179
0.921764 0.921503 0.921565
0.995622 0.995608 0.995611
1.000000 1.000000 1.000000
1.000000 1.000000 1.000000
0.306295 0.300482 0.301883
0.306295 0.300482 0.301883
0.342817 0.337858 0.339051
0.325170 0.319823 0.321110
0.325170 0.319823 0.321110
0.431266 0.427783 0.428618
0.468035 0.465003 0.465730
0.570278 0.568208 0.568704
0.637751 0.636158 0.636539
0.690029 0.688748 0.689054
0.763101 0.762194 0.762411
0.839119 0.838545 0.838682
0.916884 0.916606 0.916672
0.991218 0.991190 0.991196
1.000000 1.000000 1.000000
1.000000 1.000000 1.000000
0.390123 0.386035 0.387017
0.404413 0.400549 0.401476
0.418107 0.414442 0.415321
0.404413 0.400549 0.401476
0.375160 0.370820 0.371863
0.375160 0.370820 0.371863
0.512049 0.509476 0.510092
0.561104 0.558961 0.559474
0.637751 0.636158 0.636539
0.682876 0.681555 0.681871
0.763101 0.762194 0.762411
0.833592 0.832995 0.833138
0.911970 0.911674 0.911744
0.986788 0.986745 0.986756
1.000000 1.000000 1.000000
1.000000 1.000000 1.000000
0.479517 0.476612 0.477308
0.479517 0.476612 0.477308
0.490663 0.487877 0.488545
0.490663 0.487877 0.488545
0.468035 0.465003 0.465730
0.431266 0.427783 0.428618
0.490663 0.487877 0.488545
0.522330 0.519853 0.520446
0.596731 0.594860 0.595308
0.675624 0.674262 0.674588
0.750500 0.749533 0.749764
0.828016 0.827396 0.827544
0.907020 0.906706 0.906781
0.982331 0.982274 0.982288
1.000000 1.000000 1.000000
1.000000 1.000000 1.000000
0.561104 0.558961 0.559474
0.570278 0.568208 0.568704
0.579268 0.577267 0.577746
0.588082 0.586148 0.586611
0.561104 0.558961 0.559474
0.532361 0.529975 0.530546
0.501500 0.498824 0.499465
0.570278 0.568208 0.568704
0.596731 0.594860 0.595308
0.668271 0.666866 0.667202
0.744095 0.743097 0.743335
0.816713 0.816047 0.816206
0.891953 0.891584 0.891672
0.977847 0.977776 0.977793
1.000000 1.000000 1.000000
1.000000 1.000000 1.000000
0.653241 0.651745 0.652103
0.660811 0.659361 0.659708
0.668271 0.666866 0.667202
0.682876 0.681555 0.681871
0.668271 0.666866 0.667202
0.637751 0.636158 0.636539
0.605222 0.603411 0.603844
0.561104 0.558961 0.559474
0.551734 0.549515 0.550046
0.682876 0.681555 0.681871
0.737617 0.736587 0.736833
0.810984 0.810293 0.810458
0.886855 0.886467 0.886560
0.964230 0.964114 0.964142
1.000000 1.000000 1.000000
1.000000 1.000000 1.000000
0.744095 0.743097 0.743335
0.750500 0.749533 0.749764
0.756834 0.755898 0.756122
0.769300 0.768423 0.768633
0.763101 0.762194 0.762411
0.744095 0.743097 0.743335
0.717724 0.716593 0.716863
0.668271 0.666866 0.667202
0.621760 0.620063 0.620469
0.675624 0.674262 0.674588
0.724434 0.723337 0.723600
0.793470 0.792703 0.792886
0.871325 0.870878 0.870985
0.955009 0.954862 0.954897
1.000000 1.000000 1.000000
1.000000 1.000000 1.000000
0.833592 0.832995 0.833138
0.839119 0.838545 0.838682
0.844599 0.844048 0.844179
0.855421 0.854913 0.855034
0.860766 0.860278 0.860394
0.839119 0.838545 0.838682
0.816713 0.816047 0.816206
0.781508 0.780686 0.780883
0.744095 0.743097 0.743335
0.697087 0.695845 0.696142
0.682876 0.681555 0.681871
0.799364 0.798623 0.798800
0.855421 0.854913 0.855034
0.940951 0.940757 0.940803
1.000000 1.000000 1.000000
1.000000 1.000000 1.000000
0.921764 0.921503 0.921565
0.926610 0.926366 0.926424
0.931423 0.931196 0.931250
0.940951 0.940757 0.940803
0.955009 0.954862 0.954897
0.931423 0.931196 0.931250
0.916884 0.916606 0.916672
0.897012 0.896662 0.896746
0.860766 0.860278 0.860394
0.816713 0.816047 0.816206
0.769300 0.768423 0.768633
0.787519 0.786725 0.786915
0.844599 0.844048 0.844179
0.921764 0.921503 0.921565
1.000000 1.000000 1.000000
1.000000 1.000000 1.000000
1.000000 1.000000 1.000000
1.000000 1.000000 1.000000
1.000000 1.000000 1.000000
1.000000 1.000000 1.000000
1.000000 1.000000 1.000000
1.000000 1.000000 1.000000
1.000000 1.000000 1.000000
0.991218 0.991190 0.991196
0.959634 0.959503 0.959534
0.931423 0.931196 0.931250
0.881718 0.881311 0.881408
0.833592 0.832995 0.833138
0.844599 0.844048 0.844179
0.916884 0.916606 0.916672
0.991218 0.991190 0.991196
1.000000 1.000000 1.000000
1.000000 1.000000 1.000000
1.000000 1.000000 1.000000
1.000000 1.000000 1.000000
1.000000 1.000000 1.000000
1.000000 1.000000 1.000000
1.000000 1.000000 1.000000
1.000000 1.000000 1.000000
1.000000 1.000000 1.000000
1.000000 1.000000 1.000000
1.000000 1.000000 1.000000
0.991218 0.991190 0.991196
0.955009 0.954862 0.954897
0.907020 0.906706 0.906781
0.911970 0.911674 0.911744
0.973336 0.973250 0.973271
1.000000 1.000000 1.000000
1.000000 1.000000 1.000000
1.000000 1.000000 1.000000
1.000000 1.000000 1.000000
1.000000 1.000000 1.000000
1.000000 1.000000 1.000000
1.000000 1.000000 1.000000
1.000000 1.000000 1.000000
1.000000 1.000000 1.000000
1.000000 1.000000 1.000000
1.000000 1.000000 1.000000
1.000000 1.000000 1.000000
1.000000 1.000000 1.000000
1.000000 1.000000 1.000000
0.968797 0.968697 0.968721
0.982331 0.982274 0.982288
1.000000 1.000000 1.000000
1.000000 1.000000 1.000000
1.000000 1.000000 1.000000
1.000000 1.000000 1.000000
1.000000 1.000000 1.000000
1.000000 1.000000 1.000000
1.000000 1.000000 1.000000
1.000000 1.000000 1.000000
1.000000 1.000000 1.000000
1.000000 1.000000 1.000000
1.000000 1.000000 1.000000
1.000000 1.000000 1.000000
1.000000 1.000000 1.000000
1.000000 1.000000 1.000000
1.000000 1.000000 1.000000
1.000000 1.000000 1.000000
1.000000 1.000000 1.000000
1.000000 1.000000 1.000000
1.000000 1.000000 1.000000
1.000000 1.000000 1.000000
1.000000 1.000000 1.000000
1.000000 1.000000 1.000000
1.000000 1.000000 1.000000
1.000000 1.000000 1.000000
1.000000 1.000000 1.000000
1.000000 1.000000 1.000000
1.000000 1.000000 1.000000
1.000000 1.000000 1.000000
1.000000 1.000000 1.000000
1.000000 1.000000 1.000000
1.000000 1.000000 1.000000
1.000000 1.000000 1.000000
1.000000 1.000000 1.000000
0.137255 0.121569 0.125490
0.211102 0.201669 0.203966
0.306295 0.300482 0.301883
0.306295 0.300482 0.301883
0.306295 0.300482 0.301883
0.375160 0.370820 0.371863
0.456189 0.453019 0.453779
0.532361 0.529975 0.530546
0.605222 0.603411 0.603844
0.682876 0.681555 0.681871
0.756834 0.755898 0.756122
0.833592 0.832995 0.833138
0.911970 0.911674 0.911744
0.986788 0.986745 0.986756
1.000000 1.000000 1.000000
1.000000 1.000000 1.000000
0.178289 0.166715 0.169556
0.211102 0.201669 0.203966
0.285928 0.279542 0.281083
0.285928 0.279542 0.281083
0.375160 0.370820 0.371863
0.390123 0.386035 0.387017
0.532361 0.529975 0.530546
0.613563 0.611810 0.612229
0.637751 0.636158 0.636539
0.690029 0.688748 0.689054
0.763101 0.762194 0.762411
0.839119 0.838545 0.838682
0.916884 0.916606 0.916672
0.991218 0.991190 0.991196
1.000000 1.000000 1.000000
1.000000 1.000000 1.000000
0.211102 0.201669 0.203966
0.239047 0.230976 0.232933
0.178289 0.166715 0.169556
0.285928 0.279542 0.281083
0.375160 0.370820 0.371863
0.443945 0.440626 0.441422
0.532361 0.529975 0.530546
0.637751 0.636158 0.636539
0.810984 0.810293 0.810458
0.816713 0.816047 0.816206
0.916884 0.916606 0.916672
0.940951 0.940757 0.940803
0.964230 0.964114 0.964142
1.000000 1.000000 1.000000
1.000000 1.000000 1.000000
1.000000 1.000000 1.000000
0.306295 0.300482 0.301883
0.306295 0.300482 0.301883
0.342817 0.337858 0.339051
0.263696 0.256586 0.258305
0.306295 0.300482 0.301883
0.375160 0.370820 0.371863
0.551734 0.549515 0.550046
0.532361 0.529975 0.530546
0.613563 0.611810 0.612229
0.690029 0.688748 0.689054
0.936203 0.935992 0.936043
0.907020 0.906706 0.906781
0.921764 0.921503 0.921565
1.000000 1.000000 1.000000
1.000000 1.000000 1.000000
1.000000 1.000000 1.000000
0.390123 0.386035 0.387017
0.404413 0.400549 0.401476
0.418107 0.414442 0.415321
0.431266 0.427783 0.428618
0.359430 0.354803 0.355915
0.390123 0.386035 0.387017
0.512049 0.509476 0.510092
0.724434 0.723337 0.723600
0.828016 0.827396 0.827544
0.775435 0.774587 0.774789
0.916884 0.916606 0.916672
0.850033 0.849503 0.849630
0.931423 0.931196 0.931250
0.995622 0.995608 0.995611
1.000000 1.000000 1.000000
1.000000 1.000000 1.000000
0.479517 0.476612 0.477308
0.490663 0.487877 0.488545
0.501500 0.498824 0.499465
0.522330 0.519853 0.520446
0.522330 0.519853 0.520446
0.532361 0.529975 0.530546
0.468035 0.465003 0.465730
0.501500 0.498824 0.499465
0.621760 0.620063 0.620469
0.697087 0.695845 0.696142
0.907020 0.906706 0.906781
0.897012 0.896662 0.896746
0.916884 0.916606 0.916672
0.982331 0.982274 0.982288
1.000000 1.000000 1.000000
1.000000 1.000000 1.000000
0.570278 0.568208 0.568704
0.579268 0.577267 0.577746
0.588082 0.586148 0.586611
0.605222 0.603411 0.603844
0.621760 0.620063 0.620469
0.596731 0.594860 0.595308
0.512049 0.509476 0.510092
0.605222 0.603411 0.603844
0.579268 0.577267 0.577746
0.844599 0.844048 0.844179
0.850033 0.849503 0.849630
0.921764 0.921503 0.921565
0.931423 0.931196 0.931250
0.995622 0.995608 0.995611
1.000000 1.000000 1.000000
1.000000 1.000000 1.000000
0.660811 0.659361 0.659708
0.668271 0.666866 0.667202
0.675624 0.674262 0.674588
0.690029 0.688748 0.689054
0.704053 0.702849 0.703137
0.690029 0.688748 0.689054
0.660811 0.659361 0.659708
0.653241 0.651745 0.652103
0.621760 0.620063 0.620469
0.737617 0.736587 0.736833
0.724434 0.723337 0.723600
0.931423 0.931196 0.931250
0.973336 0.973250 0.973271
0.964230 0.964114 0.964142
1.000000 1.000000 1.000000
1.000000 1.000000 1.000000
0.750500 0.749533 0.749764
0.750500 0.749533 0.749764
0.756834 0.755898 0.756122
0.769300 0.768423 0.768633
0.787519 0.786725 0.786915
0.775435 0.774587 0.774789
0.750500 0.749533 0.749764
0.717724 0.716593 0.716863
0.645556 0.644013 0.644382
0.717724 0.716593 0.716863
0.704053 0.702849 0.703137
0.787519 0.786725 0.786915
0.959634 0.959503 0.959534
0.968797 0.968697 0.968721
1.000000 1.000000 1.000000
1.000000 1.000000 1.000000
0.839119 0.838545 0.838682
0.839119 0.838545 0.838682
0.844599 0.844048 0.844179
0.855421 0.854913 0.855034
0.871325 0.870878 0.870985
0.876542 0.876115 0.876217
0.850033 0.849503 0.849630
0.822390 0.821747 0.821901
0.781508 0.780686 0.780883
0.717724 0.716593 0.716863
0.839119 0.838545 0.838682
0.769300 0.768423 0.768633
0.907020 0.906706 0.906781
0.955009 0.954862 0.954897
1.000000 1.000000 1.000000
1.000000 1.000000 1.000000
0.926610 0.926366 0.926424
0.931423 0.931196 0.931250
0.936203 0.935992 0.936043
0.945668 0.945489 0.945532
0.955009 0.954862 0.954897
0.964230 0.964114 0.964142
0.945668 0.945489 0.945532
0.921764 0.921503 0.921565
0.897012 0.896662 0.896746
0.850033 0.849503 0.849630
0.810984 0.810293 0.810458
0.839119 0.838545 0.838682
0.850033 0.849503 0.849630
0.955009 0.954862 0.954897
1.000000 1.000000 1.000000
1.000000 1.000000 1.000000
1.000000 1.000000 1.000000
1.000000 1.000000 1.000000
1.000000 1.000000 1.000000
1.000000 1.000000 1.000000
1.000000 1.000000 1.000000
1.000000 1.000000 1.000000
1.000000 1.000000 1.000000
1.000000 1.000000 1.000000
0.991218 0.991190 0.991196
0.964230 0.964114 0.964142
0.916884 0.916606 0.916672
0.876542 0.876115 0.876217
0.833592 0.832995 0.833138
0.940951 0.940757 0.940803
1.000000 1.000000 1.000000
1.000000 1.000000 1.000000
1.000000 1.000000 1.000000
1.000000 1.000000 1.000000
1.000000 1.000000 1.000000
1.000000 1.000000 1.000000
1.000000 1.000000 1.000000
1.000000 1.000000 1.000000
1.000000 1.000000 1.000000
1.000000 1.000000 1.000000
1.000000 1.000000 1.000000
1.000000 1.000000 1.000000
1.000000 1.000000 1.000000
0.986788 0.986745 0.986756
0.940951 0.940757 0.940803
0.991218 0.991190 0.991196
0.991218 0.991190 0.991196
1.000000 1.000000 1.000000
1.000000 1.000000 1.000000
1.000000 1.000000 1.000000
1.000000 1.000000 1.000000
1.000000 1.000000 1.000000
1.000000 1.000000 1.000000
1.000000 1.000000 1.000000
1.000000 1.000000 1.000000
1.000000 1.000000 1.000000
1.000000 1.000000 1.000000
1.000000 1.000000 1.000000
1.000000 1.000000 1.000000
1.000000 1.000000 1.000000
1.000000 1.000000 1.000000
0.991218 0.991190 0.991196
0.991218 0.991190 0.991196
1.000000 1.000000 1.000000
1.000000 1.000000 1.000000
1.000000 1.000000 1.000000
1.000000 1.000000 1.000000
1.000000 1.000000 1.000000
1.000000 1.000000 1.000000
1.000000 1.000000 1.000000
1.000000 1.000000 1.000000
1.000000 1.000000 1.000000
1.000000 1.000000 1.000000
1.000000 1.000000 1.000000
1.000000 1.000000 1.000000
1.000000 1.000000 1.000000
1.000000 1.000000 1.000000
1.000000 1.000000 1.000000
1.000000 1.000000 1.000000
1.000000 1.000000 1.000000
1.000000 1.000000 1.000000
1.000000 1.000000 1.000000
1.000000 1.000000 1.000000
1.000000 1.000000 1.000000
1.000000 1.000000 1.000000
1.000000 1.000000 1.000000
1.000000 1.000000 1.000000
1.000000 1.000000 1.000000
1.000000 1.000000 1.000000
1.000000 1.000000 1.000000
1.000000 1.000000 1.000000
1.000000 1.000000 1.000000
1.000000 1.000000 1.000000
1.000000 1.000000 1.000000
1.000000 1.000000 1.000000
1.000000 1.000000 1.000000
0.211102 0.201669 0.203966
0.211102 0.201669 0.203966
0.325170 0.319823 0.321110
0.431266 0.427783 0.428618
0.418107 0.414442 0.415321
0.404413 0.400549 0.401476
0.443945 0.440626 0.441422
0.522330 0.519853 0.520446
0.596731 0.594860 0.595308
0.675624 0.674262 0.674588
0.756834 0.755898 0.756122
0.828016 0.827396 0.827544
0.907020 0.906706 0.906781
0.982331 0.982274 0.982288
1.000000 1.000000 1.000000
1.000000 1.000000 1.000000
0.211102 0.201669 0.203966
0.239047 0.230976 0.232933
0.342817 0.337858 0.339051
0.456189 0.453019 0.453779
0.431266 0.427783 0.428618
0.443945 0.440626 0.441422
0.542158 0.539857 0.540408
0.561104 0.558961 0.559474
0.660811 0.659361 0.659708
0.690029 0.688748 0.689054
0.769300 0.768423 0.768633
0.833592 0.832995 0.833138
0.911970 0.911674 0.911744
0.986788 0.986745 0.986756
1.000000 1.000000 1.000000
1.000000 1.000000 1.000000
0.239047 0.230976 0.232933
0.263696 0.256586 0.258305
0.342817 0.337858 0.339051
0.375160 0.370820 0.371863
0.342817 0.337858 0.339051
0.522330 0.519853 0.520446
0.570278 0.568208 0.568704
0.690029 0.688748 0.689054
0.621760 0.620063 0.620469
0.828016 0.827396 0.827544
0.839119 0.838545 0.838682
0.945668 0.945489 0.945532
0.977847 0.977776 0.977793
0.995622 0.995608 0.995611
1.000000 1.000000 1.000000
1.000000 1.000000 1.000000
0.306295 0.300482 0.301883
0.325170 0.319823 0.321110
0.342817 0.337858 0.339051
0.239047 0.230976 0.232933
0.404413 0.400549 0.401476
0.418107 0.414442 0.415321
0.570278 0.568208 0.568704
0.570278 0.568208 0.568704
0.660811 0.659361 0.659708
0.833592 0.832995 0.833138
0.855421 0.854913 0.855034
0.833592 0.832995 0.833138
0.911970 0.911674 0.911744
1.000000 1.000000 1.000000
1.000000 1.000000 1.000000
1.000000 1.000000 1.000000
0.390123 0.386035 0.387017
0.404413 0.400549 0.401476
0.418107 0.414442 0.415321
0.443945 0.440626 0.441422
0.404413 0.400549 0.401476
0.418107 0.414442 0.415321
0.431266 0.427783 0.428618
0.660811 0.659361 0.659708
0.822390 0.821747 0.821901
0.731064 0.730001 0.730255
0.799364 0.798623 0.798800
0.855421 0.854913 0.855034
0.950353 0.950191 0.950230
0.995622 0.995608 0.995611
1.000000 1.000000 1.000000
1.000000 1.000000 1.000000
0.479517 0.476612 0.477308
0.490663 0.487877 0.488545
0.501500 0.498824 0.499465
0.522330 0.519853 0.520446
0.605222 0.603411 0.603844
0.542158 0.539857 0.540408
0.522330 0.519853 0.520446
0.750500 0.749533 0.749764
0.596731 0.594860 0.595308
0.704053 0.702849 0.703137
0.810984 0.810293 0.810458
0.833592 0.832995 0.833138
0.926610 0.926366 0.926424
0.982331 0.982274 0.982288
1.000000 1.000000 1.000000
1.000000 1.000000 1.000000
0.570278 0.568208 0.568704
0.579268 0.577267 0.577746
0.588082 0.586148 0.586611
0.605222 0.603411 0.603844
0.629821 0.628177 0.628570
0.588082 0.586148 0.586611
0.839119 0.838545 0.838682
0.697087 0.695845 0.696142
0.653241 0.651745 0.652103
0.737617 0.736587 0.736833
0.750500 0.749533 0.749764
0.911970 0.911674 0.911744
0.936203 0.935992 0.936043
0.995622 0.995608 0.995611
1.000000 1.000000 1.000000
1.000000 1.000000 1.000000
0.660811 0.659361 0.659708
0.668271 0.666866 0.667202
0.675624 0.674262 0.674588
0.690029 0.688748 0.689054
0.710931 0.709764 0.710043
0.737617 0.736587 0.736833
0.850033 0.849503 0.849630
