tests/cmyk_0m.cube
LUT_3D_SIZE 16
DOMAIN_MIN 0 0 0
DOMAIN_MAX 1 1 1
1.000000 1.000000 1.000000
0.646465 0.646465 0.646465
0.000000 0.000000 0.000000
0.030303 0.030303 0.030303
0.000000 0.000000 0.000000
0.050505 0.050505 0.050505
0.000000 0.000000 0.000000
0.000000 0.000000 0.000000
0.000000 0.000000 0.000000
0.000000 0.000000 0.000000
0.000000 0.000000 0.000000
0.010101 0.010101 0.010101
0.000000 0.000000 0.000000
0.000000 0.000000 0.000000
0.000000 0.000000 0.000000
0.000000 0.000000 0.000000
1.000000 1.000000 1.000000
0.767677 0.767677 0.767677
0.303030 0.303030 0.303030
0.060606 0.060606 0.060606
0.000000 0.000000 0.000000
0.010101 0.010101 0.010101
0.010101 0.010101 0.010101
0.000000 0.000000 0.000000
0.030303 0.030303 0.030303
0.000000 0.000000 0.000000
0.000000 0.000000 0.000000
0.010101 0.010101 0.010101
0.000000 0.000000 0.000000
0.000000 0.000000 0.000000
0.000000 0.000000 0.000000
0.000000 0.000000 0.000000
1.000000 1.000000 1.000000
0.929293 0.929293 0.929293
0.454545 0.454545 0.454545
0.181818 0.181818 0.181818
0.030303 0.030303 0.030303
0.000000 0.000000 0.000000
0.000000 0.000000 0.000000
0.000000 0.000000 0.000000
0.020202 0.020202 0.020202
0.000000 0.000000 0.000000
0.000000 0.000000 0.000000
0.000000 0.000000 0.000000
0.000000 0.000000 0.000000
0.000000 0.000000 0.000000
0.000000 0.000000 0.000000
0.000000 0.000000 0.000000
0.979798 0.979798 0.979798
1.000000 1.000000 1.000000
0.828283 0.828283 0.828283
0.303030 0.303030 0.303030
0.000000 0.000000 0.000000
0.040404 0.040404 0.040404
0.000000 0.000000 0.000000
0.030303 0.030303 0.030303
0.000000 0.000000 0.000000
0.000000 0.000000 0.000000
0.010101 0.010101 0.010101
0.010101 0.010101 0.010101
0.000000 0.000000 0.000000
0.000000 0.000000 0.000000
0.000000 0.000000 0.000000
0.000000 0.000000 0.000000
0.979798 0.979798 0.979798
1.000000 1.000000 1.000000
0.898990 0.898990 0.898990
0.747475 0.747475 0.747475
0.242424 0.242424 0.242424
0.050505 0.050505 0.050505
0.000000 0.000000 0.000000
0.010101 0.010101 0.010101
0.000000 0.000000 0.000000
0.000000 0.000000 0.000000
0.000000 0.000000 0.000000
0.000000 0.000000 0.000000
0.000000 0.000000 0.000000
0.000000 0.000000 0.000000
0.000000 0.000000 0.000000
0.000000 0.000000 0.000000
0.989899 0.989899 0.989899
1.000000 1.000000 1.000000
0.969697 0.969697 0.969697
0.848485 0.848485 0.848485
0.676768 0.676768 0.676768
0.212121 0.212121 0.212121
0.000000 0.000000 0.000000
0.000000 0.000000 0.000000
0.010101 0.010101 0.010101
0.010101 0.010101 0.010101
0.020202 0.020202 0.020202
0.010101 0.010101 0.010101
0.000000 0.000000 0.000000
0.000000 0.000000 0.000000
0.000000 0.000000 0.000000
0.000000 0.000000 0.000000
1.000000 1.000000 1.000000
1.000000 1.000000 1.000000
1.000000 1.000000 1.000000
0.929293 0.929293 0.929293
0.797980 0.797980 0.797980
0.616162 0.616162 0.616162
0.191919 0.191919 0.191919
0.000000 0.000000 0.000000
0.000000 0.000000 0.000000
0.010101 0.010101 0.010101
0.000000 0.000000 0.000000
0.010101 0.010101 0.010101
0.000000 0.000000 0.000000
0.000000 0.000000 0.000000
0.000000 0.000000 0.000000
0.000000 0.000000 0.000000
1.000000 1.000000 1.000000
1.000000 1.000000 1.000000
0.989899 0.989899 0.989899
0.969697 0.969697 0.969697
0.898990 0.898990 0.898990
0.747475 0.747475 0.747475
0.555556 0.555556 0.555556
0.222222 0.222222 0.222222
0.010101 0.010101 0.010101
0.010101 0.010101 0.010101
0.020202 0.020202 0.020202
0.000000 0.000000 0.000000
0.000000 0.000000 0.000000
0.010101 0.010101 0.010101
0.000000 0.000000 0.000000
0.000000 0.000000 0.000000
1.000000 1.000000 1.000000
1.000000 1.000000 1.000000
1.000000 1.000000 1.000000
0.989899 0.989899 0.989899
0.929293 0.929293 0.929293
0.838384 0.838384 0.838384
0.717172 0.717172 0.717172
0.555556 0.555556 0.555556
0.232323 0.232323 0.232323
0.000000 0.000000 0.000000
0.000000 0.000000 0.000000
0.000000 0.000000 0.000000
0.000000 0.000000 0.000000
0.010101 0.010101 0.010101
0.000000 0.000000 0.000000
0.000000 0.000000 0.000000
1.000000 1.000000 1.000000
1.000000 1.000000 1.000000
1.000000 1.000000 1.000000
1.000000 1.000000 1.000000
0.969697 0.969697 0.969697
0.898990 0.898990 0.898990
0.828283 0.828283 0.828283
0.696970 0.696970 0.696970
0.505050 0.505050 0.505050
0.222222 0.222222 0.222222
0.010101 0.010101 0.010101
0.010101 0.010101 0.010101
0.010101 0.010101 0.010101
0.000000 0.000000 0.000000
0.000000 0.000000 0.000000
0.000000 0.000000 0.000000
1.000000 1.000000 1.000000
1.000000 1.000000 1.000000
1.000000 1.000000 1.000000
1.000000 1.000000 1.000000
0.979798 0.979798 0.979798
0.939394 0.939394 0.939394
0.878788 0.878788 0.878788
0.787879 0.787879 0.787879
0.656566 0.656566 0.656566
0.484848 0.484848 0.484848
0.232323 0.232323 0.232323
0.010101 0.010101 0.010101
0.000000 0.000000 0.000000
0.000000 0.000000 0.000000
0.000000 0.000000 0.000000
0.000000 0.000000 0.000000
0.989899 0.989899 0.989899
0.989899 0.989899 0.989899
0.979798 0.979798 0.979798
0.969697 0.969697 0.969697
0.959596 0.959596 0.959596
0.939394 0.939394 0.939394
0.898990 0.898990 0.898990
0.848485 0.848485 0.848485
0.747475 0.747475 0.747475
0.626263 0.626263 0.626263
0.464646 0.464646 0.464646
0.212121 0.212121 0.212121
0.000000 0.000000 0.000000
0.010101 0.010101 0.010101
0.000000 0.000000 0.000000
0.000000 0.000000 0.000000
0.878788 0.878788 0.878788
0.878788 0.878788 0.878788
0.868687 0.868687 0.868687
0.858586 0.858586 0.858586
0.848485 0.848485 0.848485
0.828283 0.828283 0.828283
0.808081 0.808081 0.808081
0.777778 0.777778 0.777778
0.737374 0.737374 0.737374
0.696970 0.696970 0.696970
0.616162 0.616162 0.616162
0.464646 0.464646 0.464646
0.202020 0.202020 0.202020
0.020202 0.020202 0.020202
0.000000 0.000000 0.000000
0.000000 0.000000 0.000000
0.767677 0.767677 0.767677
0.757576 0.757576 0.757576
0.757576 0.757576 0.757576
0.747475 0.747475 0.747475
0.727273 0.727273 0.727273
0.707071 0.707071 0.707071
0.686869 0.686869 0.686869
0.656566 0.656566 0.656566
0.616162 0.616162 0.616162
0.575758 0.575758 0.575758
0.525253 0.525253 0.525253
0.464646 0.464646 0.464646
0.404040 0.404040 0.404040
0.202020 0.202020 0.202020
0.010101 0.010101 0.010101
0.000000 0.000000 0.000000
0.626263 0.626263 0.626263
0.626263 0.626263 0.626263
0.616162 0.616162 0.616162
0.606061 0.606061 0.606061
0.595960 0.595960 0.595960
0.575758 0.575758 0.575758
0.555556 0.555556 0.555556
0.525253 0.525253 0.525253
0.484848 0.484848 0.484848
0.444444 0.444444 0.444444
0.393939 0.393939 0.393939
0.333333 0.333333 0.333333
0.272727 0.272727 0.272727
0.202020 0.202020 0.202020
0.121212 0.121212 0.121212
0.000000 0.000000 0.000000
0.484848 0.484848 0.484848
0.484848 0.484848 0.484848
0.474747 0.474747 0.474747
0.464646 0.464646 0.464646
0.454545 0.454545 0.454545
0.434343 0.434343 0.434343
0.404040 0.404040 0.404040
0.373737 0.373737 0.373737
0.333333 0.333333 0.333333
0.292929 0.292929 0.292929
0.242424 0.242424 0.242424
0.191919 0.191919 0.191919
0.131313 0.131313 0.131313
0.060606 0.060606 0.060606
0.000000 0.000000 0.000000
0.000000 0.000000 0.000000
1.000000 1.000000 1.000000
0.989899 0.989899 0.989899
0.313131 0.313131 0.313131
0.090909 0.090909 0.090909
0.000000 0.000000 0.000000
0.050505 0.050505 0.050505
0.060606 0.060606 0.060606
0.040404 0.040404 0.040404
0.020202 0.020202 0.020202
0.000000 0.000000 0.000000
0.000000 0.000000 0.000000
0.000000 0.000000 0.000000
0.000000 0.000000 0.000000
0.000000 0.000000 0.000000
0.000000 0.000000 0.000000
0.000000 0.000000 0.000000
1.000000 1.000000 1.000000
0.747475 0.747475 0.747475
0.333333 0.333333 0.333333
0.111111 0.111111 0.111111
0.262626 0.262626 0.262626
0.212121 0.212121 0.212121
0.030303 0.030303 0.030303
0.262626 0.262626 0.262626
0.020202 0.020202 0.020202
0.000000 0.000000 0.000000
0.020202 0.020202 0.020202
0.000000 0.000000 0.000000
0.000000 0.000000 0.000000
0.000000 0.000000 0.000000
0.000000 0.000000 0.000000
0.000000 0.000000 0.000000
1.000000 1.000000 1.000000
1.000000 1.000000 1.000000
0.656566 0.656566 0.656566
0.383838 0.383838 0.383838
0.303030 0.303030 0.303030
0.161616 0.161616 0.161616
0.121212 0.121212 0.121212
0.121212 0.121212 0.121212
0.010101 0.010101 0.010101
0.020202 0.020202 0.020202
0.000000 0.000000 0.000000
0.010101 0.010101 0.010101
0.000000 0.000000 0.000000
0.000000 0.000000 0.000000
0.000000 0.000000 0.000000
0.000000 0.000000 0.000000
1.000000 1.000000 1.000000
0.989899 0.989899 0.989899
1.000000 1.000000 1.000000
0.737374 0.737374 0.737374
0.292929 0.292929 0.292929
0.363636 0.363636 0.363636
0.111111 0.111111 0.111111
0.202020 0.202020 0.202020
0.131313 0.131313 0.131313
0.020202 0.020202 0.020202
0.000000 0.000000 0.000000
0.010101 0.010101 0.010101
0.010101 0.010101 0.010101
0.000000 0.000000 0.000000
0.000000 0.000000 0.000000
0.000000 0.000000 0.000000
1.000000 1.000000 1.000000
1.000000 1.000000 1.000000
1.000000 1.000000 1.000000
0.898990 0.898990 0.898990
0.595960 0.595960 0.595960
0.161616 0.161616 0.161616
0.363636 0.363636 0.363636
0.202020 0.202020 0.202020
0.171717 0.171717 0.171717
0.020202 0.020202 0.020202
0.020202 0.020202 0.020202
0.000000 0.000000 0.000000
0.000000 0.000000 0.000000
0.000000 0.000000 0.000000
0.000000 0.000000 0.000000
0.000000 0.000000 0.000000
1.000000 1.000000 1.000000
1.000000 1.000000 1.000000
0.989899 0.989899 0.989899
0.939394 0.939394 0.939394
0.797980 0.797980 0.797980
0.505050 0.505050 0.505050
0.353535 0.353535 0.353535
0.101010 0.101010 0.101010
0.050505 0.050505 0.050505
0.040404 0.040404 0.040404
0.010101 0.010101 0.010101
0.010101 0.010101 0.010101
0.010101 0.010101 0.010101
0.000000 0.000000 0.000000
0.000000 0.000000 0.000000
0.000000 0.000000 0.000000
1.000000 1.000000 1.000000
1.000000 1.000000 1.000000
1.000000 1.000000 1.000000
0.979798 0.979798 0.979798
0.868687 0.868687 0.868687
0.717172 0.717172 0.717172
0.474747 0.474747 0.474747
0.363636 0.363636 0.363636
0.121212 0.121212 0.121212
0.060606 0.060606 0.060606
0.030303 0.030303 0.030303
0.000000 0.000000 0.000000
0.000000 0.000000 0.000000
0.010101 0.010101 0.010101
0.000000 0.000000 0.000000
0.000000 0.000000 0.000000
1.000000 1.000000 1.000000
1.000000 1.000000 1.000000
1.000000 1.000000 1.000000
1.000000 1.000000 1.000000
0.939394 0.939394 0.939394
0.828283 0.828283 0.828283
0.666667 0.666667 0.666667
0.404040 0.404040 0.404040
0.010101 0.010101 0.010101
0.171717 0.171717 0.171717
0.070707 0.070707 0.070707
0.020202 0.020202 0.020202
0.010101 0.010101 0.010101
0.000000 0.000000 0.000000
0.000000 0.000000 0.000000
0.000000 0.000000 0.000000
1.000000 1.000000 1.000000
1.000000 1.000000 1.000000
1.000000 1.000000 1.000000
1.000000 1.000000 1.000000
0.969697 0.969697 0.969697
0.898990 0.898990 0.898990
0.797980 0.797980 0.797980
0.595960 0.595960 0.595960
0.333333 0.333333 0.333333
0.222222 0.222222 0.222222
0.080808 0.080808 0.080808
0.020202 0.020202 0.020202
0.010101 0.010101 0.010101
0.000000 0.000000 0.000000
0.000000 0.000000 0.000000
0.000000 0.000000 0.000000
1.000000 1.000000 1.000000
1.000000 1.000000 1.000000
1.000000 1.000000 1.000000
1.000000 1.000000 1.000000
0.989899 0.989899 0.989899
0.929293 0.929293 0.929293
0.858586 0.858586 0.858586
0.737374 0.737374 0.737374
0.575758 0.575758 0.575758
0.333333 0.333333 0.333333
0.020202 0.020202 0.020202
0.101010 0.101010 0.101010
0.010101 0.010101 0.010101
0.010101 0.010101 0.010101
0.000000 0.000000 0.000000
0.000000 0.000000 0.000000
1.000000 1.000000 1.000000
1.000000 1.000000 1.000000
1.000000 1.000000 1.000000
1.000000 1.000000 1.000000
1.000000 1.000000 1.000000
0.949495 0.949495 0.949495
0.898990 0.898990 0.898990
0.828283 0.828283 0.828283
0.717172 0.717172 0.717172
0.545455 0.545455 0.545455
0.323232 0.323232 0.323232
0.141414 0.141414 0.141414
0.040404 0.040404 0.040404
0.000000 0.000000 0.000000
0.000000 0.000000 0.000000
0.000000 0.000000 0.000000
0.989899 0.989899 0.989899
0.989899 0.989899 0.989899
0.979798 0.979798 0.979798
0.969697 0.969697 0.969697
0.959596 0.959596 0.959596
0.939394 0.939394 0.939394
0.909091 0.909091 0.909091
0.868687 0.868687 0.868687
0.777778 0.777778 0.777778
0.676768 0.676768 0.676768
0.505050 0.505050 0.505050
0.282828 0.282828 0.282828
0.111111 0.111111 0.111111
0.050505 0.050505 0.050505
0.010101 0.010101 0.010101
0.000000 0.000000 0.000000
0.878788 0.878788 0.878788
0.878788 0.878788 0.878788
0.868687 0.868687 0.868687
0.858586 0.858586 0.858586
0.848485 0.848485 0.848485
0.828283 0.828283 0.828283
0.797980 0.797980 0.797980
0.767677 0.767677 0.767677
0.737374 0.737374 0.737374
0.686869 0.686869 0.686869
0.626263 0.626263 0.626263
0.484848 0.484848 0.484848
0.282828 0.282828 0.282828
0.101010 0.101010 0.101010
0.020202 0.020202 0.020202
0.000000 0.000000 0.000000
0.757576 0.757576 0.757576
0.757576 0.757576 0.757576
0.747475 0.747475 0.747475
0.737374 0.737374 0.737374
0.727273 0.727273 0.727273
0.707071 0.707071 0.707071
0.686869 0.686869 0.686869
0.656566 0.656566 0.656566
0.616162 0.616162 0.616162
0.575758 0.575758 0.575758
0.525253 0.525253 0.525253
0.464646 0.464646 0.464646
0.404040 0.404040 0.404040
0.242424 0.242424 0.242424
0.101010 0.101010 0.101010
0.000000 0.000000 0.000000
0.626263 0.626263 0.626263
0.626263 0.626263 0.626263
0.616162 0.616162 0.616162
0.606061 0.606061 0.606061
0.595960 0.595960 0.595960
0.575758 0.575758 0.575758
0.545455 0.545455 0.545455
0.515152 0.515152 0.515152
0.484848 0.484848 0.484848
0.434343 0.434343 0.434343
0.393939 0.393939 0.393939
0.333333 0.333333 0.333333
0.272727 0.272727 0.272727
0.202020 0.202020 0.202020
0.121212 0.121212 0.121212
0.000000 0.000000 0.000000
0.484848 0.484848 0.484848
0.484848 0.484848 0.484848
0.474747 0.474747 0.474747
0.464646 0.464646 0.464646
0.454545 0.454545 0.454545
0.434343 0.434343 0.434343
0.404040 0.404040 0.404040
0.373737 0.373737 0.373737
0.343434 0.343434 0.343434
0.292929 0.292929 0.292929
0.242424 0.242424 0.242424
0.191919 0.191919 0.191919
0.121212 0.121212 0.121212
0.050505 0.050505 0.050505
0.000000 0.000000 0.000000
0.000000 0.000000 0.000000
1.000000 1.000000 1.000000
1.000000 1.000000 1.000000
1.000000 1.000000 1.000000
0.636364 0.636364 0.636364
0.080808 0.080808 0.080808
0.000000 0.000000 0.000000
0.020202 0.020202 0.020202
0.020202 0.020202 0.020202
0.000000 0.000000 0.000000
0.000000 0.000000 0.000000
0.000000 0.000000 0.000000
0.000000 0.000000 0.000000
0.010101 0.010101 0.010101
0.010101 0.010101 0.010101
0.000000 0.000000 0.000000
0.000000 0.000000 0.000000
1.000000 1.000000 1.000000
0.979798 0.979798 0.979798
0.878788 0.878788 0.878788
0.494949 0.494949 0.494949
0.474747 0.474747 0.474747
0.090909 0.090909 0.090909
0.373737 0.373737 0.373737
0.343434 0.343434 0.343434
0.111111 0.111111 0.111111
0.000000 0.000000 0.000000
0.000000 0.000000 0.000000
0.000000 0.000000 0.000000
0.010101 0.010101 0.010101
0.010101 0.010101 0.010101
0.000000 0.000000 0.000000
0.000000 0.000000 0.000000
0.989899 0.989899 0.989899
1.000000 1.000000 1.000000
0.414141 0.414141 0.414141
0.505050 0.505050 0.505050
0.484848 0.484848 0.484848
0.393939 0.393939 0.393939
0.383838 0.383838 0.383838
0.434343 0.434343 0.434343
0.626263 0.626263 0.626263
0.424242 0.424242 0.424242
0.444444 0.444444 0.444444
0.292929 0.292929 0.292929
0.131313 0.131313 0.131313
0.010101 0.010101 0.010101
0.000000 0.000000 0.000000
0.000000 0.000000 0.000000
1.000000 1.000000 1.000000
0.979798 0.979798 0.979798
0.989899 0.989899 0.989899
0.464646 0.464646 0.464646
0.171717 0.171717 0.171717
0.070707 0.070707 0.070707
0.474747 0.474747 0.474747
0.040404 0.040404 0.040404
0.050505 0.050505 0.050505
0.030303 0.030303 0.030303
0.494949 0.494949 0.494949
0.212121 0.212121 0.212121
0.020202 0.020202 0.020202
0.020202 0.020202 0.020202
0.000000 0.000000 0.000000
0.000000 0.000000 0.000000
1.000000 1.000000 1.000000
1.000000 1.000000 1.000000
1.000000 1.000000 1.000000
0.959596 0.959596 0.959596
0.525253 0.525253 0.525253
0.242424 0.242424 0.242424
0.373737 0.373737 0.373737
0.676768 0.676768 0.676768
0.676768 0.676768 0.676768
0.343434 0.343434 0.343434
0.464646 0.464646 0.464646
0.060606 0.060606 0.060606
0.060606 0.060606 0.060606
0.020202 0.020202 0.020202
0.000000 0.000000 0.000000
0.000000 0.000000 0.000000
1.000000 1.000000 1.000000
1.000000 1.000000 1.000000
1.000000 1.000000 1.000000
1.000000 1.000000 1.000000
0.929293 0.929293 0.929293
0.747475 0.747475 0.747475
0.262626 0.262626 0.262626
0.000000 0.000000 0.000000
0.161616 0.161616 0.161616
0.121212 0.121212 0.121212
0.464646 0.464646 0.464646
0.222222 0.222222 0.222222
0.040404 0.040404 0.040404
0.000000 0.000000 0.000000
0.000000 0.000000 0.000000
0.000000 0.000000 0.000000
1.000000 1.000000 1.000000
1.000000 1.000000 1.000000
1.000000 1.000000 1.000000
1.000000 1.000000 1.000000
0.989899 0.989899 0.989899
0.878788 0.878788 0.878788
0.484848 0.484848 0.484848
0.464646 0.464646 0.464646
0.050505 0.050505 0.050505
0.555556 0.555556 0.555556
0.353535 0.353535 0.353535
0.313131 0.313131 0.313131
0.111111 0.111111 0.111111
0.060606 0.060606 0.060606
0.000000 0.000000 0.000000
0.000000 0.000000 0.000000
1.000000 1.000000 1.000000
1.000000 1.000000 1.000000
1.000000 1.000000 1.000000
1.000000 1.000000 1.000000
1.000000 1.000000 1.000000
0.929293 0.929293 0.929293
0.808081 0.808081 0.808081
0.626263 0.626263 0.626263
0.282828 0.282828 0.282828
0.343434 0.343434 0.343434
0.020202 0.020202 0.020202
0.363636 0.363636 0.363636
0.252525 0.252525 0.252525
0.000000 0.000000 0.000000
0.000000 0.000000 0.000000
0.000000 0.000000 0.000000
1.000000 1.000000 1.000000
1.000000 1.000000 1.000000
1.000000 1.000000 1.000000
1.000000 1.000000 1.000000
1.000000 1.000000 1.000000
0.949495 0.949495 0.949495
0.858586 0.858586 0.858586
0.727273 0.727273 0.727273
0.414141 0.414141 0.414141
0.343434 0.343434 0.343434
0.010101 0.010101 0.010101
0.000000 0.000000 0.000000
0.252525 0.252525 0.252525
0.050505 0.050505 0.050505
0.000000 0.000000 0.000000
0.000000 0.000000 0.000000
1.000000 1.000000 1.000000
1.000000 1.000000 1.000000
1.000000 1.000000 1.000000
1.000000 1.000000 1.000000
1.000000 1.000000 1.000000
0.979798 0.979798 0.979798
0.909091 0.909091 0.909091
0.818182 0.818182 0.818182
0.666667 0.666667 0.666667
0.404040 0.404040 0.404040
0.444444 0.444444 0.444444
0.010101 0.010101 0.010101
0.161616 0.161616 0.161616
0.060606 0.060606 0.060606
0.000000 0.000000 0.000000
0.000000 0.000000 0.000000
1.000000 1.000000 1.000000
1.000000 1.000000 1.000000
1.000000 1.000000 1.000000
1.000000 1.000000 1.000000
1.000000 1.000000 1.000000
0.989899 0.989899 0.989899
0.939394 0.939394 0.939394
0.868687 0.868687 0.868687
0.777778 0.777778 0.777778
0.626263 0.626263 0.626263
0.434343 0.434343 0.434343
0.272727 0.272727 0.272727
0.050505 0.050505 0.050505
0.101010 0.101010 0.101010
0.000000 0.000000 0.000000
0.000000 0.000000 0.000000
0.989899 0.989899 0.989899
0.979798 0.979798 0.979798
0.979798 0.979798 0.979798
0.969697 0.969697 0.969697
0.949495 0.949495 0.949495
0.929293 0.929293 0.929293
0.909091 0.909091 0.909091
0.878788 0.878788 0.878788
0.828283 0.828283 0.828283
0.737374 0.737374 0.737374
0.585859 0.585859 0.585859
0.404040 0.404040 0.404040
0.070707 0.070707 0.070707
0.121212 0.121212 0.121212
0.040404 0.040404 0.040404
0.000000 0.000000 0.000000
0.878788 0.878788 0.878788
0.878788 0.878788 0.878788
0.868687 0.868687 0.868687
0.858586 0.858586 0.858586
0.848485 0.848485 0.848485
0.828283 0.828283 0.828283
0.797980 0.797980 0.797980
0.767677 0.767677 0.767677
0.737374 0.737374 0.737374
0.686869 0.686869 0.686869
0.636364 0.636364 0.636364
0.555556 0.555556 0.555556
0.373737 0.373737 0.373737
0.282828 0.282828 0.282828
0.070707 0.070707 0.070707
0.000000 0.000000 0.000000
0.757576 0.757576 0.757576
0.757576 0.757576 0.757576
0.747475 0.747475 0.747475
0.737374 0.737374 0.737374
0.727273 0.727273 0.727273
0.707071 0.707071 0.707071
0.676768 0.676768 0.676768
0.646465 0.646465 0.646465
0.616162 0.616162 0.616162
0.565657 0.565657 0.565657
0.515152 0.515152 0.515152
0.464646 0.464646 0.464646
0.404040 0.404040 0.404040
0.303030 0.303030 0.303030
0.121212 0.121212 0.121212
0.000000 0.000000 0.000000
0.626263 0.626263 0.626263
0.626263 0.626263 0.626263
0.616162 0.616162 0.616162
0.606061 0.606061 0.606061
0.595960 0.595960 0.595960
0.575758 0.575758 0.575758
0.545455 0.545455 0.545455
0.515152 0.515152 0.515152
0.484848 0.484848 0.484848
0.434343 0.434343 0.434343
0.393939 0.393939 0.393939
0.333333 0.333333 0.333333
0.272727 0.272727 0.272727
0.202020 0.202020 0.202020
0.121212 0.121212 0.121212
0.000000 0.000000 0.000000
0.484848 0.484848 0.484848
0.484848 0.484848 0.484848
0.474747 0.474747 0.474747
0.464646 0.464646 0.464646
0.454545 0.454545 0.454545
0.434343 0.434343 0.434343
0.404040 0.404040 0.404040
0.373737 0.373737 0.373737
0.343434 0.343434 0.343434
0.292929 0.292929 0.292929
0.242424 0.242424 0.242424
0.191919 0.191919 0.191919
0.131313 0.131313 0.131313
0.060606 0.060606 0.060606
0.000000 0.000000 0.000000
0.000000 0.000000 0.000000
1.000000 1.000000 1.000000
1.000000 1.000000 1.000000
1.000000 1.000000 1.000000
1.000000 1.000000 1.000000
0.707071 0.707071 0.707071
0.262626 0.262626 0.262626
0.010101 0.010101 0.010101
0.010101 0.010101 0.010101
0.000000 0.000000 0.000000
0.000000 0.000000 0.000000
0.020202 0.020202 0.020202
0.000000 0.000000 0.000000
0.000000 0.000000 0.000000
0.000000 0.000000 0.000000
0.000000 0.000000 0.000000
0.000000 0.000000 0.000000
1.000000 1.000000 1.000000
1.000000 1.000000 1.000000
1.000000 1.000000 1.000000
0.989899 0.989899 0.989899
0.696970 0.696970 0.696970
0.414141 0.414141 0.414141
0.434343 0.434343 0.434343
0.171717 0.171717 0.171717
0.232323 0.232323 0.232323
0.030303 0.030303 0.030303
0.040404 0.040404 0.040404
0.000000 0.000000 0.000000
0.000000 0.000000 0.000000
0.000000 0.000000 0.000000
0.000000 0.000000 0.000000
0.000000 0.000000 0.000000
1.000000 1.000000 1.000000
0.969697 0.969697 0.969697
0.959596 0.959596 0.959596
0.808081 0.808081 0.808081
0.363636 0.363636 0.363636
0.666667 0.666667 0.666667
0.525253 0.525253 0.525253
0.585859 0.585859 0.585859
0.090909 0.090909 0.090909
0.464646 0.464646 0.464646
0.262626 0.262626 0.262626
0.313131 0.313131 0.313131
0.181818 0.181818 0.181818
0.000000 0.000000 0.000000
0.000000 0.000000 0.000000
0.000000 0.000000 0.000000
1.000000 1.000000 1.000000
1.000000 1.000000 1.000000
0.949495 0.949495 0.949495
0.292929 0.292929 0.292929
0.616162 0.616162 0.616162
0.323232 0.323232 0.323232
0.535354 0.535354 0.535354
0.232323 0.232323 0.232323
0.252525 0.252525 0.252525
0.484848 0.484848 0.484848
0.313131 0.313131 0.313131
0.000000 0.000000 0.000000
0.000000 0.000000 0.000000
0.030303 0.030303 0.030303
0.000000 0.000000 0.000000
0.000000 0.000000 0.000000
1.000000 1.000000 1.000000
1.000000 1.000000 1.000000
1.000000 1.000000 1.000000
0.949495 0.949495 0.949495
0.646465 0.646465 0.646465
0.363636 0.363636 0.363636
0.010101 0.010101 0.010101
0.535354 0.535354 0.535354
0.666667 0.666667 0.666667
0.222222 0.222222 0.222222
0.171717 0.171717 0.171717
0.090909 0.090909 0.090909
0.131313 0.131313 0.131313
0.030303 0.030303 0.030303
0.000000 0.000000 0.000000
0.000000 0.000000 0.000000
1.000000 1.000000 1.000000
1.000000 1.000000 1.000000
1.000000 1.000000 1.000000
1.000000 1.000000 1.000000
1.000000 1.000000 1.000000
0.757576 0.757576 0.757576
0.454545 0.454545 0.454545
0.737374 0.737374 0.737374
0.070707 0.070707 0.070707
0.161616 0.161616 0.161616
0.232323 0.232323 0.232323
0.040404 0.040404 0.040404
0.080808 0.080808 0.080808
0.010101 0.010101 0.010101
0.000000 0.000000 0.000000
0.000000 0.000000 0.000000
1.000000 1.000000 1.000000
1.000000 1.000000 1.000000
1.000000 1.000000 1.000000
1.000000 1.000000 1.000000
1.000000 1.000000 1.000000
0.858586 0.858586 0.858586
0.989899 0.989899 0.989899
0.666667 0.666667 0.666667
0.323232 0.323232 0.323232
0.303030 0.303030 0.303030
0.070707 0.070707 0.070707
0.292929 0.292929 0.292929
0.131313 0.131313 0.131313
0.070707 0.070707 0.070707
0.000000 0.000000 0.000000
0.000000 0.000000 0.000000
1.000000 1.000000 1.000000
1.000000 1.000000 1.000000
1.000000 1.000000 1.000000
1.000000 1.000000 1.000000
1.000000 1.000000 1.000000
1.000000 1.000000 1.000000
1.000000 1.000000 1.000000
