tests/cmyk_1.cube
LUT_3D_SIZE 16
DOMAIN_MIN 0 0 0
DOMAIN_MAX 1 1 1
0.925490 0.000000 0.549020
0.925490 0.000000 0.549020
0.938066 0.438690 0.651101
0.925490 0.000000 0.549020
0.926283 0.100503 0.556113
0.925490 0.000000 0.549020
0.925490 0.000000 0.549020
0.925490 0.000000 0.549020
0.925490 0.000000 0.549020
0.925490 0.000000 0.549020
0.925490 0.000000 0.549020
0.925490 0.000000 0.549020
0.925490 0.000000 0.549020
0.925490 0.000000 0.549020
0.929444 0.249071 0.583397
0.934943 0.382922 0.627566
1.000000 1.000000 1.000000
0.983354 0.889953 0.920507
0.948890 0.586512 0.725933
0.935725 0.397773 0.633556
0.931806 0.314850 0.602836
0.927865 0.190775 0.569963
0.926283 0.100503 0.556113
0.925490 0.000000 0.549020
0.925490 0.000000 0.549020
0.925490 0.000000 0.549020
0.925490 0.000000 0.549020
0.925490 0.000000 0.549020
0.925490 0.000000 0.549020
0.925490 0.000000 0.549020
0.929444 0.249071 0.583397
0.935725 0.397773 0.633556
0.998567 0.991067 0.993420
1.000000 1.000000 1.000000
1.000000 1.000000 1.000000
0.959553 0.697506 0.791870
0.943499 0.519281 0.689834
0.937287 0.425591 0.645321
0.932592 0.333453 0.609140
0.930233 0.273071 0.589968
0.928655 0.222074 0.576730
0.927075 0.152571 0.563092
0.926283 0.100503 0.556113
0.926283 0.100503 0.556113
0.925490 0.000000 0.549020
0.925490 0.000000 0.549020
0.930233 0.273071 0.589968
0.936506 0.411972 0.639473
1.000000 1.000000 1.000000
1.000000 1.000000 1.000000
1.000000 1.000000 1.000000
1.000000 1.000000 1.000000
0.969315 0.783209 0.847239
0.950423 0.603997 0.735828
0.942725 0.508742 0.684473
0.936506 0.411972 0.639473
0.933376 0.350886 0.615361
0.931020 0.294834 0.596446
0.929444 0.249071 0.583397
0.928655 0.222074 0.576730
0.927865 0.190775 0.569963
0.927075 0.152571 0.563092
0.931806 0.314850 0.602836
0.937287 0.425591 0.645321
1.000000 1.000000 1.000000
1.000000 1.000000 1.000000
1.000000 1.000000 1.000000
1.000000 1.000000 1.000000
1.000000 1.000000 1.000000
0.973778 0.818903 0.871257
0.958039 0.683060 0.782892
0.945814 0.549380 0.705599
0.940399 0.475337 0.668057
0.936506 0.411972 0.639473
0.933376 0.350886 0.615361
0.931806 0.314850 0.602836
0.930233 0.273071 0.589968
0.929444 0.249071 0.583397
0.933376 0.350886 0.615361
0.939622 0.463523 0.662467
1.000000 1.000000 1.000000
1.000000 1.000000 1.000000
1.000000 1.000000 1.000000
1.000000 1.000000 1.000000
1.000000 1.000000 1.000000
1.000000 1.000000 1.000000
0.978949 0.858122 0.898218
0.961817 0.718473 0.805093
0.950423 0.603997 0.735828
0.944271 0.529556 0.695140
0.939622 0.463523 0.662467
0.936506 0.411972 0.639473
0.934160 0.367329 0.621502
0.932592 0.333453 0.609140
0.936506 0.411972 0.639473
0.941951 0.497920 0.679058
1.000000 1.000000 1.000000
1.000000 1.000000 1.000000
1.000000 1.000000 1.000000
1.000000 1.000000 1.000000
1.000000 1.000000 1.000000
1.000000 1.000000 1.000000
1.000000 1.000000 1.000000
0.984085 0.895114 0.924153
0.964826 0.745249 0.822292
0.955002 0.652915 0.764520
0.948122 0.577514 0.720919
0.942725 0.508742 0.684473
0.938845 0.451320 0.656816
0.936506 0.411972 0.639473
0.939622 0.463523 0.662467
0.945043 0.539583 0.700395
1.000000 1.000000 1.000000
1.000000 1.000000 1.000000
1.000000 1.000000 1.000000
1.000000 1.000000 1.000000
1.000000 1.000000 1.000000
1.000000 1.000000 1.000000
1.000000 1.000000 1.000000
1.000000 1.000000 1.000000
0.984816 0.900236 0.927780
0.968569 0.777050 0.843149
0.958039 0.683060 0.782892
0.951188 0.612501 0.740711
0.945814 0.549380 0.705599
0.941951 0.497920 0.679058
0.943499 0.519281 0.689834
0.948890 0.586512 0.725933
1.000000 1.000000 1.000000
1.000000 1.000000 1.000000
1.000000 1.000000 1.000000
1.000000 1.000000 1.000000
1.000000 1.000000 1.000000
1.000000 1.000000 1.000000
1.000000 1.000000 1.000000
1.000000 1.000000 1.000000
1.000000 1.000000 1.000000
0.987732 0.920349 0.942104
0.973036 0.813096 0.867315
0.961063 0.711573 0.800717
0.953479 0.637145 0.755114
0.948890 0.586512 0.725933
0.948122 0.577514 0.720919
0.953479 0.637145 0.755114
1.000000 1.000000 1.000000
1.000000 1.000000 1.000000
1.000000 1.000000 1.000000
1.000000 1.000000 1.000000
1.000000 1.000000 1.000000
1.000000 1.000000 1.000000
1.000000 1.000000 1.000000
1.000000 1.000000 1.000000
1.000000 1.000000 1.000000
1.000000 1.000000 1.000000
0.989186 0.930192 0.949159
0.974519 0.824656 0.875176
0.964075 0.738674 0.818037
0.956522 0.668207 0.773777
0.953479 0.637145 0.755114
0.958796 0.690332 0.787398
1.000000 1.000000 1.000000
1.000000 1.000000 1.000000
1.000000 1.000000 1.000000
1.000000 1.000000 1.000000
1.000000 1.000000 1.000000
1.000000 1.000000 1.000000
1.000000 1.000000 1.000000
1.000000 1.000000 1.000000
1.000000 1.000000 1.000000
1.000000 1.000000 1.000000
1.000000 1.000000 1.000000
0.992085 0.949474 0.963066
0.976737 0.841607 0.886796
0.967074 0.764537 0.834888
0.959553 0.697506 0.791870
0.964826 0.745249 0.822292
1.000000 1.000000 1.000000
1.000000 1.000000 1.000000
1.000000 1.000000 1.000000
1.000000 1.000000 1.000000
1.000000 1.000000 1.000000
1.000000 1.000000 1.000000
1.000000 1.000000 1.000000
1.000000 1.000000 1.000000
1.000000 1.000000 1.000000
1.000000 1.000000 1.000000
1.000000 1.000000 1.000000
1.000000 1.000000 1.000000
0.992808 0.954215 0.966501
0.978949 0.858122 0.898218
0.968569 0.777050 0.843149
0.972293 0.807234 0.863349
1.000000 1.000000 1.000000
1.000000 1.000000 1.000000
1.000000 1.000000 1.000000
1.000000 1.000000 1.000000
1.000000 1.000000 1.000000
1.000000 1.000000 1.000000
1.000000 1.000000 1.000000
1.000000 1.000000 1.000000
1.000000 1.000000 1.000000
1.000000 1.000000 1.000000
1.000000 1.000000 1.000000
1.000000 1.000000 1.000000
1.000000 1.000000 1.000000
0.992808 0.954215 0.966501
0.981889 0.879511 0.913157
0.979685 0.863534 0.901984
1.000000 1.000000 1.000000
1.000000 1.000000 1.000000
1.000000 1.000000 1.000000
1.000000 1.000000 1.000000
1.000000 1.000000 1.000000
1.000000 1.000000 1.000000
1.000000 1.000000 1.000000
1.000000 1.000000 1.000000
1.000000 1.000000 1.000000
1.000000 1.000000 1.000000
1.000000 1.000000 1.000000
1.000000 1.000000 1.000000
1.000000 1.000000 1.000000
1.000000 1.000000 1.000000
0.994973 0.968252 0.976711
0.988460 0.925288 0.945640
1.000000 1.000000 1.000000
1.000000 1.000000 1.000000
1.000000 1.000000 1.000000
1.000000 1.000000 1.000000
1.000000 1.000000 1.000000
1.000000 1.000000 1.000000
1.000000 1.000000 1.000000
1.000000 1.000000 1.000000
1.000000 1.000000 1.000000
1.000000 1.000000 1.000000
1.000000 1.000000 1.000000
1.000000 1.000000 1.000000
1.000000 1.000000 1.000000
1.000000 1.000000 1.000000
1.000000 1.000000 1.000000
0.997850 0.986560 0.990108
1.000000 1.000000 1.000000
1.000000 1.000000 1.000000
1.000000 1.000000 1.000000
1.000000 1.000000 1.000000
1.000000 1.000000 1.000000
1.000000 1.000000 1.000000
1.000000 1.000000 1.000000
1.000000 1.000000 1.000000
1.000000 1.000000 1.000000
1.000000 1.000000 1.000000
1.000000 1.000000 1.000000
1.000000 1.000000 1.000000
1.000000 1.000000 1.000000
1.000000 1.000000 1.000000
1.000000 1.000000 1.000000
1.000000 1.000000 1.000000
0.932592 0.333453 0.609140
0.926283 0.100503 0.556113
0.925490 0.000000 0.549020
0.925490 0.000000 0.549020
0.925490 0.000000 0.549020
0.925490 0.000000 0.549020
0.925490 0.000000 0.549020
0.925490 0.000000 0.549020
0.925490 0.000000 0.549020
0.925490 0.000000 0.549020
0.925490 0.000000 0.549020
0.925490 0.000000 0.549020
0.925490 0.000000 0.549020
0.925490 0.000000 0.549020
0.929444 0.249071 0.583397
0.934943 0.382922 0.627566
0.987004 0.915376 0.938550
0.982621 0.884752 0.916842
0.948890 0.586512 0.725933
0.936506 0.411972 0.639473
0.930233 0.273071 0.589968
0.927865 0.190775 0.569963
0.927075 0.152571 0.563092
0.925490 0.000000 0.549020
0.925490 0.000000 0.549020
0.925490 0.000000 0.549020
0.925490 0.000000 0.549020
0.925490 0.000000 0.549020
0.925490 0.000000 0.549020
0.925490 0.000000 0.549020
0.929444 0.249071 0.583397
0.935725 0.397773 0.633556
1.000000 1.000000 1.000000
0.992808 0.954215 0.966501
0.989186 0.930192 0.949159
0.957281 0.675686 0.778352
0.941951 0.497920 0.679058
0.935725 0.397773 0.633556
0.931806 0.314850 0.602836
0.929444 0.249071 0.583397
0.928655 0.222074 0.576730
0.927075 0.152571 0.563092
0.927075 0.152571 0.563092
0.926283 0.100503 0.556113
0.925490 0.000000 0.549020
0.925490 0.000000 0.549020
0.930233 0.273071 0.589968
0.936506 0.411972 0.639473
0.997850 0.986560 0.990108
1.000000 1.000000 1.000000
0.994973 0.968252 0.976711
0.984085 0.895114 0.924153
0.965576 0.751750 0.826519
0.948122 0.577514 0.720919
0.941175 0.486793 0.673587
0.935725 0.397773 0.633556
0.932592 0.333453 0.609140
0.931020 0.294834 0.596446
0.929444 0.249071 0.583397
0.928655 0.222074 0.576730
0.927865 0.190775 0.569963
0.927075 0.152571 0.563092
0.931806 0.314850 0.602836
0.937287 0.425591 0.645321
1.000000 1.000000 1.000000
0.997850 0.986560 0.990108
0.998567 0.991067 0.993420
1.000000 1.000000 1.000000
0.991361 0.944703 0.959614
0.973036 0.813096 0.867315
0.952716 0.629068 0.750353
0.945043 0.539583 0.700395
0.939622 0.463523 0.662467
0.936506 0.411972 0.639473
0.933376 0.350886 0.615361
0.931806 0.314850 0.602836
0.930233 0.273071 0.589968
0.929444 0.249071 0.583397
0.933376 0.350886 0.615361
0.939622 0.463523 0.662467
1.000000 1.000000 1.000000
1.000000 1.000000 1.000000
1.000000 1.000000 1.000000
1.000000 1.000000 1.000000
1.000000 1.000000 1.000000
0.996413 0.977463 0.983440
0.973036 0.813096 0.867315
0.960308 0.704585 0.796310
0.950423 0.603997 0.735828
0.944271 0.529556 0.695140
0.939622 0.463523 0.662467
0.936506 0.411972 0.639473
0.934160 0.367329 0.621502
0.932592 0.333453 0.609140
0.936506 0.411972 0.639473
0.941951 0.497920 0.679058
1.000000 1.000000 1.000000
1.000000 1.000000 1.000000
1.000000 1.000000 1.000000
1.000000 1.000000 1.000000
1.000000 1.000000 1.000000
1.000000 1.000000 1.000000
0.998567 0.991067 0.993420
0.975998 0.836007 0.882945
0.964075 0.738674 0.818037
0.954241 0.645092 0.759836
0.947354 0.568333 0.715860
0.942725 0.508742 0.684473
0.939622 0.463523 0.662467
0.936506 0.411972 0.639473
0.939622 0.463523 0.662467
0.945043 0.539583 0.700395
1.000000 1.000000 1.000000
1.000000 1.000000 1.000000
1.000000 1.000000 1.000000
1.000000 1.000000 1.000000
1.000000 1.000000 1.000000
1.000000 1.000000 1.000000
1.000000 1.000000 1.000000
1.000000 1.000000 1.000000
0.984816 0.900236 0.927780
0.966325 0.758179 0.830717
0.958039 0.683060 0.782892
0.950423 0.603997 0.735828
0.945814 0.549380 0.705599
0.941951 0.497920 0.679058
0.943499 0.519281 0.689834
0.948890 0.586512 0.725933
1.000000 1.000000 1.000000
1.000000 1.000000 1.000000
1.000000 1.000000 1.000000
1.000000 1.000000 1.000000
1.000000 1.000000 1.000000
1.000000 1.000000 1.000000
1.000000 1.000000 1.000000
1.000000 1.000000 1.000000
1.000000 1.000000 1.000000
0.983354 0.889953 0.920507
0.970806 0.795340 0.855344
0.961063 0.711573 0.800717
0.954241 0.645092 0.759836
0.948122 0.577514 0.720919
0.948122 0.577514 0.720919
0.953479 0.637145 0.755114
1.000000 1.000000 1.000000
1.000000 1.000000 1.000000
1.000000 1.000000 1.000000
1.000000 1.000000 1.000000
1.000000 1.000000 1.000000
1.000000 1.000000 1.000000
1.000000 1.000000 1.000000
1.000000 1.000000 1.000000
1.000000 1.000000 1.000000
1.000000 1.000000 1.000000
0.989912 0.935062 0.952661
0.973036 0.813096 0.867315
0.964075 0.738674 0.818037
0.956522 0.668207 0.773777
0.953479 0.637145 0.755114
0.958796 0.690332 0.787398
1.000000 1.000000 1.000000
1.000000 1.000000 1.000000
1.000000 1.000000 1.000000
1.000000 1.000000 1.000000
1.000000 1.000000 1.000000
1.000000 1.000000 1.000000
1.000000 1.000000 1.000000
1.000000 1.000000 1.000000
1.000000 1.000000 1.000000
1.000000 1.000000 1.000000
1.000000 1.000000 1.000000
0.989186 0.930192 0.949159
0.976737 0.841607 0.886796
0.966325 0.758179 0.830717
0.959553 0.697506 0.791870
0.965576 0.751750 0.826519
1.000000 1.000000 1.000000
1.000000 1.000000 1.000000
1.000000 1.000000 1.000000
1.000000 1.000000 1.000000
1.000000 1.000000 1.000000
1.000000 1.000000 1.000000
1.000000 1.000000 1.000000
1.000000 1.000000 1.000000
1.000000 1.000000 1.000000
1.000000 1.000000 1.000000
1.000000 1.000000 1.000000
1.000000 1.000000 1.000000
0.991361 0.944703 0.959614
0.978213 0.852664 0.894432
0.968569 0.777050 0.843149
0.972293 0.807234 0.863349
1.000000 1.000000 1.000000
1.000000 1.000000 1.000000
1.000000 1.000000 1.000000
1.000000 1.000000 1.000000
1.000000 1.000000 1.000000
1.000000 1.000000 1.000000
1.000000 1.000000 1.000000
1.000000 1.000000 1.000000
1.000000 1.000000 1.000000
1.000000 1.000000 1.000000
1.000000 1.000000 1.000000
1.000000 1.000000 1.000000
1.000000 1.000000 1.000000
0.992085 0.949474 0.963066
0.980421 0.868903 0.905728
0.979685 0.863534 0.901984
1.000000 1.000000 1.000000
1.000000 1.000000 1.000000
1.000000 1.000000 1.000000
1.000000 1.000000 1.000000
1.000000 1.000000 1.000000
1.000000 1.000000 1.000000
1.000000 1.000000 1.000000
1.000000 1.000000 1.000000
1.000000 1.000000 1.000000
1.000000 1.000000 1.000000
1.000000 1.000000 1.000000
1.000000 1.000000 1.000000
1.000000 1.000000 1.000000
1.000000 1.000000 1.000000
0.992808 0.954215 0.966501
0.988460 0.925288 0.945640
1.000000 1.000000 1.000000
1.000000 1.000000 1.000000
1.000000 1.000000 1.000000
1.000000 1.000000 1.000000
1.000000 1.000000 1.000000
1.000000 1.000000 1.000000
1.000000 1.000000 1.000000
1.000000 1.000000 1.000000
1.000000 1.000000 1.000000
1.000000 1.000000 1.000000
1.000000 1.000000 1.000000
1.000000 1.000000 1.000000
1.000000 1.000000 1.000000
1.000000 1.000000 1.000000
1.000000 1.000000 1.000000
0.997850 0.986560 0.990108
1.000000 1.000000 1.000000
1.000000 1.000000 1.000000
1.000000 1.000000 1.000000
1.000000 1.000000 1.000000
1.000000 1.000000 1.000000
1.000000 1.000000 1.000000
1.000000 1.000000 1.000000
1.000000 1.000000 1.000000
1.000000 1.000000 1.000000
1.000000 1.000000 1.000000
1.000000 1.000000 1.000000
1.000000 1.000000 1.000000
1.000000 1.000000 1.000000
1.000000 1.000000 1.000000
1.000000 1.000000 1.000000
1.000000 1.000000 1.000000
0.992085 0.949474 0.963066
0.944271 0.529556 0.695140
0.925490 0.000000 0.549020
0.925490 0.000000 0.549020
0.925490 0.000000 0.549020
0.925490 0.000000 0.549020
0.925490 0.000000 0.549020
0.925490 0.000000 0.549020
0.925490 0.000000 0.549020
0.925490 0.000000 0.549020
0.925490 0.000000 0.549020
0.925490 0.000000 0.549020
0.925490 0.000000 0.549020
0.925490 0.000000 0.549020
0.929444 0.249071 0.583397
0.934943 0.382922 0.627566
0.970806 0.795340 0.855344
0.955002 0.652915 0.764520
0.936506 0.411972 0.639473
0.934160 0.367329 0.621502
0.929444 0.249071 0.583397
0.928655 0.222074 0.576730
0.926283 0.100503 0.556113
0.925490 0.000000 0.549020
0.925490 0.000000 0.549020
0.925490 0.000000 0.549020
0.925490 0.000000 0.549020
0.925490 0.000000 0.549020
0.925490 0.000000 0.549020
0.925490 0.000000 0.549020
0.929444 0.249071 0.583397
0.935725 0.397773 0.633556
1.000000 1.000000 1.000000
0.994973 0.968252 0.976711
0.993530 0.958924 0.969920
0.953479 0.637145 0.755114
0.940399 0.475337 0.668057
0.934943 0.382922 0.627566
0.931020 0.294834 0.596446
0.928655 0.222074 0.576730
0.926283 0.100503 0.556113
0.926283 0.100503 0.556113
0.925490 0.000000 0.549020
0.925490 0.000000 0.549020
0.925490 0.000000 0.549020
0.925490 0.000000 0.549020
0.930233 0.273071 0.589968
0.936506 0.411972 0.639473
0.999284 0.995547 0.996717
1.000000 1.000000 1.000000
0.994252 0.963603 0.973323
0.994252 0.963603 0.973323
0.966325 0.758179 0.830717
0.950423 0.603997 0.735828
0.938845 0.451320 0.656816
0.936506 0.411972 0.639473
0.933376 0.350886 0.615361
0.931020 0.294834 0.596446
0.927865 0.190775 0.569963
0.927865 0.190775 0.569963
0.927865 0.190775 0.569963
0.927075 0.152571 0.563092
0.931806 0.314850 0.602836
0.937287 0.425591 0.645321
1.000000 1.000000 1.000000
0.999284 0.995547 0.996717
1.000000 1.000000 1.000000
0.997850 0.986560 0.990108
0.992085 0.949474 0.963066
0.970806 0.795340 0.855344
0.952716 0.629068 0.750353
0.940399 0.475337 0.668057
0.935725 0.397773 0.633556
0.934943 0.382922 0.627566
0.931806 0.314850 0.602836
0.931806 0.314850 0.602836
0.930233 0.273071 0.589968
0.929444 0.249071 0.583397
0.933376 0.350886 0.615361
0.939622 0.463523 0.662467
1.000000 1.000000 1.000000
1.000000 1.000000 1.000000
1.000000 1.000000 1.000000
1.000000 1.000000 1.000000
0.997850 0.986560 0.990108
0.981155 0.874228 0.909453
0.974519 0.824656 0.875176
0.961063 0.711573 0.800717
0.949657 0.595337 0.730902
0.943499 0.519281 0.689834
0.937287 0.425591 0.645321
0.935725 0.397773 0.633556
0.934160 0.367329 0.621502
0.932592 0.333453 0.609140
0.936506 0.411972 0.639473
0.941951 0.497920 0.679058
1.000000 1.000000 1.000000
1.000000 1.000000 1.000000
1.000000 1.000000 1.000000
1.000000 1.000000 1.000000
1.000000 1.000000 1.000000
1.000000 1.000000 1.000000
0.994973 0.968252 0.976711
0.973036 0.813096 0.867315
0.964826 0.745249 0.822292
0.948890 0.586512 0.725933
0.945043 0.539583 0.700395
0.941175 0.486793 0.673587
0.938845 0.451320 0.656816
0.936506 0.411972 0.639473
0.939622 0.463523 0.662467
0.945043 0.539583 0.700395
1.000000 1.000000 1.000000
1.000000 1.000000 1.000000
1.000000 1.000000 1.000000
1.000000 1.000000 1.000000
1.000000 1.000000 1.000000
1.000000 1.000000 1.000000
1.000000 1.000000 1.000000
0.989912 0.935062 0.952661
0.979685 0.863534 0.901984
0.964075 0.738674 0.818037
0.958039 0.683060 0.782892
0.948122 0.577514 0.720919
0.944271 0.529556 0.695140
0.941951 0.497920 0.679058
0.943499 0.519281 0.689834
0.948890 0.586512 0.725933
1.000000 1.000000 1.000000
1.000000 1.000000 1.000000
1.000000 1.000000 1.000000
1.000000 1.000000 1.000000
1.000000 1.000000 1.000000
1.000000 1.000000 1.000000
1.000000 1.000000 1.000000
1.000000 1.000000 1.000000
0.998567 0.991067 0.993420
0.980421 0.868903 0.905728
0.971550 0.801316 0.859359
0.961063 0.711573 0.800717
0.951953 0.620856 0.745552
0.948122 0.577514 0.720919
0.948122 0.577514 0.720919
0.953479 0.637145 0.755114
1.000000 1.000000 1.000000
1.000000 1.000000 1.000000
1.000000 1.000000 1.000000
1.000000 1.000000 1.000000
1.000000 1.000000 1.000000
1.000000 1.000000 1.000000
1.000000 1.000000 1.000000
1.000000 1.000000 1.000000
1.000000 1.000000 1.000000
1.000000 1.000000 1.000000
0.979685 0.863534 0.901984
0.974519 0.824656 0.875176
0.962571 0.725288 0.809438
0.956522 0.668207 0.773777
0.953479 0.637145 0.755114
0.958796 0.690332 0.787398
1.000000 1.000000 1.000000
1.000000 1.000000 1.000000
1.000000 1.000000 1.000000
1.000000 1.000000 1.000000
1.000000 1.000000 1.000000
1.000000 1.000000 1.000000
1.000000 1.000000 1.000000
1.000000 1.000000 1.000000
1.000000 1.000000 1.000000
1.000000 1.000000 1.000000
0.998567 0.991067 0.993420
0.985546 0.905320 0.931388
0.975998 0.836007 0.882945
0.965576 0.751750 0.826519
0.959553 0.697506 0.791870
0.965576 0.751750 0.826519
1.000000 1.000000 1.000000
1.000000 1.000000 1.000000
1.000000 1.000000 1.000000
1.000000 1.000000 1.000000
1.000000 1.000000 1.000000
1.000000 1.000000 1.000000
1.000000 1.000000 1.000000
1.000000 1.000000 1.000000
1.000000 1.000000 1.000000
1.000000 1.000000 1.000000
1.000000 1.000000 1.000000
0.999284 0.995547 0.996717
0.991361 0.944703 0.959614
0.977475 0.847159 0.890625
0.968569 0.777050 0.843149
0.972293 0.807234 0.863349
1.000000 1.000000 1.000000
1.000000 1.000000 1.000000
1.000000 1.000000 1.000000
1.000000 1.000000 1.000000
1.000000 1.000000 1.000000
1.000000 1.000000 1.000000
1.000000 1.000000 1.000000
1.000000 1.000000 1.000000
1.000000 1.000000 1.000000
1.000000 1.000000 1.000000
1.000000 1.000000 1.000000
1.000000 1.000000 1.000000
1.000000 1.000000 1.000000
0.987732 0.920349 0.942104
0.979685 0.863534 0.901984
0.979685 0.863534 0.901984
1.000000 1.000000 1.000000
1.000000 1.000000 1.000000
1.000000 1.000000 1.000000
1.000000 1.000000 1.000000
1.000000 1.000000 1.000000
1.000000 1.000000 1.000000
1.000000 1.000000 1.000000
1.000000 1.000000 1.000000
1.000000 1.000000 1.000000
1.000000 1.000000 1.000000
1.000000 1.000000 1.000000
1.000000 1.000000 1.000000
1.000000 1.000000 1.000000
1.000000 1.000000 1.000000
0.992085 0.949474 0.963066
0.988460 0.925288 0.945640
1.000000 1.000000 1.000000
1.000000 1.000000 1.000000
1.000000 1.000000 1.000000
1.000000 1.000000 1.000000
1.000000 1.000000 1.000000
1.000000 1.000000 1.000000
1.000000 1.000000 1.000000
1.000000 1.000000 1.000000
1.000000 1.000000 1.000000
1.000000 1.000000 1.000000
1.000000 1.000000 1.000000
1.000000 1.000000 1.000000
1.000000 1.000000 1.000000
1.000000 1.000000 1.000000
1.000000 1.000000 1.000000
0.997850 0.986560 0.990108
1.000000 1.000000 1.000000
1.000000 1.000000 1.000000
1.000000 1.000000 1.000000
1.000000 1.000000 1.000000
1.000000 1.000000 1.000000
1.000000 1.000000 1.000000
1.000000 1.000000 1.000000
1.000000 1.000000 1.000000
1.000000 1.000000 1.000000
1.000000 1.000000 1.000000
1.000000 1.000000 1.000000
1.000000 1.000000 1.000000
1.000000 1.000000 1.000000
1.000000 1.000000 1.000000
1.000000 1.000000 1.000000
1.000000 1.000000 1.000000
0.981155 0.874228 0.909453
0.985546 0.905320 0.931388
0.939622 0.463523 0.662467
0.925490 0.000000 0.549020
0.925490 0.000000 0.549020
0.925490 0.000000 0.549020
0.925490 0.000000 0.549020
0.925490 0.000000 0.549020
0.925490 0.000000 0.549020
0.925490 0.000000 0.549020
0.925490 0.000000 0.549020
0.925490 0.000000 0.549020
0.925490 0.000000 0.549020
0.925490 0.000000 0.549020
0.928655 0.222074 0.576730
0.934943 0.382922 0.627566
0.991361 0.944703 0.959614
0.975259 0.830357 0.879071
0.939622 0.463523 0.662467
0.927075 0.152571 0.563092
0.927865 0.190775 0.569963
0.927865 0.190775 0.569963
0.926283 0.100503 0.556113
0.926283 0.100503 0.556113
0.925490 0.000000 0.549020
0.925490 0.000000 0.549020
0.925490 0.000000 0.549020
0.925490 0.000000 0.549020
0.925490 0.000000 0.549020
0.925490 0.000000 0.549020
0.929444 0.249071 0.583397
0.934943 0.382922 0.627566
0.987004 0.915376 0.938550
0.975259 0.830357 0.879071
0.953479 0.637145 0.755114
0.944271 0.529556 0.695140
0.941951 0.497920 0.679058
0.932592 0.333453 0.609140
0.930233 0.273071 0.589968
0.927865 0.190775 0.569963
0.928655 0.222074 0.576730
0.926283 0.100503 0.556113
0.926283 0.100503 0.556113
0.925490 0.000000 0.549020
0.925490 0.000000 0.549020
0.925490 0.000000 0.549020
0.930233 0.273071 0.589968
0.935725 0.397773 0.633556
1.000000 1.000000 1.000000
0.996413 0.977463 0.983440
0.988460 0.925288 0.945640
0.994973 0.968252 0.976711
0.955763 0.660618 0.769167
0.948122 0.577514 0.720919
0.938066 0.438690 0.651101
0.935725 0.397773 0.633556
0.932592 0.333453 0.609140
0.929444 0.249071 0.583397
0.928655 0.222074 0.576730
0.928655 0.222074 0.576730
0.927865 0.190775 0.569963
0.927075 0.152571 0.563092
0.931806 0.314850 0.602836
0.937287 0.425591 0.645321
1.000000 1.000000 1.000000
1.000000 1.000000 1.000000
1.000000 1.000000 1.000000
0.991361 0.944703 0.959614
0.981889 0.879511 0.913157
0.967074 0.764537 0.834888
0.956522 0.668207 0.773777
0.941951 0.497920 0.679058
0.935725 0.397773 0.633556
0.935725 0.397773 0.633556
0.933376 0.350886 0.615361
0.931806 0.314850 0.602836
0.930233 0.273071 0.589968
0.929444 0.249071 0.583397
0.933376 0.350886 0.615361
0.938845 0.451320 0.656816
1.000000 1.000000 1.000000
1.000000 1.000000 1.000000
1.000000 1.000000 1.000000
1.000000 1.000000 1.000000
0.981889 0.879511 0.913157
0.978949 0.858122 0.898218
0.969315 0.783209 0.847239
0.949657 0.595337 0.730902
0.950423 0.603997 0.735828
0.943499 0.519281 0.689834
0.938845 0.451320 0.656816
0.936506 0.411972 0.639473
0.934160 0.367329 0.621502
0.932592 0.333453 0.609140
0.935725 0.397773 0.633556
0.941951 0.497920 0.679058
1.000000 1.000000 1.000000
1.000000 1.000000 1.000000
1.000000 1.000000 1.000000
1.000000 1.000000 1.000000
1.000000 1.000000 1.000000
1.000000 1.000000 1.000000
0.964075 0.738674 0.818037
0.966325 0.758179 0.830717
0.961063 0.711573 0.800717
0.951953 0.620856 0.745552
0.947354 0.568333 0.715860
0.941175 0.486793 0.673587
0.938845 0.451320 0.656816
0.936506 0.411972 0.639473
0.939622 0.463523 0.662467
0.945043 0.539583 0.700395
1.000000 1.000000 1.000000
1.000000 1.000000 1.000000
1.000000 1.000000 1.000000
1.000000 1.000000 1.000000
1.000000 1.000000 1.000000
1.000000 1.000000 1.000000
0.979685 0.863534 0.901984
