tests/cmyk.cube
LUT_3D_SIZE 6
DOMAIN_MIN 0 0 0
DOMAIN_MAX 1 1 1
0.037627 0.003683 0.040058
0.197172 0.006091 0.010269
0.391365 0.032514 0.039484
0.590473 0.074263 0.081670
0.787054 0.115000 0.123304
0.885884 0.383218 0.130316
0.122535 0.167061 0.047412
0.205655 0.195846 0.010558
0.395633 0.202964 0.029052
0.597601 0.198150 0.077570
0.795404 0.203163 0.121941
0.890144 0.420700 0.127626
0.254356 0.347162 0.133700
0.289899 0.363871 0.128031
0.409656 0.393629 0.024224
0.598322 0.400418 0.053287
0.800319 0.394658 0.108133
0.904157 0.522995 0.118231
0.390940 0.526530 0.217706
0.399184 0.537337 0.222769
0.483303 0.558376 0.187381
0.610781 0.592787 0.063669
0.798976 0.599516 0.072779
0.928682 0.661069 0.099238
0.574094 0.684163 0.251953
0.588671 0.691793 0.248993
0.623231 0.710406 0.241411
0.691669 0.749269 0.223693
0.814552 0.789995 0.092710
0.965213 0.821680 0.060548
0.802341 0.816940 0.184583
0.811871 0.823009 0.180372
0.839618 0.840872 0.167057
0.887574 0.872386 0.139210
0.951655 0.916239 0.140801
1.000000 0.951682 0.249071
0.028756 0.104736 0.167178
0.183339 0.049942 0.198864
0.399714 0.005322 0.200252
0.594384 0.057861 0.198817
0.791959 0.108347 0.195917
0.889470 0.383197 0.218505
0.085363 0.185857 0.200561
0.200302 0.199643 0.200031
0.400171 0.200157 0.199915
0.599631 0.201098 0.200065
0.800153 0.200393 0.201262
0.893586 0.421048 0.221644
0.248227 0.355528 0.206183
0.268008 0.378088 0.205187
0.399382 0.400348 0.200162
0.599951 0.400069 0.200073
0.800219 0.400693 0.199214
0.906281 0.523849 0.206238
0.396459 0.533765 0.221096
0.407223 0.547874 0.227706
0.438777 0.581890 0.240585
0.599263 0.600046 0.201030
0.800310 0.599969 0.201484
0.929924 0.662284 0.199817
0.574094 0.684163 0.251953
0.588671 0.691793 0.248993
0.629852 0.714053 0.239861
0.697465 0.752674 0.222003
0.799838 0.800199 0.200218
0.965804 0.823426 0.211271
0.800137 0.818965 0.282941
0.809791 0.825037 0.280706
0.837888 0.842913 0.273874
0.882143 0.871645 0.262024
0.951298 0.917814 0.240317
1.000000 0.953274 0.314850
0.018863 0.238060 0.341313
0.153918 0.226427 0.355410
0.370601 0.130869 0.395339
0.593485 0.066705 0.398462
0.798025 0.051717 0.398752
0.903305 0.353692 0.413063
0.011208 0.262316 0.372930
0.188883 0.239849 0.384260
0.399330 0.200195 0.399942
0.600298 0.199961 0.399951
0.799184 0.200943 0.400032
0.905803 0.396788 0.415165
0.185458 0.373246 0.401544
0.219004 0.396199 0.399314
0.400750 0.399841 0.399429
0.600191 0.399820 0.399606
0.799637 0.400673 0.399201
0.914413 0.509106 0.411095
0.364955 0.544446 0.404640
0.376988 0.558183 0.407302
0.414068 0.596302 0.400116
0.600683 0.599385 0.399383
0.800346 0.599533 0.399572
0.934279 0.660879 0.403975
0.563127 0.693871 0.425810
0.570868 0.697675 0.425342
0.614742 0.719953 0.422519
0.687075 0.758126 0.405225
0.800489 0.799150 0.399898
0.966387 0.823532 0.397309
0.788971 0.821434 0.444153
0.799056 0.827548 0.443414
0.828354 0.845542 0.441188
0.879101 0.876773 0.424705
0.946123 0.920400 0.417974
1.000000 0.958030 0.451320
0.006880 0.367612 0.514040
0.033332 0.373706 0.524107
0.365825 0.315004 0.549966
0.510974 0.301392 0.576817
0.765564 0.262347 0.568965
0.931806 0.314850 0.602836
0.006694 0.380670 0.531590
0.093044 0.384270 0.543849
0.377042 0.324916 0.566148
0.545046 0.314966 0.585358
0.774264 0.295862 0.582693
0.931903 0.351027 0.607223
0.006042 0.422562 0.587900
0.195875 0.408846 0.594438
0.401165 0.398796 0.600070
0.600085 0.399330 0.599405
0.799061 0.401247 0.600425
0.931682 0.494903 0.601734
0.293803 0.564405 0.600575
0.310315 0.577382 0.600201
0.399707 0.600288 0.599654
0.599648 0.599895 0.600310
0.800675 0.599963 0.599342
0.942174 0.649369 0.603652
0.527419 0.704487 0.614836
0.546476 0.711599 0.607932
0.594785 0.733764 0.608260
0.666654 0.768395 0.601396
0.800722 0.799213 0.600129
0.967930 0.823210 0.596062
0.777379 0.831362 0.624911
0.788128 0.837496 0.625081
0.814194 0.852578 0.625507
0.868311 0.884077 0.618694
0.939469 0.927549 0.611688
1.000000 0.967451 0.629068
0.004648 0.498301 0.689730
0.004554 0.502849 0.695846
0.312834 0.477531 0.712795
0.344140 0.496299 0.745877
0.543073 0.536132 0.748215
0.826850 0.556757 0.719888
0.004462 0.507346 0.701892
0.004369 0.511793 0.707873
0.324517 0.485909 0.726775
0.334566 0.509213 0.758439
0.573796 0.545688 0.750477
0.848402 0.564720 0.722490
0.003811 0.537508 0.742452
0.003719 0.541644 0.748014
0.331300 0.513427 0.762567
0.403275 0.543654 0.778319
0.648021 0.581937 0.765291
0.887079 0.602454 0.741586
0.101937 0.596622 0.801051
0.204574 0.599174 0.800204
0.398163 0.600659 0.800379
0.586668 0.607898 0.798059
0.757511 0.640936 0.788682
0.952764 0.666566 0.773257
0.478236 0.723849 0.805720
0.499308 0.731407 0.806589
0.549074 0.749405 0.803765
0.632822 0.784180 0.802880
0.800598 0.799403 0.799683
0.971231 0.817720 0.801227
0.752944 0.843345 0.815532
0.764900 0.849540 0.816364
0.794271 0.864291 0.813124
0.848426 0.893251 0.811732
0.921763 0.934158 0.806367
1.000000 0.981357 0.813096
0.001579 0.627503 0.863483
0.001488 0.630901 0.868053
0.193521 0.630299 0.881783
0.135668 0.655461 0.908445
0.000000 0.682353 0.937255
0.503833 0.747791 0.935014
0.001394 0.634276 0.872591
0.001301 0.637627 0.877099
0.174208 0.639884 0.891904
0.116711 0.661559 0.914951
0.100502 0.686565 0.937917
0.535494 0.754878 0.933688
0.000743 0.657278 0.903528
0.000650 0.660480 0.907835
0.094250 0.667586 0.921396
0.000000 0.682353 0.937255
0.350886 0.723054 0.943845
0.615882 0.785331 0.939416
0.000000 0.682353 0.937255
0.000000 0.682353 0.937255
0.152571 0.690743 0.938578
0.367329 0.726962 0.944501
0.539583 0.779039 0.953618
0.725906 0.832905 0.948862
0.463523 0.753588 0.949074
0.486793 0.760973 0.950375
0.539583 0.779039 0.953618
0.620856 0.810245 0.959418
0.725288 0.855871 0.968350
0.862145 0.908016 0.969728
0.745249 0.865240 0.970249
0.751750 0.868334 0.970882
0.783209 0.883588 0.974034
0.836007 0.910204 0.979675
0.910366 0.949675 0.988366
1.000000 1.000000 1.000000
