tests/cmyk_2.cube
LUT_3D_SIZE 6
DOMAIN_MIN 0 0 0
DOMAIN_MAX 1 1 1
1.000000 1.000000 1.000000
1.000000 0.949020 0.000000
1.000000 0.949020 0.000000
1.000000 0.949020 0.000000
1.000000 0.949020 0.000000
1.000000 0.949020 0.000000
1.000000 0.949020 0.000000
1.000000 0.949020 0.000000
1.000000 0.949020 0.000000
1.000000 0.949020 0.000000
1.000000 0.949020 0.000000
1.000000 0.949020 0.000000
1.000000 0.949020 0.000000
1.000000 0.949020 0.000000
1.000000 0.949020 0.000000
1.000000 0.949020 0.000000
1.000000 0.949020 0.000000
1.000000 0.949020 0.000000
1.000000 0.949020 0.000000
1.000000 0.949020 0.000000
1.000000 0.949020 0.000000
1.000000 0.949020 0.000000
1.000000 0.949020 0.000000
1.000000 0.949020 0.000000
1.000000 0.949020 0.000000
1.000000 0.949020 0.000000
1.000000 0.949020 0.000000
1.000000 0.949020 0.000000
1.000000 0.949020 0.000000
1.000000 0.949020 0.000000
1.000000 0.949020 0.000000
1.000000 0.949020 0.000000
1.000000 0.949020 0.000000
1.000000 0.949020 0.000000
1.000000 0.949553 0.100503
1.000000 0.951682 0.249071
1.000000 1.000000 1.000000
1.000000 0.999502 0.995547
1.000000 0.987960 0.884752
1.000000 0.962232 0.539583
1.000000 0.953804 0.333453
1.000000 0.952744 0.294834
1.000000 0.974179 0.725288
1.000000 0.990988 0.915376
1.000000 0.964324 0.577514
1.000000 0.955392 0.382922
1.000000 0.953804 0.333453
1.000000 0.952744 0.294834
1.000000 0.953274 0.314850
1.000000 0.952213 0.273071
1.000000 0.950086 0.152571
1.000000 0.954334 0.350886
1.000000 0.952213 0.273071
1.000000 0.951682 0.249071
1.000000 0.949020 0.000000
1.000000 0.949020 0.000000
1.000000 0.949020 0.000000
1.000000 0.951150 0.222074
1.000000 0.951682 0.249071
1.000000 0.951150 0.222074
1.000000 0.949020 0.000000
1.000000 0.949020 0.000000
1.000000 0.949020 0.000000
1.000000 0.949020 0.000000
1.000000 0.949553 0.100503
1.000000 0.951150 0.222074
1.000000 0.951150 0.222074
1.000000 0.951150 0.222074
1.000000 0.951150 0.222074
1.000000 0.951150 0.222074
1.000000 0.951150 0.222074
1.000000 0.953274 0.314850
1.000000 1.000000 1.000000
1.000000 1.000000 1.000000
1.000000 1.000000 1.000000
1.000000 1.000000 1.000000
1.000000 0.982377 0.824656
1.000000 0.969527 0.660618
1.000000 1.000000 1.000000
1.000000 1.000000 1.000000
1.000000 0.984920 0.852664
1.000000 0.984920 0.852664
1.000000 0.974694 0.732021
1.000000 0.968490 0.645092
1.000000 0.974694 0.732021
1.000000 0.970564 0.675686
1.000000 0.984412 0.847159
1.000000 0.982886 0.830357
1.000000 0.970564 0.675686
1.000000 0.964846 0.586512
1.000000 0.958030 0.451320
1.000000 0.957503 0.438690
1.000000 0.955392 0.382922
1.000000 0.957503 0.438690
1.000000 0.962232 0.539583
1.000000 0.960659 0.508742
1.000000 0.955392 0.382922
1.000000 0.955392 0.382922
1.000000 0.955392 0.382922
1.000000 0.954863 0.367329
1.000000 0.956976 0.425591
1.000000 0.957503 0.438690
1.000000 0.956976 0.425591
1.000000 0.956976 0.425591
1.000000 0.956976 0.425591
1.000000 0.956448 0.411972
1.000000 0.956448 0.411972
1.000000 0.958030 0.451320
1.000000 1.000000 1.000000
1.000000 1.000000 1.000000
1.000000 1.000000 1.000000
1.000000 1.000000 1.000000
1.000000 1.000000 1.000000
1.000000 1.000000 1.000000
1.000000 1.000000 1.000000
1.000000 1.000000 1.000000
1.000000 1.000000 1.000000
1.000000 1.000000 1.000000
1.000000 1.000000 1.000000
1.000000 0.998506 0.986560
1.000000 1.000000 1.000000
1.000000 1.000000 1.000000
1.000000 0.994506 0.949475
1.000000 0.995007 0.954215
1.000000 0.998506 0.986560
1.000000 0.987960 0.884752
1.000000 0.974179 0.725288
1.000000 0.972632 0.704585
1.000000 0.969527 0.660618
1.000000 0.999502 0.995547
1.000000 0.984920 0.852664
1.000000 0.978801 0.783209
1.000000 0.966930 0.620856
1.000000 0.966410 0.612501
1.000000 0.966410 0.612501
1.000000 0.965889 0.603997
1.000000 0.972115 0.697506
1.000000 0.970046 0.668207
1.000000 0.967451 0.629068
1.000000 0.967451 0.629068
1.000000 0.967451 0.629068
1.000000 0.966930 0.620856
1.000000 0.966410 0.612501
1.000000 0.967451 0.629068
1.000000 1.000000 1.000000
1.000000 1.000000 1.000000
1.000000 1.000000 1.000000
1.000000 1.000000 1.000000
1.000000 1.000000 1.000000
1.000000 1.000000 1.000000
1.000000 1.000000 1.000000
1.000000 1.000000 1.000000
1.000000 1.000000 1.000000
1.000000 1.000000 1.000000
1.000000 1.000000 1.000000
1.000000 1.000000 1.000000
1.000000 1.000000 1.000000
1.000000 1.000000 1.000000
1.000000 1.000000 1.000000
1.000000 1.000000 1.000000
1.000000 1.000000 1.000000
1.000000 1.000000 1.000000
1.000000 0.996508 0.968252
1.000000 0.998506 0.986560
1.000000 0.998007 0.982025
1.000000 1.000000 1.000000
1.000000 1.000000 1.000000
1.000000 1.000000 1.000000
1.000000 0.983904 0.841607
1.000000 0.983904 0.841607
1.000000 0.983395 0.836007
1.000000 0.982886 0.830357
1.000000 0.986948 0.874228
1.000000 0.990988 0.915376
1.000000 0.983395 0.836007
1.000000 0.983395 0.836007
1.000000 0.982886 0.830357
1.000000 0.982377 0.824656
1.000000 0.981357 0.813096
1.000000 0.981357 0.813096
1.000000 1.000000 1.000000
1.000000 1.000000 1.000000
1.000000 1.000000 1.000000
1.000000 1.000000 1.000000
1.000000 1.000000 1.000000
1.000000 1.000000 1.000000
1.000000 1.000000 1.000000
1.000000 1.000000 1.000000
1.000000 1.000000 1.000000
1.000000 1.000000 1.000000
1.000000 1.000000 1.000000
1.000000 1.000000 1.000000
1.000000 1.000000 1.000000
1.000000 1.000000 1.000000
1.000000 1.000000 1.000000
1.000000 1.000000 1.000000
1.000000 1.000000 1.000000
1.000000 1.000000 1.000000
1.000000 1.000000 1.000000
1.000000 1.000000 1.000000
1.000000 1.000000 1.000000
1.000000 1.000000 1.000000
1.000000 1.000000 1.000000
1.000000 1.000000 1.000000
1.000000 1.000000 1.000000
1.000000 1.000000 1.000000
1.000000 1.000000 1.000000
1.000000 1.000000 1.000000
1.000000 1.000000 1.000000
1.000000 1.000000 1.000000
1.000000 1.000000 1.000000
1.000000 1.000000 1.000000
1.000000 1.000000 1.000000
1.000000 1.000000 1.000000
1.000000 1.000000 1.000000
1.000000 1.000000 1.000000
