tests/cmyk_2.cube
LUT_3D_SIZE 16
DOMAIN_MIN 0 0 0
DOMAIN_MAX 1 1 1
1.000000 1.000000 1.000000
1.000000 0.982377 0.824656
1.000000 0.949020 0.000000
1.000000 0.949020 0.000000
1.000000 0.949020 0.000000
1.000000 0.949020 0.000000
1.000000 0.949020 0.000000
1.000000 0.949020 0.000000
1.000000 0.949020 0.000000
1.000000 0.949020 0.000000
1.000000 0.949020 0.000000
1.000000 0.949020 0.000000
1.000000 0.949020 0.000000
1.000000 0.949020 0.000000
1.000000 0.949020 0.000000
1.000000 0.949020 0.000000
1.000000 0.949020 0.000000
1.000000 0.949020 0.000000
1.000000 0.949020 0.000000
1.000000 0.949020 0.000000
1.000000 0.949020 0.000000
1.000000 0.949020 0.000000
1.000000 0.949020 0.000000
1.000000 0.949020 0.000000
1.000000 0.949020 0.000000
1.000000 0.949020 0.000000
1.000000 0.949020 0.000000
1.000000 0.949020 0.000000
1.000000 0.949020 0.000000
1.000000 0.949020 0.000000
1.000000 0.949020 0.000000
1.000000 0.949020 0.000000
1.000000 0.949020 0.000000
1.000000 0.949020 0.000000
1.000000 0.949020 0.000000
1.000000 0.949020 0.000000
1.000000 0.949020 0.000000
1.000000 0.949020 0.000000
1.000000 0.949020 0.000000
1.000000 0.949020 0.000000
1.000000 0.949020 0.000000
1.000000 0.949020 0.000000
1.000000 0.949020 0.000000
1.000000 0.949020 0.000000
1.000000 0.949020 0.000000
1.000000 0.949020 0.000000
1.000000 0.949020 0.000000
1.000000 0.949020 0.000000
1.000000 0.949020 0.000000
1.000000 0.949020 0.000000
1.000000 0.949020 0.000000
1.000000 0.949020 0.000000
1.000000 0.949020 0.000000
1.000000 0.949020 0.000000
1.000000 0.949020 0.000000
1.000000 0.949020 0.000000
1.000000 0.949020 0.000000
1.000000 0.949020 0.000000
1.000000 0.949020 0.000000
1.000000 0.949020 0.000000
1.000000 0.949020 0.000000
1.000000 0.949020 0.000000
1.000000 0.949020 0.000000
1.000000 0.949020 0.000000
1.000000 0.949020 0.000000
1.000000 0.949020 0.000000
1.000000 0.949020 0.000000
1.000000 0.949020 0.000000
1.000000 0.949020 0.000000
1.000000 0.949020 0.000000
1.000000 0.949020 0.000000
1.000000 0.949020 0.000000
1.000000 0.949020 0.000000
1.000000 0.949020 0.000000
1.000000 0.949020 0.000000
1.000000 0.949020 0.000000
1.000000 0.949020 0.000000
1.000000 0.949020 0.000000
1.000000 0.949020 0.000000
1.000000 0.949020 0.000000
1.000000 0.949020 0.000000
1.000000 0.949020 0.000000
1.000000 0.949020 0.000000
1.000000 0.949020 0.000000
1.000000 0.949020 0.000000
1.000000 0.949020 0.000000
1.000000 0.949020 0.000000
1.000000 0.949020 0.000000
1.000000 0.949020 0.000000
1.000000 0.949020 0.000000
1.000000 0.949020 0.000000
1.000000 0.949020 0.000000
1.000000 0.949020 0.000000
1.000000 0.949020 0.000000
1.000000 0.949020 0.000000
1.000000 0.949020 0.000000
1.000000 0.949020 0.000000
1.000000 0.949020 0.000000
1.000000 0.949020 0.000000
1.000000 0.949020 0.000000
1.000000 0.949020 0.000000
1.000000 0.949020 0.000000
1.000000 0.949020 0.000000
1.000000 0.949020 0.000000
1.000000 0.949020 0.000000
1.000000 0.949020 0.000000
1.000000 0.949020 0.000000
1.000000 0.949020 0.000000
1.000000 0.949020 0.000000
1.000000 0.949020 0.000000
1.000000 0.949020 0.000000
1.000000 0.949020 0.000000
1.000000 0.949020 0.000000
1.000000 0.949020 0.000000
1.000000 0.949020 0.000000
1.000000 0.949020 0.000000
1.000000 0.949020 0.000000
1.000000 0.949020 0.000000
1.000000 0.949020 0.000000
1.000000 0.949020 0.000000
1.000000 0.949020 0.000000
1.000000 0.949020 0.000000
1.000000 0.949020 0.000000
1.000000 0.949020 0.000000
1.000000 0.949020 0.000000
1.000000 0.949020 0.000000
1.000000 0.949020 0.000000
1.000000 0.949020 0.000000
1.000000 0.949020 0.000000
1.000000 0.949020 0.000000
1.000000 0.949020 0.000000
1.000000 0.949020 0.000000
1.000000 0.949020 0.000000
1.000000 0.949020 0.000000
1.000000 0.949020 0.000000
1.000000 0.949020 0.000000
1.000000 0.949020 0.000000
1.000000 0.949020 0.000000
1.000000 0.949020 0.000000
1.000000 0.949020 0.000000
1.000000 0.949020 0.000000
1.000000 0.949020 0.000000
1.000000 0.949020 0.000000
1.000000 0.949020 0.000000
1.000000 0.949020 0.000000
1.000000 0.949020 0.000000
1.000000 0.949020 0.000000
1.000000 0.949020 0.000000
1.000000 0.949020 0.000000
1.000000 0.949020 0.000000
1.000000 0.949020 0.000000
1.000000 0.949020 0.000000
1.000000 0.949020 0.000000
1.000000 0.949020 0.000000
1.000000 0.949020 0.000000
1.000000 0.949020 0.000000
1.000000 0.949020 0.000000
1.000000 0.949020 0.000000
1.000000 0.949020 0.000000
1.000000 0.949020 0.000000
1.000000 0.949020 0.000000
1.000000 0.949020 0.000000
1.000000 0.949020 0.000000
1.000000 0.949020 0.000000
1.000000 0.949020 0.000000
1.000000 0.949020 0.000000
1.000000 0.949020 0.000000
1.000000 0.949020 0.000000
1.000000 0.949020 0.000000
1.000000 0.949020 0.000000
1.000000 0.949020 0.000000
1.000000 0.949020 0.000000
1.000000 0.949020 0.000000
1.000000 0.949020 0.000000
1.000000 0.949020 0.000000
1.000000 0.949020 0.000000
1.000000 0.949020 0.000000
1.000000 0.949020 0.000000
1.000000 0.949020 0.000000
1.000000 0.949020 0.000000
1.000000 0.949020 0.000000
1.000000 0.949020 0.000000
1.000000 0.949020 0.000000
1.000000 0.949020 0.000000
1.000000 0.949020 0.000000
1.000000 0.949020 0.000000
1.000000 0.949020 0.000000
1.000000 0.949020 0.000000
1.000000 0.949020 0.000000
1.000000 0.949020 0.000000
1.000000 0.949020 0.000000
1.000000 0.949020 0.000000
1.000000 0.949020 0.000000
1.000000 0.949020 0.000000
1.000000 0.949020 0.000000
1.000000 0.949020 0.000000
1.000000 0.949020 0.000000
1.000000 0.949020 0.000000
1.000000 0.949020 0.000000
1.000000 0.949020 0.000000
1.000000 0.949020 0.000000
1.000000 0.949020 0.000000
1.000000 0.949020 0.000000
1.000000 0.949020 0.000000
1.000000 0.949020 0.000000
1.000000 0.949020 0.000000
1.000000 0.949020 0.000000
1.000000 0.949020 0.000000
1.000000 0.949020 0.000000
1.000000 0.949020 0.000000
1.000000 0.949020 0.000000
1.000000 0.949020 0.000000
1.000000 0.949020 0.000000
1.000000 0.949020 0.000000
1.000000 0.949020 0.000000
1.000000 0.949020 0.000000
1.000000 0.949020 0.000000
1.000000 0.949020 0.000000
1.000000 0.949020 0.000000
1.000000 0.949020 0.000000
1.000000 0.949020 0.000000
1.000000 0.949020 0.000000
1.000000 0.949020 0.000000
1.000000 0.949020 0.000000
1.000000 0.949020 0.000000
1.000000 0.949020 0.000000
1.000000 0.949020 0.000000
1.000000 0.949020 0.000000
1.000000 0.949020 0.000000
1.000000 0.949020 0.000000
1.000000 0.949020 0.000000
1.000000 0.949020 0.000000
1.000000 0.949020 0.000000
1.000000 0.949020 0.000000
1.000000 0.949020 0.000000
1.000000 0.949020 0.000000
1.000000 0.949020 0.000000
1.000000 0.949020 0.000000
1.000000 0.949020 0.000000
1.000000 0.949020 0.000000
1.000000 0.949020 0.000000
1.000000 0.949020 0.000000
1.000000 0.949020 0.000000
1.000000 0.949020 0.000000
1.000000 0.949020 0.000000
1.000000 0.949020 0.000000
1.000000 0.949020 0.000000
1.000000 0.949020 0.000000
1.000000 0.949020 0.000000
1.000000 0.949020 0.000000
1.000000 0.949020 0.000000
1.000000 0.949553 0.100503
1.000000 0.949553 0.100503
1.000000 0.949553 0.100503
1.000000 0.950086 0.152571
1.000000 0.951682 0.249071
1.000000 1.000000 1.000000
1.000000 1.000000 1.000000
1.000000 0.996008 0.963603
1.000000 0.972632 0.704585
1.000000 0.961708 0.529556
1.000000 0.954863 0.367329
1.000000 0.951682 0.249071
1.000000 0.949553 0.100503
1.000000 0.949020 0.000000
1.000000 0.949020 0.000000
1.000000 0.949020 0.000000
1.000000 0.949020 0.000000
1.000000 0.949020 0.000000
1.000000 0.949020 0.000000
1.000000 0.949020 0.000000
1.000000 0.949020 0.000000
1.000000 0.974694 0.732021
1.000000 0.975209 0.738674
1.000000 0.973664 0.718473
1.000000 0.965889 0.603997
1.000000 0.956976 0.425591
1.000000 0.953274 0.314850
1.000000 0.951682 0.249071
1.000000 0.949020 0.000000
1.000000 0.949020 0.000000
1.000000 0.949020 0.000000
1.000000 0.949020 0.000000
1.000000 0.949020 0.000000
1.000000 0.949020 0.000000
1.000000 0.949020 0.000000
1.000000 0.949020 0.000000
1.000000 0.949020 0.000000
1.000000 0.956448 0.411972
1.000000 0.954334 0.350886
1.000000 0.957503 0.438690
1.000000 0.957503 0.438690
1.000000 0.954863 0.367329
1.000000 0.952744 0.294834
1.000000 0.951150 0.222074
1.000000 0.949553 0.100503
1.000000 0.949020 0.000000
1.000000 0.949020 0.000000
1.000000 0.949020 0.000000
1.000000 0.949020 0.000000
1.000000 0.949020 0.000000
1.000000 0.949020 0.000000
1.000000 0.949020 0.000000
1.000000 0.949020 0.000000
1.000000 0.950618 0.190775
1.000000 0.950618 0.190775
1.000000 0.949553 0.100503
1.000000 0.951150 0.222074
1.000000 0.953274 0.314850
1.000000 0.951150 0.222074
1.000000 0.951150 0.222074
1.000000 0.949553 0.100503
1.000000 0.949020 0.000000
1.000000 0.949020 0.000000
1.000000 0.949020 0.000000
1.000000 0.949020 0.000000
1.000000 0.949020 0.000000
1.000000 0.949020 0.000000
1.000000 0.949020 0.000000
1.000000 0.949020 0.000000
1.000000 0.949020 0.000000
1.000000 0.949020 0.000000
1.000000 0.949020 0.000000
1.000000 0.949020 0.000000
1.000000 0.950086 0.152571
1.000000 0.951682 0.249071
1.000000 0.949553 0.100503
1.000000 0.949553 0.100503
1.000000 0.949020 0.000000
1.000000 0.949020 0.000000
1.000000 0.949020 0.000000
1.000000 0.949020 0.000000
1.000000 0.949020 0.000000
1.000000 0.949020 0.000000
1.000000 0.949020 0.000000
1.000000 0.949020 0.000000
1.000000 0.949020 0.000000
1.000000 0.949020 0.000000
1.000000 0.949020 0.000000
1.000000 0.949020 0.000000
1.000000 0.949020 0.000000
1.000000 0.949553 0.100503
1.000000 0.949553 0.100503
1.000000 0.950086 0.152571
1.000000 0.949553 0.100503
1.000000 0.949020 0.000000
1.000000 0.949020 0.000000
1.000000 0.949020 0.000000
1.000000 0.949020 0.000000
1.000000 0.949020 0.000000
1.000000 0.949020 0.000000
1.000000 0.949020 0.000000
1.000000 0.949020 0.000000
1.000000 0.949020 0.000000
1.000000 0.949020 0.000000
1.000000 0.949020 0.000000
1.000000 0.949020 0.000000
1.000000 0.949020 0.000000
1.000000 0.949020 0.000000
1.000000 0.949020 0.000000
1.000000 0.949553 0.100503
1.000000 0.949020 0.000000
1.000000 0.949020 0.000000
1.000000 0.949020 0.000000
1.000000 0.949020 0.000000
1.000000 0.949020 0.000000
1.000000 0.949020 0.000000
1.000000 0.949020 0.000000
1.000000 0.949020 0.000000
1.000000 0.949020 0.000000
1.000000 0.949020 0.000000
1.000000 0.949020 0.000000
1.000000 0.949020 0.000000
1.000000 0.949020 0.000000
1.000000 0.949020 0.000000
1.000000 0.949020 0.000000
1.000000 0.950086 0.152571
1.000000 0.949020 0.000000
1.000000 0.949020 0.000000
1.000000 0.949020 0.000000
1.000000 0.949020 0.000000
1.000000 0.949020 0.000000
1.000000 0.949020 0.000000
1.000000 0.949020 0.000000
1.000000 0.949020 0.000000
1.000000 0.949020 0.000000
1.000000 0.949020 0.000000
1.000000 0.949020 0.000000
1.000000 0.949020 0.000000
1.000000 0.949020 0.000000
1.000000 0.949020 0.000000
1.000000 0.949020 0.000000
1.000000 0.949020 0.000000
1.000000 0.949020 0.000000
1.000000 0.949020 0.000000
1.000000 0.949020 0.000000
1.000000 0.949020 0.000000
1.000000 0.949020 0.000000
1.000000 0.949020 0.000000
1.000000 0.949020 0.000000
1.000000 0.949020 0.000000
1.000000 0.949020 0.000000
1.000000 0.949020 0.000000
1.000000 0.949020 0.000000
1.000000 0.949020 0.000000
1.000000 0.949020 0.000000
1.000000 0.949020 0.000000
1.000000 0.949020 0.000000
1.000000 0.949020 0.000000
1.000000 0.949020 0.000000
1.000000 0.949553 0.100503
1.000000 0.949020 0.000000
1.000000 0.949020 0.000000
1.000000 0.949020 0.000000
1.000000 0.949020 0.000000
1.000000 0.949020 0.000000
1.000000 0.949020 0.000000
1.000000 0.949020 0.000000
1.000000 0.949020 0.000000
1.000000 0.949020 0.000000
1.000000 0.949020 0.000000
1.000000 0.949020 0.000000
1.000000 0.949020 0.000000
1.000000 0.949020 0.000000
1.000000 0.949020 0.000000
1.000000 0.949020 0.000000
1.000000 0.949020 0.000000
1.000000 0.949020 0.000000
1.000000 0.949020 0.000000
1.000000 0.949020 0.000000
1.000000 0.949020 0.000000
1.000000 0.949020 0.000000
1.000000 0.949020 0.000000
1.000000 0.949020 0.000000
1.000000 0.949020 0.000000
1.000000 0.949020 0.000000
1.000000 0.949020 0.000000
1.000000 0.949020 0.000000
1.000000 0.949020 0.000000
1.000000 0.949020 0.000000
1.000000 0.949020 0.000000
1.000000 0.949020 0.000000
1.000000 0.949020 0.000000
1.000000 0.949020 0.000000
1.000000 0.949020 0.000000
1.000000 0.949020 0.000000
1.000000 0.949020 0.000000
1.000000 0.949020 0.000000
1.000000 0.949020 0.000000
1.000000 0.949020 0.000000
1.000000 0.949020 0.000000
1.000000 0.949020 0.000000
1.000000 0.949020 0.000000
1.000000 0.949020 0.000000
1.000000 0.949020 0.000000
1.000000 0.949020 0.000000
1.000000 0.949020 0.000000
1.000000 0.949020 0.000000
1.000000 0.949020 0.000000
1.000000 0.949020 0.000000
1.000000 0.949020 0.000000
1.000000 0.949020 0.000000
1.000000 0.949020 0.000000
1.000000 0.949020 0.000000
1.000000 0.949020 0.000000
1.000000 0.949020 0.000000
1.000000 0.949020 0.000000
1.000000 0.949020 0.000000
1.000000 0.949020 0.000000
1.000000 0.949020 0.000000
1.000000 0.949020 0.000000
1.000000 0.949020 0.000000
1.000000 0.949020 0.000000
1.000000 0.949020 0.000000
1.000000 0.949020 0.000000
1.000000 0.949020 0.000000
1.000000 0.949020 0.000000
1.000000 0.949020 0.000000
1.000000 0.949020 0.000000
1.000000 0.949020 0.000000
1.000000 0.949020 0.000000
1.000000 0.949020 0.000000
1.000000 0.949020 0.000000
1.000000 0.949020 0.000000
1.000000 0.949020 0.000000
1.000000 0.949020 0.000000
1.000000 0.949020 0.000000
1.000000 0.949020 0.000000
1.000000 0.949020 0.000000
1.000000 0.949020 0.000000
1.000000 0.949020 0.000000
1.000000 0.949020 0.000000
1.000000 0.949020 0.000000
1.000000 0.949020 0.000000
1.000000 0.949020 0.000000
1.000000 0.949020 0.000000
1.000000 0.949553 0.100503
1.000000 0.949553 0.100503
1.000000 0.949553 0.100503
1.000000 0.949553 0.100503
1.000000 0.949553 0.100503
1.000000 0.949553 0.100503
1.000000 0.949553 0.100503
1.000000 0.949553 0.100503
1.000000 0.949553 0.100503
1.000000 0.949553 0.100503
1.000000 0.949553 0.100503
1.000000 0.949553 0.100503
1.000000 0.949553 0.100503
1.000000 0.949553 0.100503
1.000000 0.950086 0.152571
1.000000 0.951682 0.249071
1.000000 1.000000 1.000000
1.000000 1.000000 1.000000
1.000000 0.999502 0.995547
1.000000 0.996008 0.963603
1.000000 0.990988 0.915376
1.000000 0.974694 0.732021
1.000000 0.964846 0.586512
1.000000 0.959083 0.475337
1.000000 0.955920 0.397773
1.000000 0.953274 0.314850
1.000000 0.951682 0.249071
1.000000 0.950086 0.152571
1.000000 0.949553 0.100503
1.000000 0.949020 0.000000
1.000000 0.949553 0.100503
1.000000 0.950618 0.190775
1.000000 1.000000 1.000000
1.000000 1.000000 1.000000
1.000000 0.988971 0.895114
1.000000 0.988971 0.895114
1.000000 0.973664 0.718473
1.000000 0.970564 0.675686
1.000000 0.959609 0.486793
1.000000 0.955920 0.397773
1.000000 0.954863 0.367329
1.000000 0.953274 0.314850
1.000000 0.951682 0.249071
1.000000 0.950086 0.152571
1.000000 0.949553 0.100503
1.000000 0.949020 0.000000
1.000000 0.950086 0.152571
1.000000 0.950086 0.152571
1.000000 0.975723 0.745249
1.000000 0.970046 0.668207
1.000000 0.986948 0.874228
1.000000 0.974179 0.725288
1.000000 0.966930 0.620856
1.000000 0.962232 0.539583
1.000000 0.958030 0.451320
1.000000 0.954334 0.350886
1.000000 0.950618 0.190775
1.000000 0.950618 0.190775
1.000000 0.949020 0.000000
1.000000 0.949020 0.000000
1.000000 0.949020 0.000000
1.000000 0.949020 0.000000
1.000000 0.950086 0.152571
1.000000 0.950086 0.152571
1.000000 0.959609 0.486793
1.000000 0.959609 0.486793
1.000000 0.956976 0.425591
1.000000 0.965368 0.595337
1.000000 0.965889 0.603997
1.000000 0.962756 0.549380
1.000000 0.955392 0.382922
1.000000 0.956448 0.411972
1.000000 0.954334 0.350886
1.000000 0.952744 0.294834
1.000000 0.949020 0.000000
1.000000 0.949553 0.100503
1.000000 0.949553 0.100503
1.000000 0.949020 0.000000
1.000000 0.950086 0.152571
1.000000 0.950618 0.190775
1.000000 0.954334 0.350886
1.000000 0.953274 0.314850
1.000000 0.952744 0.294834
1.000000 0.952213 0.273071
1.000000 0.956976 0.425591
1.000000 0.958030 0.451320
1.000000 0.954863 0.367329
1.000000 0.950618 0.190775
1.000000 0.949553 0.100503
1.000000 0.950618 0.190775
1.000000 0.949020 0.000000
1.000000 0.950086 0.152571
1.000000 0.949553 0.100503
1.000000 0.949020 0.000000
1.000000 0.950086 0.152571
1.000000 0.950086 0.152571
1.000000 0.951150 0.222074
1.000000 0.950618 0.190775
1.000000 0.950618 0.190775
1.000000 0.949553 0.100503
1.000000 0.950086 0.152571
1.000000 0.951150 0.222074
1.000000 0.954334 0.350886
1.000000 0.954863 0.367329
1.000000 0.952744 0.294834
1.000000 0.951682 0.249071
1.000000 0.949020 0.000000
1.000000 0.949553 0.100503
1.000000 0.949553 0.100503
1.000000 0.949020 0.000000
1.000000 0.949553 0.100503
1.000000 0.950086 0.152571
1.000000 0.949553 0.100503
1.000000 0.949020 0.000000
1.000000 0.949020 0.000000
1.000000 0.949020 0.000000
1.000000 0.949020 0.000000
1.000000 0.949020 0.000000
1.000000 0.951682 0.249071
1.000000 0.951150 0.222074
1.000000 0.952744 0.294834
1.000000 0.949020 0.000000
1.000000 0.949553 0.100503
1.000000 0.949020 0.000000
1.000000 0.949553 0.100503
1.000000 0.949020 0.000000
1.000000 0.949553 0.100503
1.000000 0.950086 0.152571
1.000000 0.949020 0.000000
1.000000 0.949020 0.000000
1.000000 0.949020 0.000000
1.000000 0.949020 0.000000
1.000000 0.949020 0.000000
1.000000 0.949020 0.000000
1.000000 0.949020 0.000000
1.000000 0.949553 0.100503
1.000000 0.951150 0.222074
1.000000 0.950086 0.152571
1.000000 0.951150 0.222074
1.000000 0.949020 0.000000
1.000000 0.949020 0.000000
1.000000 0.949553 0.100503
1.000000 0.949553 0.100503
1.000000 0.950086 0.152571
1.000000 0.949020 0.000000
1.000000 0.949020 0.000000
1.000000 0.949020 0.000000
1.000000 0.949020 0.000000
1.000000 0.949020 0.000000
1.000000 0.949020 0.000000
1.000000 0.949020 0.000000
1.000000 0.949020 0.000000
1.000000 0.950086 0.152571
1.000000 0.950086 0.152571
1.000000 0.951150 0.222074
1.000000 0.950618 0.190775
1.000000 0.949020 0.000000
1.000000 0.949553 0.100503
1.000000 0.949553 0.100503
1.000000 0.950086 0.152571
1.000000 0.949020 0.000000
1.000000 0.949020 0.000000
1.000000 0.949020 0.000000
1.000000 0.949020 0.000000
1.000000 0.949020 0.000000
1.000000 0.949020 0.000000
1.000000 0.949020 0.000000
1.000000 0.949020 0.000000
1.000000 0.949020 0.000000
1.000000 0.949553 0.100503
1.000000 0.949020 0.000000
1.000000 0.950618 0.190775
1.000000 0.949553 0.100503
1.000000 0.949553 0.100503
1.000000 0.949553 0.100503
1.000000 0.950086 0.152571
1.000000 0.949020 0.000000
1.000000 0.949020 0.000000
1.000000 0.949020 0.000000
1.000000 0.949020 0.000000
1.000000 0.949020 0.000000
1.000000 0.949020 0.000000
1.000000 0.949020 0.000000
1.000000 0.949020 0.000000
1.000000 0.949020 0.000000
1.000000 0.949020 0.000000
1.000000 0.949020 0.000000
1.000000 0.949553 0.100503
1.000000 0.950086 0.152571
1.000000 0.949553 0.100503
1.000000 0.949553 0.100503
1.000000 0.949553 0.100503
1.000000 0.949020 0.000000
1.000000 0.949020 0.000000
1.000000 0.949020 0.000000
1.000000 0.949020 0.000000
1.000000 0.949020 0.000000
1.000000 0.949020 0.000000
1.000000 0.949020 0.000000
1.000000 0.949020 0.000000
1.000000 0.949020 0.000000
1.000000 0.949020 0.000000
1.000000 0.949020 0.000000
1.000000 0.949020 0.000000
1.000000 0.950086 0.152571
1.000000 0.949553 0.100503
1.000000 0.949553 0.100503
1.000000 0.949553 0.100503
1.000000 0.949020 0.000000
1.000000 0.949020 0.000000
1.000000 0.949020 0.000000
1.000000 0.949020 0.000000
1.000000 0.949020 0.000000
1.000000 0.949020 0.000000
1.000000 0.949020 0.000000
1.000000 0.949020 0.000000
1.000000 0.949020 0.000000
1.000000 0.949020 0.000000
1.000000 0.949020 0.000000
1.000000 0.949020 0.000000
1.000000 0.949020 0.000000
1.000000 0.949020 0.000000
1.000000 0.949553 0.100503
1.000000 0.949553 0.100503
1.000000 0.949020 0.000000
1.000000 0.949020 0.000000
1.000000 0.949020 0.000000
1.000000 0.949020 0.000000
1.000000 0.949020 0.000000
1.000000 0.949020 0.000000
1.000000 0.949020 0.000000
1.000000 0.949020 0.000000
1.000000 0.949020 0.000000
1.000000 0.949020 0.000000
1.000000 0.949020 0.000000
1.000000 0.949020 0.000000
1.000000 0.949020 0.000000
1.000000 0.949020 0.000000
1.000000 0.949553 0.100503
1.000000 0.949553 0.100503
1.000000 0.949553 0.100503
1.000000 0.949553 0.100503
1.000000 0.949020 0.000000
1.000000 0.949553 0.100503
1.000000 0.949553 0.100503
1.000000 0.949553 0.100503
1.000000 0.949020 0.000000
1.000000 0.949553 0.100503
1.000000 0.949553 0.100503
1.000000 0.949553 0.100503
1.000000 0.949553 0.100503
1.000000 0.949553 0.100503
1.000000 0.949553 0.100503
1.000000 0.949553 0.100503
1.000000 0.949553 0.100503
1.000000 0.949553 0.100503
1.000000 0.950086 0.152571
1.000000 0.950086 0.152571
1.000000 0.950086 0.152571
1.000000 0.950086 0.152571
1.000000 0.950086 0.152571
1.000000 0.950086 0.152571
1.000000 0.950086 0.152571
1.000000 0.950086 0.152571
1.000000 0.950086 0.152571
1.000000 0.950086 0.152571
1.000000 0.950086 0.152571
1.000000 0.950086 0.152571
1.000000 0.950086 0.152571
1.000000 0.950086 0.152571
1.000000 0.950618 0.190775
1.000000 0.952213 0.273071
1.000000 1.000000 1.000000
1.000000 1.000000 1.000000
1.000000 1.000000 1.000000
1.000000 0.999502 0.995547
1.000000 1.000000 1.000000
1.000000 0.999502 0.995547
1.000000 0.987960 0.884752
1.000000 0.975209 0.738674
1.000000 0.967970 0.637145
1.000000 0.962232 0.539583
1.000000 0.958557 0.463523
1.000000 0.955920 0.397773
1.000000 0.953804 0.333453
1.000000 0.952213 0.273071
1.000000 0.953804 0.333453
1.000000 0.952744 0.294834
1.000000 1.000000 1.000000
1.000000 1.000000 1.000000
1.000000 1.000000 1.000000
1.000000 0.990988 0.915376
1.000000 0.992498 0.930192
1.000000 0.987455 0.879511
1.000000 0.974179 0.725288
1.000000 0.971081 0.683060
1.000000 0.963802 0.568333
1.000000 0.961708 0.529556
1.000000 0.958030 0.451320
1.000000 0.955920 0.397773
1.000000 0.953804 0.333453
1.000000 0.952213 0.273071
1.000000 0.953274 0.314850
1.000000 0.953274 0.314850
1.000000 1.000000 1.000000
1.000000 0.997508 0.977463
1.000000 0.987960 0.884752
1.000000 0.986948 0.874228
1.000000 0.994506 0.949475
1.000000 0.972115 0.697506
1.000000 0.968490 0.645092
1.000000 0.961708 0.529556
1.000000 0.964324 0.577514
1.000000 0.956448 0.411972
1.000000 0.955920 0.397773
1.000000 0.953274 0.314850
1.000000 0.952744 0.294834
1.000000 0.952213 0.273071
1.000000 0.953274 0.314850
1.000000 0.953274 0.314850
1.000000 0.974179 0.725288
1.000000 0.971598 0.690332
1.000000 0.971081 0.683060
1.000000 0.990988 0.915376
1.000000 0.973148 0.711573
1.000000 0.974179 0.725288
1.000000 0.964324 0.577514
1.000000 0.964846 0.586512
1.000000 0.960659 0.508742
1.000000 0.955392 0.382922
1.000000 0.954863 0.367329
1.000000 0.955392 0.382922
1.000000 0.953804 0.333453
1.000000 0.952213 0.273071
1.000000 0.952744 0.294834
1.000000 0.952744 0.294834
1.000000 0.963279 0.558959
1.000000 0.961708 0.529556
1.000000 0.960134 0.497920
1.000000 0.959609 0.486793
1.000000 0.964846 0.586512
1.000000 0.966930 0.620856
1.000000 0.968490 0.645092
1.000000 0.958030 0.451320
1.000000 0.954334 0.350886
1.000000 0.956976 0.425591
1.000000 0.955392 0.382922
1.000000 0.954334 0.350886
1.000000 0.952744 0.294834
1.000000 0.952213 0.273071
1.000000 0.952744 0.294834
1.000000 0.952744 0.294834
1.000000 0.956976 0.425591
1.000000 0.956448 0.411972
1.000000 0.955920 0.397773
1.000000 0.954863 0.367329
1.000000 0.953274 0.314850
1.000000 0.956448 0.411972
1.000000 0.959083 0.475337
1.000000 0.953804 0.333453
1.000000 0.959083 0.475337
1.000000 0.956448 0.411972
1.000000 0.954334 0.350886
1.000000 0.954334 0.350886
1.000000 0.952744 0.294834
1.000000 0.952213 0.273071
1.000000 0.952744 0.294834
1.000000 0.952213 0.273071
1.000000 0.953274 0.314850
1.000000 0.953274 0.314850
1.000000 0.952744 0.294834
1.000000 0.952213 0.273071
1.000000 0.951150 0.222074
1.000000 0.952744 0.294834
1.000000 0.950086 0.152571
1.000000 0.953274 0.314850
1.000000 0.955392 0.382922
1.000000 0.954334 0.350886
1.000000 0.954863 0.367329
1.000000 0.952213 0.273071
1.000000 0.952213 0.273071
1.000000 0.951682 0.249071
1.000000 0.951682 0.249071
1.000000 0.951682 0.249071
1.000000 0.951150 0.222074
1.000000 0.951150 0.222074
1.000000 0.951150 0.222074
1.000000 0.950618 0.190775
1.000000 0.950086 0.152571
1.000000 0.949553 0.100503
1.000000 0.949020 0.000000
