tests/cmyk_1m.cube
LUT_3D_SIZE 16
DOMAIN_MIN 0 0 0
DOMAIN_MAX 1 1 1
1.000000 1.000000 1.000000
1.000000 1.000000 1.000000
0.838384 0.838384 0.838384
1.000000 1.000000 1.000000
0.989899 0.989899 0.989899
1.000000 1.000000 1.000000
1.000000 1.000000 1.000000
1.000000 1.000000 1.000000
1.000000 1.000000 1.000000
1.000000 1.000000 1.000000
1.000000 1.000000 1.000000
1.000000 1.000000 1.000000
1.000000 1.000000 1.000000
1.000000 1.000000 1.000000
0.949495 0.949495 0.949495
0.878788 0.878788 0.878788
0.000000 0.000000 0.000000
0.232323 0.232323 0.232323
0.696970 0.696970 0.696970
0.868687 0.868687 0.868687
0.919192 0.919192 0.919192
0.969697 0.969697 0.969697
0.989899 0.989899 0.989899
1.000000 1.000000 1.000000
1.000000 1.000000 1.000000
1.000000 1.000000 1.000000
1.000000 1.000000 1.000000
1.000000 1.000000 1.000000
1.000000 1.000000 1.000000
1.000000 1.000000 1.000000
0.949495 0.949495 0.949495
0.868687 0.868687 0.868687
0.020202 0.020202 0.020202
0.000000 0.000000 0.000000
0.000000 0.000000 0.000000
0.555556 0.555556 0.555556
0.767677 0.767677 0.767677
0.848485 0.848485 0.848485
0.909091 0.909091 0.909091
0.939394 0.939394 0.939394
0.959596 0.959596 0.959596
0.979798 0.979798 0.979798
0.989899 0.989899 0.989899
0.989899 0.989899 0.989899
1.000000 1.000000 1.000000
1.000000 1.000000 1.000000
0.939394 0.939394 0.939394
0.858586 0.858586 0.858586
0.000000 0.000000 0.000000
0.000000 0.000000 0.000000
0.000000 0.000000 0.000000
0.000000 0.000000 0.000000
0.424242 0.424242 0.424242
0.676768 0.676768 0.676768
0.777778 0.777778 0.777778
0.858586 0.858586 0.858586
0.898990 0.898990 0.898990
0.929293 0.929293 0.929293
0.949495 0.949495 0.949495
0.959596 0.959596 0.959596
0.969697 0.969697 0.969697
0.979798 0.979798 0.979798
0.919192 0.919192 0.919192
0.848485 0.848485 0.848485
0.000000 0.000000 0.000000
0.000000 0.000000 0.000000
0.000000 0.000000 0.000000
0.000000 0.000000 0.000000
0.000000 0.000000 0.000000
0.363636 0.363636 0.363636
0.575758 0.575758 0.575758
0.737374 0.737374 0.737374
0.808081 0.808081 0.808081
0.858586 0.858586 0.858586
0.898990 0.898990 0.898990
0.919192 0.919192 0.919192
0.939394 0.939394 0.939394
0.949495 0.949495 0.949495
0.898990 0.898990 0.898990
0.818182 0.818182 0.818182
0.000000 0.000000 0.000000
0.000000 0.000000 0.000000
0.000000 0.000000 0.000000
0.000000 0.000000 0.000000
0.000000 0.000000 0.000000
0.000000 0.000000 0.000000
0.292929 0.292929 0.292929
0.525253 0.525253 0.525253
0.676768 0.676768 0.676768
0.757576 0.757576 0.757576
0.818182 0.818182 0.818182
0.858586 0.858586 0.858586
0.888889 0.888889 0.888889
0.909091 0.909091 0.909091
0.858586 0.858586 0.858586
0.787879 0.787879 0.787879
0.000000 0.000000 0.000000
0.000000 0.000000 0.000000
0.000000 0.000000 0.000000
0.000000 0.000000 0.000000
0.000000 0.000000 0.000000
0.000000 0.000000 0.000000
0.000000 0.000000 0.000000
0.222222 0.222222 0.222222
0.484848 0.484848 0.484848
0.616162 0.616162 0.616162
0.707071 0.707071 0.707071
0.777778 0.777778 0.777778
0.828283 0.828283 0.828283
0.858586 0.858586 0.858586
0.818182 0.818182 0.818182
0.747475 0.747475 0.747475
0.000000 0.000000 0.000000
0.000000 0.000000 0.000000
0.000000 0.000000 0.000000
0.000000 0.000000 0.000000
0.000000 0.000000 0.000000
0.000000 0.000000 0.000000
0.000000 0.000000 0.000000
0.000000 0.000000 0.000000
0.212121 0.212121 0.212121
0.434343 0.434343 0.434343
0.575758 0.575758 0.575758
0.666667 0.666667 0.666667
0.737374 0.737374 0.737374
0.787879 0.787879 0.787879
0.767677 0.767677 0.767677
0.696970 0.696970 0.696970
0.000000 0.000000 0.000000
0.000000 0.000000 0.000000
0.000000 0.000000 0.000000
0.000000 0.000000 0.000000
0.000000 0.000000 0.000000
0.000000 0.000000 0.000000
0.000000 0.000000 0.000000
0.000000 0.000000 0.000000
0.000000 0.000000 0.000000
0.171717 0.171717 0.171717
0.373737 0.373737 0.373737
0.535354 0.535354 0.535354
0.636364 0.636364 0.636364
0.696970 0.696970 0.696970
0.707071 0.707071 0.707071
0.636364 0.636364 0.636364
0.000000 0.000000 0.000000
0.000000 0.000000 0.000000
0.000000 0.000000 0.000000
0.000000 0.000000 0.000000
0.000000 0.000000 0.000000
0.000000 0.000000 0.000000
0.000000 0.000000 0.000000
0.000000 0.000000 0.000000
0.000000 0.000000 0.000000
0.000000 0.000000 0.000000
0.151515 0.151515 0.151515
0.353535 0.353535 0.353535
0.494949 0.494949 0.494949
0.595960 0.595960 0.595960
0.636364 0.636364 0.636364
0.565657 0.565657 0.565657
0.000000 0.000000 0.000000
0.000000 0.000000 0.000000
0.000000 0.000000 0.000000
0.000000 0.000000 0.000000
0.000000 0.000000 0.000000
0.000000 0.000000 0.000000
0.000000 0.000000 0.000000
0.000000 0.000000 0.000000
0.000000 0.000000 0.000000
0.000000 0.000000 0.000000
0.000000 0.000000 0.000000
0.111111 0.111111 0.111111
0.323232 0.323232 0.323232
0.454545 0.454545 0.454545
0.555556 0.555556 0.555556
0.484848 0.484848 0.484848
0.000000 0.000000 0.000000
0.000000 0.000000 0.000000
0.000000 0.000000 0.000000
0.000000 0.000000 0.000000
0.000000 0.000000 0.000000
0.000000 0.000000 0.000000
0.000000 0.000000 0.000000
0.000000 0.000000 0.000000
0.000000 0.000000 0.000000
0.000000 0.000000 0.000000
0.000000 0.000000 0.000000
0.000000 0.000000 0.000000
0.101010 0.101010 0.101010
0.292929 0.292929 0.292929
0.434343 0.434343 0.434343
0.383838 0.383838 0.383838
0.000000 0.000000 0.000000
0.000000 0.000000 0.000000
0.000000 0.000000 0.000000
0.000000 0.000000 0.000000
0.000000 0.000000 0.000000
0.000000 0.000000 0.000000
0.000000 0.000000 0.000000
0.000000 0.000000 0.000000
0.000000 0.000000 0.000000
0.000000 0.000000 0.000000
0.000000 0.000000 0.000000
0.000000 0.000000 0.000000
0.000000 0.000000 0.000000
0.101010 0.101010 0.101010
0.252525 0.252525 0.252525
0.282828 0.282828 0.282828
0.000000 0.000000 0.000000
0.000000 0.000000 0.000000
0.000000 0.000000 0.000000
0.000000 0.000000 0.000000
0.000000 0.000000 0.000000
0.000000 0.000000 0.000000
0.000000 0.000000 0.000000
0.000000 0.000000 0.000000
0.000000 0.000000 0.000000
0.000000 0.000000 0.000000
0.000000 0.000000 0.000000
0.000000 0.000000 0.000000
0.000000 0.000000 0.000000
0.000000 0.000000 0.000000
0.070707 0.070707 0.070707
0.161616 0.161616 0.161616
0.000000 0.000000 0.000000
0.000000 0.000000 0.000000
0.000000 0.000000 0.000000
0.000000 0.000000 0.000000
0.000000 0.000000 0.000000
0.000000 0.000000 0.000000
0.000000 0.000000 0.000000
0.000000 0.000000 0.000000
0.000000 0.000000 0.000000
0.000000 0.000000 0.000000
0.000000 0.000000 0.000000
0.000000 0.000000 0.000000
0.000000 0.000000 0.000000
0.000000 0.000000 0.000000
0.000000 0.000000 0.000000
0.030303 0.030303 0.030303
0.000000 0.000000 0.000000
0.000000 0.000000 0.000000
0.000000 0.000000 0.000000
0.000000 0.000000 0.000000
0.000000 0.000000 0.000000
0.000000 0.000000 0.000000
0.000000 0.000000 0.000000
0.000000 0.000000 0.000000
0.000000 0.000000 0.000000
0.000000 0.000000 0.000000
0.000000 0.000000 0.000000
0.000000 0.000000 0.000000
0.000000 0.000000 0.000000
0.000000 0.000000 0.000000
0.000000 0.000000 0.000000
0.000000 0.000000 0.000000
0.909091 0.909091 0.909091
0.989899 0.989899 0.989899
1.000000 1.000000 1.000000
1.000000 1.000000 1.000000
1.000000 1.000000 1.000000
1.000000 1.000000 1.000000
1.000000 1.000000 1.000000
1.000000 1.000000 1.000000
1.000000 1.000000 1.000000
1.000000 1.000000 1.000000
1.000000 1.000000 1.000000
1.000000 1.000000 1.000000
1.000000 1.000000 1.000000
1.000000 1.000000 1.000000
0.949495 0.949495 0.949495
0.878788 0.878788 0.878788
0.181818 0.181818 0.181818
0.242424 0.242424 0.242424
0.696970 0.696970 0.696970
0.858586 0.858586 0.858586
0.939394 0.939394 0.939394
0.969697 0.969697 0.969697
0.979798 0.979798 0.979798
1.000000 1.000000 1.000000
1.000000 1.000000 1.000000
1.000000 1.000000 1.000000
1.000000 1.000000 1.000000
1.000000 1.000000 1.000000
1.000000 1.000000 1.000000
1.000000 1.000000 1.000000
0.949495 0.949495 0.949495
0.868687 0.868687 0.868687
0.000000 0.000000 0.000000
0.101010 0.101010 0.101010
0.151515 0.151515 0.151515
0.585859 0.585859 0.585859
0.787879 0.787879 0.787879
0.868687 0.868687 0.868687
0.919192 0.919192 0.919192
0.949495 0.949495 0.949495
0.959596 0.959596 0.959596
0.979798 0.979798 0.979798
0.979798 0.979798 0.979798
0.989899 0.989899 0.989899
1.000000 1.000000 1.000000
1.000000 1.000000 1.000000
0.939394 0.939394 0.939394
0.858586 0.858586 0.858586
0.030303 0.030303 0.030303
0.000000 0.000000 0.000000
0.070707 0.070707 0.070707
0.222222 0.222222 0.222222
0.474747 0.474747 0.474747
0.707071 0.707071 0.707071
0.797980 0.797980 0.797980
0.868687 0.868687 0.868687
0.909091 0.909091 0.909091
0.929293 0.929293 0.929293
0.949495 0.949495 0.949495
0.959596 0.959596 0.959596
0.969697 0.969697 0.969697
0.979798 0.979798 0.979798
0.919192 0.919192 0.919192
0.848485 0.848485 0.848485
0.000000 0.000000 0.000000
0.030303 0.030303 0.030303
0.020202 0.020202 0.020202
0.000000 0.000000 0.000000
0.121212 0.121212 0.121212
0.373737 0.373737 0.373737
0.646465 0.646465 0.646465
0.747475 0.747475 0.747475
0.818182 0.818182 0.818182
0.858586 0.858586 0.858586
0.898990 0.898990 0.898990
0.919192 0.919192 0.919192
0.939394 0.939394 0.939394
0.949495 0.949495 0.949495
0.898990 0.898990 0.898990
0.818182 0.818182 0.818182
0.000000 0.000000 0.000000
0.000000 0.000000 0.000000
0.000000 0.000000 0.000000
0.000000 0.000000 0.000000
0.000000 0.000000 0.000000
0.050505 0.050505 0.050505
0.373737 0.373737 0.373737
0.545455 0.545455 0.545455
0.676768 0.676768 0.676768
0.757576 0.757576 0.757576
0.818182 0.818182 0.818182
0.858586 0.858586 0.858586
0.888889 0.888889 0.888889
0.909091 0.909091 0.909091
0.858586 0.858586 0.858586
0.787879 0.787879 0.787879
0.000000 0.000000 0.000000
0.000000 0.000000 0.000000
0.000000 0.000000 0.000000
0.000000 0.000000 0.000000
0.000000 0.000000 0.000000
0.000000 0.000000 0.000000
0.020202 0.020202 0.020202
0.333333 0.333333 0.333333
0.494949 0.494949 0.494949
0.626263 0.626263 0.626263
0.717172 0.717172 0.717172
0.777778 0.777778 0.777778
0.818182 0.818182 0.818182
0.858586 0.858586 0.858586
0.818182 0.818182 0.818182
0.747475 0.747475 0.747475
0.000000 0.000000 0.000000
0.000000 0.000000 0.000000
0.000000 0.000000 0.000000
0.000000 0.000000 0.000000
0.000000 0.000000 0.000000
0.000000 0.000000 0.000000
0.000000 0.000000 0.000000
0.000000 0.000000 0.000000
0.212121 0.212121 0.212121
0.464646 0.464646 0.464646
0.575758 0.575758 0.575758
0.676768 0.676768 0.676768
0.737374 0.737374 0.737374
0.787879 0.787879 0.787879
0.767677 0.767677 0.767677
0.696970 0.696970 0.696970
0.000000 0.000000 0.000000
0.000000 0.000000 0.000000
0.000000 0.000000 0.000000
0.000000 0.000000 0.000000
0.000000 0.000000 0.000000
0.000000 0.000000 0.000000
0.000000 0.000000 0.000000
0.000000 0.000000 0.000000
0.000000 0.000000 0.000000
0.232323 0.232323 0.232323
0.404040 0.404040 0.404040
0.535354 0.535354 0.535354
0.626263 0.626263 0.626263
0.707071 0.707071 0.707071
0.707071 0.707071 0.707071
0.636364 0.636364 0.636364
0.000000 0.000000 0.000000
0.000000 0.000000 0.000000
0.000000 0.000000 0.000000
0.000000 0.000000 0.000000
0.000000 0.000000 0.000000
0.000000 0.000000 0.000000
0.000000 0.000000 0.000000
0.000000 0.000000 0.000000
0.000000 0.000000 0.000000
0.000000 0.000000 0.000000
0.141414 0.141414 0.141414
0.373737 0.373737 0.373737
0.494949 0.494949 0.494949
0.595960 0.595960 0.595960
0.636364 0.636364 0.636364
0.565657 0.565657 0.565657
0.000000 0.000000 0.000000
0.000000 0.000000 0.000000
0.000000 0.000000 0.000000
0.000000 0.000000 0.000000
0.000000 0.000000 0.000000
0.000000 0.000000 0.000000
0.000000 0.000000 0.000000
0.000000 0.000000 0.000000
0.000000 0.000000 0.000000
0.000000 0.000000 0.000000
0.000000 0.000000 0.000000
0.151515 0.151515 0.151515
0.323232 0.323232 0.323232
0.464646 0.464646 0.464646
0.555556 0.555556 0.555556
0.474747 0.474747 0.474747
0.000000 0.000000 0.000000
0.000000 0.000000 0.000000
0.000000 0.000000 0.000000
0.000000 0.000000 0.000000
0.000000 0.000000 0.000000
0.000000 0.000000 0.000000
0.000000 0.000000 0.000000
0.000000 0.000000 0.000000
0.000000 0.000000 0.000000
0.000000 0.000000 0.000000
0.000000 0.000000 0.000000
0.000000 0.000000 0.000000
0.121212 0.121212 0.121212
0.303030 0.303030 0.303030
0.434343 0.434343 0.434343
0.383838 0.383838 0.383838
0.000000 0.000000 0.000000
0.000000 0.000000 0.000000
0.000000 0.000000 0.000000
0.000000 0.000000 0.000000
0.000000 0.000000 0.000000
0.000000 0.000000 0.000000
0.000000 0.000000 0.000000
0.000000 0.000000 0.000000
0.000000 0.000000 0.000000
0.000000 0.000000 0.000000
0.000000 0.000000 0.000000
0.000000 0.000000 0.000000
0.000000 0.000000 0.000000
0.111111 0.111111 0.111111
0.272727 0.272727 0.272727
0.282828 0.282828 0.282828
0.000000 0.000000 0.000000
0.000000 0.000000 0.000000
0.000000 0.000000 0.000000
0.000000 0.000000 0.000000
0.000000 0.000000 0.000000
0.000000 0.000000 0.000000
0.000000 0.000000 0.000000
0.000000 0.000000 0.000000
0.000000 0.000000 0.000000
0.000000 0.000000 0.000000
0.000000 0.000000 0.000000
0.000000 0.000000 0.000000
0.000000 0.000000 0.000000
0.000000 0.000000 0.000000
0.101010 0.101010 0.101010
0.161616 0.161616 0.161616
0.000000 0.000000 0.000000
0.000000 0.000000 0.000000
0.000000 0.000000 0.000000
0.000000 0.000000 0.000000
0.000000 0.000000 0.000000
0.000000 0.000000 0.000000
0.000000 0.000000 0.000000
0.000000 0.000000 0.000000
0.000000 0.000000 0.000000
0.000000 0.000000 0.000000
0.000000 0.000000 0.000000
0.000000 0.000000 0.000000
0.000000 0.000000 0.000000
0.000000 0.000000 0.000000
0.000000 0.000000 0.000000
0.030303 0.030303 0.030303
0.000000 0.000000 0.000000
0.000000 0.000000 0.000000
0.000000 0.000000 0.000000
0.000000 0.000000 0.000000
0.000000 0.000000 0.000000
0.000000 0.000000 0.000000
0.000000 0.000000 0.000000
0.000000 0.000000 0.000000
0.000000 0.000000 0.000000
0.000000 0.000000 0.000000
0.000000 0.000000 0.000000
0.000000 0.000000 0.000000
0.000000 0.000000 0.000000
0.000000 0.000000 0.000000
0.000000 0.000000 0.000000
0.000000 0.000000 0.000000
0.111111 0.111111 0.111111
0.757576 0.757576 0.757576
1.000000 1.000000 1.000000
1.000000 1.000000 1.000000
1.000000 1.000000 1.000000
1.000000 1.000000 1.000000
1.000000 1.000000 1.000000
1.000000 1.000000 1.000000
1.000000 1.000000 1.000000
1.000000 1.000000 1.000000
1.000000 1.000000 1.000000
1.000000 1.000000 1.000000
1.000000 1.000000 1.000000
1.000000 1.000000 1.000000
0.949495 0.949495 0.949495
0.878788 0.878788 0.878788
0.404040 0.404040 0.404040
0.616162 0.616162 0.616162
0.858586 0.858586 0.858586
0.888889 0.888889 0.888889
0.949495 0.949495 0.949495
0.959596 0.959596 0.959596
0.989899 0.989899 0.989899
1.000000 1.000000 1.000000
1.000000 1.000000 1.000000
1.000000 1.000000 1.000000
1.000000 1.000000 1.000000
1.000000 1.000000 1.000000
1.000000 1.000000 1.000000
1.000000 1.000000 1.000000
0.949495 0.949495 0.949495
0.868687 0.868687 0.868687
0.000000 0.000000 0.000000
0.070707 0.070707 0.070707
0.090909 0.090909 0.090909
0.636364 0.636364 0.636364
0.808081 0.808081 0.808081
0.878788 0.878788 0.878788
0.929293 0.929293 0.929293
0.959596 0.959596 0.959596
0.989899 0.989899 0.989899
0.989899 0.989899 0.989899
1.000000 1.000000 1.000000
1.000000 1.000000 1.000000
1.000000 1.000000 1.000000
1.000000 1.000000 1.000000
0.939394 0.939394 0.939394
0.858586 0.858586 0.858586
0.010101 0.010101 0.010101
0.000000 0.000000 0.000000
0.080808 0.080808 0.080808
0.080808 0.080808 0.080808
0.464646 0.464646 0.464646
0.676768 0.676768 0.676768
0.828283 0.828283 0.828283
0.858586 0.858586 0.858586
0.898990 0.898990 0.898990
0.929293 0.929293 0.929293
0.969697 0.969697 0.969697
0.969697 0.969697 0.969697
0.969697 0.969697 0.969697
0.979798 0.979798 0.979798
0.919192 0.919192 0.919192
0.848485 0.848485 0.848485
0.000000 0.000000 0.000000
0.010101 0.010101 0.010101
0.000000 0.000000 0.000000
0.030303 0.030303 0.030303
0.111111 0.111111 0.111111
0.404040 0.404040 0.404040
0.646465 0.646465 0.646465
0.808081 0.808081 0.808081
0.868687 0.868687 0.868687
0.878788 0.878788 0.878788
0.919192 0.919192 0.919192
0.919192 0.919192 0.919192
0.939394 0.939394 0.939394
0.949495 0.949495 0.949495
0.898990 0.898990 0.898990
0.818182 0.818182 0.818182
0.000000 0.000000 0.000000
0.000000 0.000000 0.000000
0.000000 0.000000 0.000000
0.000000 0.000000 0.000000
0.030303 0.030303 0.030303
0.262626 0.262626 0.262626
0.353535 0.353535 0.353535
0.535354 0.535354 0.535354
0.686869 0.686869 0.686869
0.767677 0.767677 0.767677
0.848485 0.848485 0.848485
0.868687 0.868687 0.868687
0.888889 0.888889 0.888889
0.909091 0.909091 0.909091
0.858586 0.858586 0.858586
0.787879 0.787879 0.787879
0.000000 0.000000 0.000000
0.000000 0.000000 0.000000
0.000000 0.000000 0.000000
0.000000 0.000000 0.000000
0.000000 0.000000 0.000000
0.000000 0.000000 0.000000
0.070707 0.070707 0.070707
0.373737 0.373737 0.373737
0.484848 0.484848 0.484848
0.696970 0.696970 0.696970
0.747475 0.747475 0.747475
0.797980 0.797980 0.797980
0.828283 0.828283 0.828283
0.858586 0.858586 0.858586
0.818182 0.818182 0.818182
0.747475 0.747475 0.747475
0.000000 0.000000 0.000000
0.000000 0.000000 0.000000
0.000000 0.000000 0.000000
0.000000 0.000000 0.000000
0.000000 0.000000 0.000000
0.000000 0.000000 0.000000
0.000000 0.000000 0.000000
0.141414 0.141414 0.141414
0.282828 0.282828 0.282828
0.494949 0.494949 0.494949
0.575758 0.575758 0.575758
0.707071 0.707071 0.707071
0.757576 0.757576 0.757576
0.787879 0.787879 0.787879
0.767677 0.767677 0.767677
0.696970 0.696970 0.696970
0.000000 0.000000 0.000000
0.000000 0.000000 0.000000
0.000000 0.000000 0.000000
0.000000 0.000000 0.000000
0.000000 0.000000 0.000000
0.000000 0.000000 0.000000
0.000000 0.000000 0.000000
0.000000 0.000000 0.000000
0.020202 0.020202 0.020202
0.272727 0.272727 0.272727
0.393939 0.393939 0.393939
0.535354 0.535354 0.535354
0.656566 0.656566 0.656566
0.707071 0.707071 0.707071
0.707071 0.707071 0.707071
0.636364 0.636364 0.636364
0.000000 0.000000 0.000000
0.000000 0.000000 0.000000
0.000000 0.000000 0.000000
0.000000 0.000000 0.000000
0.000000 0.000000 0.000000
0.000000 0.000000 0.000000
0.000000 0.000000 0.000000
0.000000 0.000000 0.000000
0.000000 0.000000 0.000000
0.000000 0.000000 0.000000
0.282828 0.282828 0.282828
0.353535 0.353535 0.353535
0.515152 0.515152 0.515152
0.595960 0.595960 0.595960
0.636364 0.636364 0.636364
0.565657 0.565657 0.565657
0.000000 0.000000 0.000000
0.000000 0.000000 0.000000
0.000000 0.000000 0.000000
0.000000 0.000000 0.000000
0.000000 0.000000 0.000000
0.000000 0.000000 0.000000
0.000000 0.000000 0.000000
0.000000 0.000000 0.000000
0.000000 0.000000 0.000000
0.000000 0.000000 0.000000
0.020202 0.020202 0.020202
0.202020 0.202020 0.202020
0.333333 0.333333 0.333333
0.474747 0.474747 0.474747
0.555556 0.555556 0.555556
0.474747 0.474747 0.474747
0.000000 0.000000 0.000000
0.000000 0.000000 0.000000
0.000000 0.000000 0.000000
0.000000 0.000000 0.000000
0.000000 0.000000 0.000000
0.000000 0.000000 0.000000
0.000000 0.000000 0.000000
0.000000 0.000000 0.000000
0.000000 0.000000 0.000000
0.000000 0.000000 0.000000
0.000000 0.000000 0.000000
0.010101 0.010101 0.010101
0.121212 0.121212 0.121212
0.313131 0.313131 0.313131
0.434343 0.434343 0.434343
0.383838 0.383838 0.383838
0.000000 0.000000 0.000000
0.000000 0.000000 0.000000
0.000000 0.000000 0.000000
0.000000 0.000000 0.000000
0.000000 0.000000 0.000000
0.000000 0.000000 0.000000
0.000000 0.000000 0.000000
0.000000 0.000000 0.000000
0.000000 0.000000 0.000000
0.000000 0.000000 0.000000
0.000000 0.000000 0.000000
0.000000 0.000000 0.000000
0.000000 0.000000 0.000000
0.171717 0.171717 0.171717
0.282828 0.282828 0.282828
0.282828 0.282828 0.282828
0.000000 0.000000 0.000000
0.000000 0.000000 0.000000
0.000000 0.000000 0.000000
0.000000 0.000000 0.000000
0.000000 0.000000 0.000000
0.000000 0.000000 0.000000
0.000000 0.000000 0.000000
0.000000 0.000000 0.000000
0.000000 0.000000 0.000000
0.000000 0.000000 0.000000
0.000000 0.000000 0.000000
0.000000 0.000000 0.000000
0.000000 0.000000 0.000000
0.000000 0.000000 0.000000
0.111111 0.111111 0.111111
0.161616 0.161616 0.161616
0.000000 0.000000 0.000000
0.000000 0.000000 0.000000
0.000000 0.000000 0.000000
0.000000 0.000000 0.000000
0.000000 0.000000 0.000000
0.000000 0.000000 0.000000
0.000000 0.000000 0.000000
0.000000 0.000000 0.000000
0.000000 0.000000 0.000000
0.000000 0.000000 0.000000
0.000000 0.000000 0.000000
0.000000 0.000000 0.000000
0.000000 0.000000 0.000000
0.000000 0.000000 0.000000
0.000000 0.000000 0.000000
0.030303 0.030303 0.030303
0.000000 0.000000 0.000000
0.000000 0.000000 0.000000
0.000000 0.000000 0.000000
0.000000 0.000000 0.000000
0.000000 0.000000 0.000000
0.000000 0.000000 0.000000
0.000000 0.000000 0.000000
0.000000 0.000000 0.000000
0.000000 0.000000 0.000000
0.000000 0.000000 0.000000
0.000000 0.000000 0.000000
0.000000 0.000000 0.000000
0.000000 0.000000 0.000000
0.000000 0.000000 0.000000
0.000000 0.000000 0.000000
0.000000 0.000000 0.000000
0.262626 0.262626 0.262626
0.202020 0.202020 0.202020
0.818182 0.818182 0.818182
1.000000 1.000000 1.000000
1.000000 1.000000 1.000000
1.000000 1.000000 1.000000
1.000000 1.000000 1.000000
1.000000 1.000000 1.000000
1.000000 1.000000 1.000000
1.000000 1.000000 1.000000
1.000000 1.000000 1.000000
1.000000 1.000000 1.000000
1.000000 1.000000 1.000000
1.000000 1.000000 1.000000
0.959596 0.959596 0.959596
0.878788 0.878788 0.878788
0.121212 0.121212 0.121212
0.343434 0.343434 0.343434
0.818182 0.818182 0.818182
0.979798 0.979798 0.979798
0.969697 0.969697 0.969697
0.969697 0.969697 0.969697
0.989899 0.989899 0.989899
0.989899 0.989899 0.989899
1.000000 1.000000 1.000000
1.000000 1.000000 1.000000
1.000000 1.000000 1.000000
1.000000 1.000000 1.000000
1.000000 1.000000 1.000000
1.000000 1.000000 1.000000
0.949495 0.949495 0.949495
0.878788 0.878788 0.878788
0.181818 0.181818 0.181818
0.343434 0.343434 0.343434
0.636364 0.636364 0.636364
0.757576 0.757576 0.757576
0.787879 0.787879 0.787879
0.909091 0.909091 0.909091
0.939394 0.939394 0.939394
0.969697 0.969697 0.969697
0.959596 0.959596 0.959596
0.989899 0.989899 0.989899
0.989899 0.989899 0.989899
1.000000 1.000000 1.000000
1.000000 1.000000 1.000000
1.000000 1.000000 1.000000
0.939394 0.939394 0.939394
0.868687 0.868687 0.868687
0.000000 0.000000 0.000000
0.050505 0.050505 0.050505
0.161616 0.161616 0.161616
0.070707 0.070707 0.070707
0.606061 0.606061 0.606061
0.707071 0.707071 0.707071
0.838384 0.838384 0.838384
0.868687 0.868687 0.868687
0.909091 0.909091 0.909091
0.949495 0.949495 0.949495
0.959596 0.959596 0.959596
0.959596 0.959596 0.959596
0.969697 0.969697 0.969697
0.979798 0.979798 0.979798
0.919192 0.919192 0.919192
0.848485 0.848485 0.848485
0.000000 0.000000 0.000000
0.000000 0.000000 0.000000
0.000000 0.000000 0.000000
0.121212 0.121212 0.121212
0.252525 0.252525 0.252525
0.454545 0.454545 0.454545
0.595960 0.595960 0.595960
0.787879 0.787879 0.787879
0.868687 0.868687 0.868687
0.868687 0.868687 0.868687
0.898990 0.898990 0.898990
0.919192 0.919192 0.919192
0.939394 0.939394 0.939394
0.949495 0.949495 0.949495
0.898990 0.898990 0.898990
0.828283 0.828283 0.828283
0.000000 0.000000 0.000000
0.000000 0.000000 0.000000
0.000000 0.000000 0.000000
0.000000 0.000000 0.000000
0.252525 0.252525 0.252525
0.292929 0.292929 0.292929
0.424242 0.424242 0.424242
0.686869 0.686869 0.686869
0.676768 0.676768 0.676768
0.767677 0.767677 0.767677
0.828283 0.828283 0.828283
0.858586 0.858586 0.858586
0.888889 0.888889 0.888889
0.909091 0.909091 0.909091
0.868687 0.868687 0.868687
0.787879 0.787879 0.787879
0.000000 0.000000 0.000000
0.000000 0.000000 0.000000
0.000000 0.000000 0.000000
0.000000 0.000000 0.000000
0.000000 0.000000 0.000000
0.000000 0.000000 0.000000
0.494949 0.494949 0.494949
0.464646 0.464646 0.464646
0.535354 0.535354 0.535354
0.656566 0.656566 0.656566
0.717172 0.717172 0.717172
0.797980 0.797980 0.797980
0.828283 0.828283 0.828283
0.858586 0.858586 0.858586
0.818182 0.818182 0.818182
0.747475 0.747475 0.747475
0.000000 0.000000 0.000000
0.000000 0.000000 0.000000
0.000000 0.000000 0.000000
0.000000 0.000000 0.000000
0.000000 0.000000 0.000000
0.000000 0.000000 0.000000
0.282828 0.282828 0.282828
