tests/cmyk.cube
LUT_3D_SIZE 16
DOMAIN_MIN 0 0 0
DOMAIN_MAX 1 1 1
0.037627 0.003683 0.040058
0.072851 0.001428 0.029247
0.112666 0.025297 0.003000
0.197172 0.006091 0.010269
0.259721 0.020419 0.016817
0.327144 0.023090 0.028414
0.391365 0.032514 0.039484
0.458328 0.046484 0.053679
0.522318 0.059997 0.067234
0.590473 0.074263 0.081670
0.655356 0.087761 0.095412
0.720266 0.102087 0.109760
0.787054 0.115000 0.123304
0.853075 0.128601 0.137287
0.875835 0.271099 0.136389
0.885884 0.383218 0.130316
0.042869 0.061496 0.011073
0.070362 0.062978 0.007470
0.133679 0.065005 0.005929
0.200069 0.064161 0.009278
0.263296 0.071303 0.015649
0.333867 0.060841 0.027455
0.401099 0.053928 0.041363
0.466935 0.048310 0.055503
0.531318 0.063949 0.070515
0.596749 0.075572 0.082999
0.660852 0.088901 0.096576
0.725097 0.103092 0.110787
0.791394 0.115894 0.124223
0.856982 0.129404 0.138114
0.875835 0.271099 0.136389
0.887307 0.396198 0.129426
0.079362 0.112249 0.025843
0.094395 0.120535 0.024375
0.136765 0.130519 0.008733
0.200884 0.131809 0.008703
0.267645 0.131534 0.013587
0.328976 0.136178 0.022114
0.397752 0.134647 0.035932
0.463217 0.135677 0.050904
0.529679 0.136733 0.066963
0.598816 0.124524 0.081834
0.667433 0.119972 0.097084
0.728759 0.135121 0.109997
0.799980 0.117665 0.126042
0.864725 0.130998 0.139754
0.877280 0.290338 0.135538
0.888727 0.408676 0.128529
0.122535 0.167061 0.047412
0.126840 0.178094 0.054657
0.159853 0.185656 0.040559
0.205655 0.195846 0.010558
0.267408 0.199120 0.006517
0.333688 0.199201 0.018942
0.395633 0.202964 0.029052
0.464653 0.200068 0.047907
0.531416 0.200735 0.061954
0.597601 0.198150 0.077570
0.664254 0.196938 0.093537
0.730010 0.202922 0.108063
0.795404 0.203163 0.121941
0.863759 0.198488 0.137294
0.880160 0.324878 0.133820
0.890144 0.420700 0.127626
0.168706 0.227451 0.075020
0.168744 0.234025 0.080774
0.195520 0.240422 0.070463
0.226449 0.250864 0.056903
0.274195 0.262296 0.014028
0.334118 0.265319 0.011496
0.396872 0.269397 0.020320
0.468229 0.263777 0.039690
0.531767 0.265032 0.055456
0.598122 0.265243 0.072020
0.666510 0.260287 0.088897
0.732452 0.264574 0.103995
0.799387 0.261327 0.119617
0.864163 0.266986 0.133989
0.883028 0.355501 0.132079
0.894379 0.454445 0.124880
0.212337 0.287752 0.104255
0.213489 0.293276 0.108481
0.227263 0.299576 0.106404
0.260382 0.306566 0.090954
0.294333 0.316283 0.071328
0.342174 0.328305 0.018731
0.401192 0.332812 0.009888
0.466027 0.334409 0.025651
0.533091 0.330871 0.047005
0.599096 0.333213 0.064975
0.664950 0.331680 0.083297
0.732191 0.331910 0.099015
0.797110 0.330030 0.113889
0.861905 0.332252 0.129001
0.888727 0.408676 0.128529
0.898587 0.485319 0.122073
0.254356 0.347162 0.133700
0.258953 0.353213 0.136533
0.263457 0.359142 0.139308
0.289899 0.363871 0.128031
0.326278 0.371525 0.108718
0.362311 0.381309 0.084255
0.409656 0.393629 0.024224
0.465187 0.401576 0.010085
0.533810 0.397893 0.031327
0.598322 0.400418 0.053287
0.663463 0.400647 0.071090
0.731357 0.398070 0.091162
0.800319 0.394658 0.108133
0.864848 0.396902 0.123885
0.894379 0.454445 0.124880
0.904157 0.522995 0.118231
0.300528 0.407887 0.162132
0.300528 0.407887 0.162132
0.310633 0.415719 0.163541
0.322817 0.421342 0.161674
0.352793 0.429691 0.150452
0.393475 0.436190 0.124247
0.432493 0.447310 0.095009
0.476274 0.460896 0.039717
0.534414 0.465638 0.014564
0.599676 0.465357 0.037517
0.665736 0.465774 0.062276
0.730454 0.466414 0.078744
0.797730 0.465818 0.097926
0.863289 0.465778 0.116808
0.901377 0.504601 0.120167
0.911057 0.565727 0.113255
0.346070 0.467682 0.190138
0.346070 0.467682 0.190138
0.349281 0.471895 0.192112
0.359619 0.479294 0.193013
0.388623 0.484971 0.180830
0.422578 0.491851 0.163295
0.458948 0.501761 0.142030
0.497231 0.514612 0.115025
0.542358 0.526509 0.053918
0.599985 0.532578 0.013235
0.663789 0.535516 0.037634
0.733562 0.531916 0.065397
0.800299 0.530424 0.087234
0.862591 0.535041 0.106402
0.909683 0.557513 0.114266
0.919247 0.612107 0.106996
0.390940 0.526530 0.217706
0.390940 0.526530 0.217706
0.393711 0.530163 0.219408
0.399184 0.537337 0.222769
0.419728 0.544427 0.217579
0.452377 0.548919 0.200903
0.483303 0.558376 0.187381
0.523975 0.568015 0.160963
0.565773 0.578263 0.123356
0.610781 0.592787 0.063669
0.667303 0.598822 0.017516
0.732307 0.599389 0.046722
0.798976 0.599516 0.072779
0.865357 0.598454 0.093097
0.919247 0.612107 0.106996
0.928682 0.661069 0.099238
0.435151 0.584471 0.244853
0.435151 0.584471 0.244853
0.439995 0.590817 0.247826
0.442392 0.593957 0.249297
0.459688 0.601825 0.246721
0.484070 0.607352 0.237143
0.515687 0.615308 0.223384
0.552057 0.623127 0.202445
0.593089 0.633338 0.173872
0.634444 0.645637 0.137595
0.677584 0.659122 0.078553
0.731050 0.667031 0.016610
0.799866 0.665717 0.047960
0.864546 0.667660 0.074726
0.930019 0.667689 0.098085
0.939312 0.711829 0.089643
0.483701 0.640067 0.267565
0.483701 0.640067 0.267565
0.492797 0.644238 0.266189
0.501686 0.648374 0.264805
0.510381 0.652476 0.263413
0.527232 0.660582 0.260603
0.553918 0.670314 0.252289
0.582126 0.679759 0.241132
0.621577 0.687755 0.215842
0.661713 0.699509 0.188006
0.701781 0.711170 0.150442
0.745571 0.723695 0.084360
0.800823 0.733401 0.014384
0.866169 0.733478 0.055004
0.933331 0.731295 0.081435
0.952379 0.769319 0.076227
0.574094 0.684163 0.251953
0.574094 0.684163 0.251953
0.581441 0.687991 0.250478
0.588671 0.691793 0.248993
0.595790 0.695567 0.247498
0.609708 0.703037 0.244476
0.623231 0.710406 0.241411
0.642833 0.721276 0.236727
0.667829 0.735446 0.230315
0.691669 0.749269 0.223693
0.726485 0.765523 0.206423
0.767212 0.777649 0.168232
0.814552 0.789995 0.092710
0.869541 0.798527 0.028047
0.929814 0.802336 0.051023
0.965213 0.821680 0.060548
0.649199 0.724852 0.235143
0.655485 0.728406 0.233546
0.655485 0.728406 0.233546
0.661694 0.731937 0.231937
0.673891 0.738934 0.228680
0.685810 0.745845 0.225369
0.697465 0.752674 0.222003
0.714489 0.762768 0.216844
0.736398 0.775961 0.209744
0.757490 0.788867 0.202368
0.782822 0.804622 0.192708
0.811871 0.823009 0.180372
0.839618 0.840872 0.167057
0.882625 0.856365 0.104263
0.934163 0.866709 0.020438
0.980322 0.879240 0.036563
0.731001 0.772690 0.211544
0.731001 0.772690 0.211544
0.736398 0.775961 0.209744
0.741745 0.779214 0.207927
0.747041 0.782449 0.206093
0.757490 0.788867 0.202368
0.767754 0.795218 0.198566
0.782822 0.804622 0.192708
0.802341 0.816940 0.184583
0.821257 0.829020 0.176053
0.844126 0.843801 0.164727
0.870537 0.861102 0.149953
0.895933 0.877957 0.133513
0.924411 0.897097 0.111355
0.955598 0.918332 0.079462
0.996350 0.936457 0.006855
0.802341 0.816940 0.184583
0.802341 0.816940 0.184583
0.807124 0.819982 0.182491
0.811871 0.823009 0.180372
0.816582 0.826021 0.178227
0.825897 0.832003 0.173850
0.839618 0.840872 0.167057
0.853050 0.849620 0.159960
0.870537 0.861102 0.149953
0.887574 0.872386 0.139210
0.908282 0.886226 0.124485
0.928205 0.900310 0.155966
0.951655 0.916239 0.140801
0.978080 0.934372 0.120718
1.000000 0.950086 0.152571
1.000000 0.951682 0.249071
0.035043 0.010268 0.050151
0.059477 0.008205 0.064896
0.133573 0.000000 0.066536
0.199268 0.002541 0.066937
0.264091 0.008200 0.067641
0.329821 0.020380 0.066024
0.394633 0.034175 0.065685
0.460762 0.048966 0.061910
0.526014 0.062133 0.068921
0.590473 0.074263 0.081670
0.655356 0.087761 0.095412
0.722672 0.101705 0.109669
0.787054 0.115000 0.123304
0.853075 0.128601 0.137287
0.875835 0.271099 0.136389
0.885884 0.383218 0.130316
0.028457 0.056277 0.067496
0.066543 0.066829 0.066911
0.133521 0.066078 0.066514
0.200216 0.066540 0.067103
0.267174 0.066575 0.066832
0.333213 0.066087 0.066214
0.400380 0.068235 0.066449
0.466242 0.065741 0.067357
0.533165 0.063649 0.070447
0.596749 0.075572 0.082999
0.661815 0.090743 0.097897
0.727519 0.102707 0.110696
0.791394 0.115894 0.124223
0.856982 0.129404 0.138114
0.875835 0.271099 0.136389
0.887307 0.396198 0.129426
0.071972 0.115244 0.069556
0.087796 0.126358 0.068047
0.133411 0.133337 0.065889
0.199869 0.133492 0.066843
0.267577 0.132326 0.067491
0.334050 0.132862 0.064905
0.400602 0.131576 0.066848
0.467339 0.131000 0.065601
0.531518 0.136931 0.066824
0.600923 0.126189 0.083367
0.663120 0.142525 0.095295
0.731128 0.136427 0.111126
0.799980 0.117665 0.126042
0.864725 0.130998 0.139754
0.877280 0.290338 0.135538
0.888727 0.408676 0.128529
0.124672 0.175811 0.070562
0.127856 0.180003 0.071336
0.144302 0.195476 0.070182
0.199758 0.199990 0.066863
0.266141 0.200138 0.066752
0.332959 0.200791 0.067157
0.400082 0.199845 0.067925
0.466320 0.200301 0.068595
0.533746 0.197754 0.071392
0.599818 0.199837 0.079292
0.666502 0.197258 0.093344
0.730010 0.202922 0.108063
0.797076 0.204302 0.123019
0.863759 0.198488 0.137294
0.880160 0.324878 0.133820
0.890144 0.420700 0.127626
0.168744 0.234025 0.080774
0.175897 0.239971 0.084030
0.182750 0.250176 0.088650
0.212529 0.261009 0.079152
0.267671 0.266456 0.066932
0.332950 0.267166 0.065374
0.400879 0.266251 0.065033
0.467271 0.265602 0.067152
0.533061 0.266093 0.070115
0.600453 0.267148 0.074018
0.667519 0.261581 0.090629
0.732452 0.264574 0.103995
0.799387 0.261327 0.119617
0.864163 0.266986 0.133989
0.883028 0.355501 0.132079
0.894379 0.454445 0.124880
0.213489 0.293276 0.108481
0.213489 0.293276 0.108481
0.223870 0.302810 0.111227
0.246299 0.313358 0.107649
0.284519 0.324190 0.090620
0.333289 0.333345 0.068822
0.399979 0.333203 0.065114
0.466425 0.332895 0.066855
0.533453 0.332596 0.066454
0.599359 0.334541 0.067996
0.667257 0.332512 0.082795
0.732191 0.331910 0.099015
0.798865 0.331317 0.115163
0.865890 0.333943 0.129801
0.888727 0.408676 0.128529
0.898587 0.485319 0.122073
0.254356 0.347162 0.133700
0.258953 0.353213 0.136533
0.263457 0.359142 0.139308
0.279070 0.370042 0.140363
0.316723 0.377484 0.122969
0.354074 0.387234 0.101613
0.398644 0.400635 0.069628
0.466583 0.400295 0.068276
0.533323 0.399905 0.068710
0.600322 0.399772 0.061026
0.667304 0.398776 0.076274
0.733869 0.399074 0.090497
0.797032 0.402032 0.106439
0.865974 0.397977 0.125188
0.894379 0.454445 0.124880
0.904157 0.522995 0.118231
0.300528 0.407887 0.162132
0.304322 0.412872 0.164467
0.308061 0.417783 0.166767
0.315382 0.427398 0.171270
0.344238 0.434694 0.161070
0.381484 0.441680 0.141342
0.422960 0.453337 0.115918
0.467240 0.466419 0.074492
0.534537 0.466168 0.066485
0.601442 0.465647 0.068537
0.665718 0.468221 0.070241
0.734898 0.464730 0.083384
0.799670 0.467503 0.099621
0.866219 0.466924 0.116064
0.901377 0.504601 0.120167
0.911057 0.565727 0.113255
0.346070 0.467682 0.190138
0.349281 0.471895 0.192112
0.352456 0.476062 0.194063
0.358706 0.484260 0.197904
0.376751 0.489873 0.192798
0.410124 0.498359 0.179506
0.446610 0.507508 0.160758
0.494770 0.518059 0.123795
0.538532 0.531233 0.076373
0.600356 0.532823 0.069138
0.667125 0.533123 0.059337
0.733940 0.533245 0.069294
0.798717 0.535439 0.087551
0.868500 0.531291 0.107044
0.909683 0.557513 0.114266
0.919247 0.612107 0.106996
0.390940 0.526530 0.217706
0.393711 0.530163 0.219408
0.396459 0.533765 0.221096
0.401885 0.540878 0.224428
0.412648 0.548039 0.224887
0.445403 0.554492 0.211153
0.476859 0.561609 0.196049
0.518112 0.571161 0.171082
0.560347 0.583411 0.139802
0.604663 0.597025 0.091033
0.665749 0.600686 0.063838
0.734012 0.599683 0.072227
0.798976 0.599516 0.072779
0.866767 0.600039 0.095303
0.919247 0.612107 0.106996
0.928682 0.661069 0.099238
0.435151 0.584471 0.244853
0.437582 0.587655 0.246344
0.439995 0.590817 0.247826
0.444773 0.597076 0.250759
0.451822 0.606310 0.255086
0.481603 0.610151 0.241358
0.510663 0.618617 0.230405
0.544823 0.628802 0.215174
0.582884 0.636813 0.189727
0.628955 0.649595 0.152831
0.671413 0.662254 0.103047
0.732266 0.667396 0.067430
0.798855 0.667483 0.060840
0.867952 0.665848 0.076575
0.930019 0.667689 0.098085
0.940629 0.717850 0.088380
0.483701 0.640067 0.267565
0.483701 0.640067 0.267565
0.492797 0.644238 0.266189
0.501686 0.648374 0.264805
0.510381 0.652476 0.263413
0.527232 0.660582 0.260603
0.551297 0.672506 0.256320
0.576144 0.681788 0.247930
0.616132 0.691483 0.225542
0.653906 0.703171 0.202367
0.697593 0.713420 0.161323
0.742362 0.727948 0.106182
0.798132 0.734000 0.064692
0.866647 0.733175 0.070930
0.934263 0.732729 0.084578
0.952379 0.769319 0.076227
0.574094 0.684163 0.251953
0.574094 0.684163 0.251953
0.581441 0.687991 0.250478
0.588671 0.691793 0.248993
0.595790 0.695567 0.247498
0.609708 0.703037 0.244476
0.629852 0.714053 0.239861
0.649199 0.724852 0.235143
0.667829 0.735446 0.230315
0.697465 0.752674 0.222003
0.724457 0.765779 0.209321
0.765767 0.779639 0.174350
0.808290 0.792930 0.119512
0.866529 0.799562 0.069158
0.933975 0.800080 0.064013
0.965213 0.821680 0.060548
0.655485 0.728406 0.233546
0.655485 0.728406 0.233546
0.661694 0.731937 0.231937
0.667829 0.735446 0.230315
0.673891 0.738934 0.228680
0.685810 0.745845 0.225369
0.697465 0.752674 0.222003
0.714489 0.762768 0.216844
0.736398 0.775961 0.209744
0.757490 0.788867 0.202368
0.782822 0.804622 0.192708
0.811871 0.823009 0.180372
0.839618 0.840872 0.167057
0.879780 0.858302 0.119175
0.934771 0.866202 0.077252
0.980322 0.879240 0.036563
0.731001 0.772690 0.211544
0.731001 0.772690 0.211544
0.736398 0.775961 0.209744
0.741745 0.779214 0.207927
0.747041 0.782449 0.206093
0.757490 0.788867 0.202368
0.772819 0.798369 0.196634
0.787761 0.807724 0.190712
0.802341 0.816940 0.184583
0.825897 0.832003 0.173850
0.844126 0.843801 0.164727
0.870537 0.861102 0.149953
0.895933 0.877957 0.133513
0.924411 0.897097 0.111355
0.955598 0.918332 0.079462
0.996350 0.936457 0.006855
0.801791 0.817447 0.214031
0.801791 0.817447 0.214031
0.806590 0.820489 0.212314
0.811352 0.823517 0.210582
0.816077 0.826530 0.208834
0.825423 0.832513 0.205289
0.839186 0.841383 0.199841
0.852658 0.850132 0.194224
0.865856 0.858764 0.188424
0.887283 0.872903 0.178304
0.908049 0.886746 0.167528
0.928205 0.900310 0.155966
0.955489 0.918858 0.138110
0.981779 0.936925 0.117576
1.000000 0.950086 0.152571
1.000000 0.951682 0.249071
0.012362 0.063569 0.108555
0.062015 0.051619 0.116477
0.121711 0.023869 0.132327
0.194726 0.014241 0.133068
0.266513 0.001114 0.133014
0.331753 0.008443 0.132449
0.397089 0.022333 0.132828
0.461353 0.038095 0.131730
0.527172 0.053151 0.133596
0.593818 0.069676 0.132205
0.657659 0.084656 0.132873
0.723682 0.100365 0.127640
0.789320 0.115593 0.134432
0.854159 0.129846 0.138221
0.876398 0.270887 0.149463
0.887423 0.383209 0.174017
0.030036 0.072264 0.126570
0.059552 0.071293 0.133233
0.134349 0.065575 0.133440
0.199951 0.066418 0.133663
0.266760 0.065767 0.133478
0.333613 0.065310 0.133432
0.399366 0.067772 0.133156
0.466642 0.067376 0.133645
0.533757 0.064266 0.133851
0.600127 0.070944 0.134028
0.663173 0.085774 0.134328
0.728535 0.101359 0.128779
0.793618 0.116479 0.135396
0.858030 0.130647 0.139044
0.876961 0.270674 0.161461
0.888320 0.396230 0.160724
0.052239 0.120539 0.134620
0.068942 0.132478 0.133872
0.134177 0.132927 0.133239
0.200325 0.133058 0.133443
0.267139 0.132921 0.133986
0.332536 0.134450 0.133010
0.399807 0.132817 0.133638
0.466344 0.134347 0.133516
0.532721 0.135635 0.133614
0.599899 0.134370 0.134043
0.666702 0.133837 0.129462
0.733186 0.132883 0.132544
0.800328 0.130851 0.135283
0.865705 0.132234 0.140675
0.878391 0.290001 0.161369
0.889726 0.408743 0.160632
0.111462 0.180438 0.134782
0.118654 0.184186 0.135233
0.137122 0.198369 0.133239
0.200236 0.200184 0.133150
0.266896 0.199867 0.133692
0.333431 0.199773 0.133171
0.399528 0.200720 0.134076
0.466711 0.199820 0.132255
0.532640 0.201386 0.133732
0.600383 0.198807 0.134302
0.666606 0.200052 0.134955
0.733642 0.197655 0.135096
0.799206 0.205126 0.135364
0.865718 0.200517 0.139239
0.881243 0.324679 0.161185
0.891622 0.420849 0.174624
0.159296 0.236070 0.139871
0.168200 0.244026 0.135593
0.175753 0.254131 0.136474
0.200464 0.266386 0.132911
0.267304 0.266321 0.133556
0.332782 0.266844 0.133642
0.399413 0.266709 0.134191
0.466953 0.266649 0.133599
0.533127 0.266665 0.134140
0.600248 0.265702 0.132141
0.667302 0.266225 0.132544
0.732703 0.267094 0.131578
0.800593 0.264789 0.137015
0.866176 0.268907 0.136091
0.884083 0.355408 0.161001
0.895323 0.454631 0.160262
0.208987 0.294266 0.141361
0.215631 0.301405 0.137870
0.220987 0.308583 0.141743
0.233723 0.321838 0.131509
0.266042 0.333044 0.134737
0.334577 0.332877 0.132633
0.399576 0.333593 0.132985
0.467034 0.332895 0.134108
0.533341 0.332941 0.135986
0.600994 0.332849 0.133115
0.666164 0.334558 0.133090
0.733656 0.333666 0.134154
0.799867 0.333058 0.132203
0.865890 0.333943 0.129801
0.889227 0.408709 0.145481
0.899490 0.485578 0.159984
0.257640 0.353504 0.147143
0.263457 0.359142 0.139308
0.267874 0.364954 0.142029
0.276463 0.376252 0.147319
0.290715 0.389841 0.151547
0.333678 0.400396 0.134247
0.401131 0.399311 0.132868
0.466492 0.400280 0.134792
0.533379 0.400343 0.133256
0.599831 0.399839 0.131748
0.667627 0.399241 0.133023
0.733039 0.401029 0.129270
0.800099 0.400092 0.136368
0.866823 0.401100 0.130890
0.894851 0.454538 0.143675
0.905007 0.523337 0.159612
0.304322 0.412872 0.164467
0.308061 0.417783 0.166767
0.311747 0.422625 0.169034
0.318967 0.432106 0.173475
0.325997 0.441337 0.177798
0.362004 0.452353 0.166606
0.405176 0.463333 0.145841
0.465697 0.467046 0.134167
0.533298 0.466386 0.134131
0.600247 0.466517 0.131400
0.666638 0.466652 0.133849
0.733021 0.467228 0.135142
0.799587 0.467151 0.134690
0.866656 0.467049 0.135608
0.901816 0.504752 0.141385
0.911842 0.566156 0.159147
0.349281 0.471895 0.192112
0.349281 0.471895 0.192112
0.352456 0.476062 0.194063
0.358706 0.484260 0.197904
0.367840 0.496240 0.203516
0.396789 0.504557 0.194354
0.436467 0.514541 0.176911
0.478841 0.525702 0.152584
0.534133 0.532477 0.132684
0.599966 0.532970 0.135170
0.666782 0.532846 0.133942
0.734264 0.532683 0.133200
0.799360 0.533922 0.130672
0.866318 0.532662 0.136938
0.910082 0.557719 0.138586
0.919955 0.612626 0.158586
0.393711 0.530163 0.219408
0.393711 0.530163 0.219408
0.396459 0.533765 0.221096
0.401885 0.540878 0.224428
0.409860 0.551329 0.229325
0.428727 0.562150 0.228510
0.465135 0.568752 0.211957
0.503469 0.578059 0.192667
0.550640 0.590151 0.161790
0.599832 0.600618 0.131515
0.666530 0.600091 0.133889
0.732731 0.600343 0.132782
0.799095 0.600502 0.132652
0.864626 0.601616 0.131933
0.919601 0.612366 0.135248
0.929303 0.661677 0.157930
0.437582 0.587655 0.246344
0.439995 0.590817 0.247826
0.442392 0.593957 0.249297
0.447138 0.600174 0.252210
0.451822 0.606310 0.255086
0.465446 0.616430 0.256603
0.497257 0.623618 0.244312
0.534251 0.632721 0.227773
0.574708 0.645253 0.208186
0.619245 0.654638 0.173576
0.666566 0.666548 0.132346
0.733206 0.666499 0.135786
0.800231 0.666346 0.132305
0.866312 0.666930 0.133913
0.930324 0.667998 0.131330
0.940886 0.718202 0.127292
0.483701 0.640067 0.267565
0.492797 0.644238 0.266189
0.492797 0.644238 0.266189
0.501686 0.648374 0.264805
0.518893 0.656545 0.262012
0.535406 0.664588 0.259184
0.551297 0.672506 0.256320
0.574094 0.684163 0.251953
0.604175 0.696708 0.241978
0.643319 0.708564 0.220621
0.688672 0.719224 0.183777
0.734086 0.732443 0.140850
0.800054 0.733342 0.132453
0.865109 0.734007 0.131718
0.932781 0.733887 0.131987
0.952583 0.769714 0.122595
0.574094 0.684163 0.251953
0.574094 0.684163 0.251953
0.581441 0.687991 0.250478
0.588671 0.691793 0.248993
0.595790 0.695567 0.247498
0.609708 0.703037 0.244476
0.629852 0.714053 0.239861
0.649199 0.724852 0.235143
0.667829 0.735446 0.230315
0.697465 0.752674 0.222003
0.725551 0.769401 0.213327
0.757447 0.784538 0.195385
0.802206 0.798826 0.147913
0.866642 0.799581 0.136047
0.932799 0.799642 0.130870
0.965361 0.822117 0.117163
0.655485 0.728406 0.233546
0.655485 0.728406 0.233546
0.661694 0.731937 0.231937
0.667829 0.735446 0.230315
0.673891 0.738934 0.228680
0.685810 0.745845 0.225369
0.703199 0.756058 0.220299
0.720048 0.766094 0.215094
0.736398 0.775961 0.209744
0.762644 0.792051 0.200477
0.787761 0.807724 0.190712
0.811871 0.823009 0.180372
0.839618 0.840872 0.167057
0.875541 0.861863 0.140332
0.934684 0.865440 0.138169
0.980405 0.879721 0.110310
0.730198 0.773190 0.236611
0.730198 0.773190 0.236611
0.736398 0.775961 0.209744
0.740982 0.779715 0.233536
0.746298 0.782951 0.231981
0.756785 0.789370 0.228835
0.772819 0.798369 0.196634
0.787162 0.808230 0.219090
0.801791 0.817447 0.214031
0.825423 0.832513 0.205289
0.843708 0.844313 0.197988
0.870197 0.861616 0.186447
0.895666 0.878475 0.174078
0.924220 0.897619 0.158349
0.955489 0.918858 0.138110
0.996365 0.936981 0.102407
0.801240 0.817953 0.239541
0.801240 0.817953 0.239541
0.806055 0.820996 0.238083
0.810832 0.824024 0.236615
0.815573 0.827037 0.235136
0.824948 0.833022 0.232147
0.838753 0.841893 0.227580
0.852267 0.850644 0.222907
0.865504 0.859278 0.218121
0.886992 0.873419 0.209873
0.907815 0.887265 0.201250
0.928026 0.900832 0.192199
0.951536 0.916764 0.180685
0.978027 0.934902 0.166170
1.000000 0.950618 0.190775
1.000000 0.952213 0.273071
0.028756 0.104736 0.167178
0.024201 0.109690 0.172342
0.116738 0.087291 0.182775
0.183339 0.049942 0.198864
0.258184 0.032536 0.199384
0.331456 0.009202 0.200127
0.399714 0.005322 0.200252
0.463908 0.021174 0.199345
0.527998 0.037943 0.200807
0.594384 0.057861 0.198817
0.659081 0.077157 0.199440
0.724274 0.091725 0.197577
0.791959 0.108347 0.195917
0.856605 0.123876 0.193302
0.879504 0.247721 0.226097
0.889470 0.383197 0.218505
0.018128 0.115986 0.178982
0.042685 0.115161 0.184091
0.124698 0.094173 0.194120
0.198783 0.067901 0.200076
0.267398 0.064718 0.199837
0.333832 0.066065 0.199917
0.400562 0.066224 0.199630
0.467441 0.064218 0.200054
0.533545 0.066055 0.199661
0.600525 0.062568 0.200047
0.664992 0.080989 0.198805
0.729204 0.092682 0.199177
0.796323 0.109209 0.197211
0.860527 0.124660 0.194371
0.880328 0.269396 0.219432
0.889981 0.383194 0.228149
0.026838 0.130189 0.199667
0.067949 0.132762 0.200538
0.132744 0.133876 0.199978
0.200300 0.133103 0.200211
0.266216 0.133731 0.200320
0.332764 0.134349 0.199808
0.400382 0.131723 0.199720
0.466813 0.133196 0.200021
0.533368 0.133202 0.199860
0.599589 0.135027 0.200419
0.666967 0.133893 0.200371
0.734109 0.130945 0.197614
0.800339 0.131324 0.199265
0.868301 0.126214 0.196490
0.881715 0.288988 0.220701
0.891349 0.396326 0.229364
0.085363 0.185857 0.200561
0.099860 0.193025 0.199798
0.133942 0.199581 0.200373
0.200302 0.199643 0.200031
0.266893 0.199782 0.199928
0.332955 0.200736 0.199936
0.400171 0.200157 0.199915
0.467081 0.199388 0.199994
0.533405 0.199991 0.199547
0.599631 0.201098 0.200065
0.667670 0.197721 0.199316
0.733323 0.198864 0.200282
0.800153 0.200393 0.201262
0.866243 0.197990 0.199414
0.883943 0.324181 0.214239
0.893586 0.421048 0.221644
0.141740 0.239501 0.204351
0.151327 0.248552 0.202796
0.160797 0.257152 0.199675
0.199605 0.267341 0.199319
0.267301 0.266336 0.200070
0.333318 0.266906 0.199698
0.399704 0.267108 0.200331
0.467428 0.266161 0.199112
0.533585 0.266416 0.200433
0.600028 0.265922 0.199894
0.666660 0.266240 0.199402
0.732996 0.266797 0.199657
0.799616 0.266825 0.200077
0.866542 0.267272 0.201220
0.886712 0.355177 0.216383
0.896316 0.444106 0.223709
0.196013 0.296966 0.205937
0.202459 0.304165 0.206385
0.208804 0.311144 0.206332
0.221223 0.324501 0.204714
0.268169 0.332767 0.199012
0.332571 0.333641 0.200204
0.399567 0.333739 0.200199
0.466615 0.333052 0.201230
0.533265 0.333299 0.200123
0.599907 0.333782 0.200444
0.666132 0.334085 0.200246
0.733618 0.332308 0.201353
0.799843 0.333875 0.199318
0.866126 0.332847 0.201450
0.890845 0.396310 0.219557
0.901294 0.486095 0.216082
0.248227 0.355528 0.206183
0.252573 0.361491 0.209969
0.258243 0.367039 0.206189
0.268008 0.378088 0.205187
0.282974 0.393732 0.197142
0.331167 0.401019 0.200118
0.399382 0.400348 0.200162
0.466036 0.400235 0.200855
0.533182 0.400333 0.199689
0.599951 0.400069 0.200073
0.666551 0.399846 0.201140
0.733162 0.399548 0.199594
0.800219 0.400693 0.199214
0.866090 0.400358 0.199455
0.896736 0.454909 0.201655
0.906281 0.523849 0.206238
0.298236 0.414201 0.208625
0.301910 0.419127 0.211388
0.305532 0.423982 0.214112
0.314227 0.433145 0.208994
0.326204 0.446575 0.205059
0.341149 0.463789 0.201615
0.399807 0.466427 0.199753
