tests/cmyk_0.cube
LUT_3D_SIZE 6
DOMAIN_MIN 0 0 0
DOMAIN_MAX 1 1 1
0.000000 0.682353 0.937255
0.986560 0.992278 0.998175
1.000000 1.000000 1.000000
1.000000 1.000000 1.000000
1.000000 1.000000 1.000000
1.000000 1.000000 1.000000
0.152571 0.690743 0.938578
0.852664 0.918851 0.981546
1.000000 1.000000 1.000000
1.000000 1.000000 1.000000
1.000000 1.000000 1.000000
1.000000 1.000000 1.000000
0.000000 0.682353 0.937255
0.294834 0.711161 0.941874
0.910366 0.949675 0.988366
0.995547 0.997435 0.999392
1.000000 1.000000 1.000000
1.000000 1.000000 1.000000
0.000000 0.682353 0.937255
0.000000 0.682353 0.937255
0.451320 0.749859 0.948422
0.895114 0.941400 0.986512
0.995547 0.997435 0.999392
1.000000 1.000000 1.000000
0.382922 0.730844 0.945156
0.411972 0.738527 0.946464
0.475337 0.757292 0.949725
0.586512 0.796573 0.956846
0.905320 0.946927 0.987748
1.000000 1.000000 1.000000
0.745249 0.865240 0.970249
0.758179 0.871413 0.971513
0.795340 0.889594 0.975292
0.858122 0.921710 0.982169
0.939899 0.965943 0.992059
1.000000 1.000000 1.000000
0.000000 0.682353 0.937255
0.000000 0.682353 0.937255
0.995547 0.997435 0.999392
1.000000 1.000000 1.000000
1.000000 1.000000 1.000000
1.000000 1.000000 1.000000
0.000000 0.682353 0.937255
0.858122 0.921710 0.982169
0.711573 0.849549 0.967080
0.745249 0.865240 0.970249
1.000000 1.000000 1.000000
1.000000 1.000000 1.000000
0.000000 0.682353 0.937255
0.000000 0.682353 0.937255
0.100502 0.686565 0.937917
0.852664 0.918851 0.981546
0.939899 0.965943 0.992059
1.000000 1.000000 1.000000
0.000000 0.682353 0.937255
0.000000 0.682353 0.937255
0.100502 0.686565 0.937917
0.745249 0.865240 0.970249
0.939899 0.965943 0.992059
1.000000 1.000000 1.000000
0.382922 0.730844 0.945156
0.411972 0.738527 0.946464
0.486793 0.760973 0.950375
0.595337 0.800020 0.957490
0.770827 0.877528 0.972775
1.000000 1.000000 1.000000
0.745249 0.865240 0.970249
0.758179 0.871413 0.971513
0.795340 0.889594 0.975292
0.852664 0.918851 0.981546
0.939899 0.965943 0.992059
1.000000 1.000000 1.000000
0.000000 0.682353 0.937255
0.000000 0.682353 0.937255
0.100502 0.686565 0.937917
0.795340 0.889594 0.975292
1.000000 1.000000 1.000000
1.000000 1.000000 1.000000
0.000000 0.682353 0.937255
0.000000 0.682353 0.937255
0.000000 0.682353 0.937255
0.704585 0.846365 0.966445
0.895114 0.941400 0.986512
1.000000 1.000000 1.000000
0.000000 0.682353 0.937255
0.000000 0.682353 0.937255
0.751750 0.868334 0.970882
0.986560 0.992278 0.998175
0.977463 0.987085 0.996956
1.000000 1.000000 1.000000
0.000000 0.682353 0.937255
0.000000 0.682353 0.937255
0.000000 0.682353 0.937255
0.508742 0.768266 0.951674
0.905320 0.946927 0.987748
1.000000 1.000000 1.000000
0.397773 0.734698 0.945810
0.411972 0.738527 0.946464
0.486793 0.760973 0.950375
0.595337 0.800020 0.957490
0.841607 0.913099 0.980299
1.000000 1.000000 1.000000
0.738674 0.862132 0.969617
0.751750 0.868334 0.970882
0.789305 0.886598 0.974663
0.852664 0.918851 0.981546
0.935062 0.963257 0.991445
1.000000 1.000000 1.000000
0.000000 0.682353 0.937255
0.000000 0.682353 0.937255
0.000000 0.682353 0.937255
0.333453 0.719118 0.943189
0.770827 0.877528 0.972775
1.000000 1.000000 1.000000
0.000000 0.682353 0.937255
0.000000 0.682353 0.937255
0.000000 0.682353 0.937255
0.411972 0.738527 0.946464
0.783209 0.883588 0.974034
1.000000 1.000000 1.000000
0.000000 0.682353 0.937255
0.000000 0.682353 0.937255
0.222074 0.699003 0.939898
0.558959 0.786114 0.954911
0.879511 0.933029 0.984654
1.000000 1.000000 1.000000
0.000000 0.682353 0.937255
0.000000 0.682353 0.937255
0.100502 0.686565 0.937917
0.991067 0.994861 0.998784
0.939899 0.965943 0.992059
1.000000 1.000000 1.000000
0.397773 0.734698 0.945810
0.425591 0.742329 0.947117
0.497920 0.764631 0.951025
0.595337 0.800020 0.957490
0.910366 0.949675 0.988366
1.000000 1.000000 1.000000
0.738674 0.862132 0.969617
0.751750 0.868334 0.970882
0.783209 0.883588 0.974034
0.847159 0.915981 0.980923
0.930192 0.960561 0.990830
1.000000 1.000000 1.000000
0.000000 0.682353 0.937255
0.000000 0.682353 0.937255
0.000000 0.682353 0.937255
0.000000 0.682353 0.937255
0.475337 0.757292 0.949725
0.847159 0.915981 0.980923
0.000000 0.682353 0.937255
0.000000 0.682353 0.937255
0.000000 0.682353 0.937255
0.000000 0.682353 0.937255
0.519281 0.771879 0.952322
0.874228 0.930216 0.984033
0.000000 0.682353 0.937255
0.000000 0.682353 0.937255
0.000000 0.682353 0.937255
0.273071 0.707138 0.941216
0.620856 0.810245 0.959418
0.920349 0.955138 0.989599
0.000000 0.682353 0.937255
0.222074 0.699003 0.939898
0.350886 0.723054 0.943845
0.549380 0.782587 0.954264
0.758179 0.871413 0.971513
0.995547 0.997435 0.999392
0.411972 0.738527 0.946464
0.438690 0.746107 0.947770
0.497920 0.764631 0.951025
0.595337 0.800020 0.957490
0.795340 0.889594 0.975292
1.000000 1.000000 1.000000
0.732021 0.859009 0.968984
0.745249 0.865240 0.970249
0.777050 0.880565 0.973405
0.836007 0.910204 0.979675
0.915376 0.952412 0.988982
1.000000 1.000000 1.000000
0.000000 0.682353 0.937255
0.000000 0.682353 0.937255
0.000000 0.682353 0.937255
0.000000 0.682353 0.937255
0.000000 0.682353 0.937255
0.497920 0.764631 0.951025
0.000000 0.682353 0.937255
0.000000 0.682353 0.937255
0.000000 0.682353 0.937255
0.000000 0.682353 0.937255
0.100502 0.686565 0.937917
0.529556 0.775470 0.952970
0.000000 0.682353 0.937255
0.000000 0.682353 0.937255
0.000000 0.682353 0.937255
0.000000 0.682353 0.937255
0.350886 0.723054 0.943845
0.612501 0.806855 0.958776
0.000000 0.682353 0.937255
0.000000 0.682353 0.937255
0.152571 0.690743 0.938578
0.367329 0.726962 0.944501
0.539583 0.779039 0.953618
0.725288 0.855871 0.968350
0.463523 0.753588 0.949074
0.486793 0.760973 0.950375
0.539583 0.779039 0.953618
0.620856 0.810245 0.959418
0.725288 0.855871 0.968350
0.863534 0.924557 0.982791
0.745249 0.865240 0.970249
0.751750 0.868334 0.970882
0.783209 0.883588 0.974034
0.836007 0.910204 0.979675
0.910366 0.949675 0.988366
1.000000 1.000000 1.000000
