tests/cmyk_2m.cube
LUT_3D_SIZE 6
DOMAIN_MIN 0 0 0
DOMAIN_MAX 1 1 1
0.000000 0.000000 0.000000
1.000000 1.000000 1.000000
1.000000 1.000000 1.000000
1.000000 1.000000 1.000000
1.000000 1.000000 1.000000
1.000000 1.000000 1.000000
1.000000 1.000000 1.000000
1.000000 1.000000 1.000000
1.000000 1.000000 1.000000
1.000000 1.000000 1.000000
1.000000 1.000000 1.000000
1.000000 1.000000 1.000000
1.000000 1.000000 1.000000
1.000000 1.000000 1.000000
1.000000 1.000000 1.000000
1.000000 1.000000 1.000000
1.000000 1.000000 1.000000
1.000000 1.000000 1.000000
1.000000 1.000000 1.000000
1.000000 1.000000 1.000000
1.000000 1.000000 1.000000
1.000000 1.000000 1.000000
1.000000 1.000000 1.000000
1.000000 1.000000 1.000000
1.000000 1.000000 1.000000
1.000000 1.000000 1.000000
1.000000 1.000000 1.000000
1.000000 1.000000 1.000000
1.000000 1.000000 1.000000
1.000000 1.000000 1.000000
1.000000 1.000000 1.000000
1.000000 1.000000 1.000000
1.000000 1.000000 1.000000
1.000000 1.000000 1.000000
0.989899 0.989899 0.989899
0.949495 0.949495 0.949495
0.000000 0.000000 0.000000
0.010101 0.010101 0.010101
0.242424 0.242424 0.242424
0.747475 0.747475 0.747475
0.909091 0.909091 0.909091
0.929293 0.929293 0.929293
0.515152 0.515152 0.515152
0.181818 0.181818 0.181818
0.707071 0.707071 0.707071
0.878788 0.878788 0.878788
0.909091 0.909091 0.909091
0.929293 0.929293 0.929293
0.919192 0.919192 0.919192
0.939394 0.939394 0.939394
0.979798 0.979798 0.979798
0.898990 0.898990 0.898990
0.939394 0.939394 0.939394
0.949495 0.949495 0.949495
1.000000 1.000000 1.000000
1.000000 1.000000 1.000000
1.000000 1.000000 1.000000
0.959596 0.959596 0.959596
0.949495 0.949495 0.949495
0.959596 0.959596 0.959596
1.000000 1.000000 1.000000
1.000000 1.000000 1.000000
1.000000 1.000000 1.000000
1.000000 1.000000 1.000000
0.989899 0.989899 0.989899
0.959596 0.959596 0.959596
0.959596 0.959596 0.959596
0.959596 0.959596 0.959596
0.959596 0.959596 0.959596
0.959596 0.959596 0.959596
0.959596 0.959596 0.959596
0.919192 0.919192 0.919192
0.000000 0.000000 0.000000
0.000000 0.000000 0.000000
0.000000 0.000000 0.000000
0.000000 0.000000 0.000000
0.353535 0.353535 0.353535
0.606061 0.606061 0.606061
0.000000 0.000000 0.000000
0.000000 0.000000 0.000000
0.303030 0.303030 0.303030
0.303030 0.303030 0.303030
0.505050 0.505050 0.505050
0.626263 0.626263 0.626263
0.505050 0.505050 0.505050
0.585859 0.585859 0.585859
0.313131 0.313131 0.313131
0.343434 0.343434 0.343434
0.585859 0.585859 0.585859
0.696970 0.696970 0.696970
0.828283 0.828283 0.828283
0.838384 0.838384 0.838384
0.878788 0.878788 0.878788
0.838384 0.838384 0.838384
0.747475 0.747475 0.747475
0.777778 0.777778 0.777778
0.878788 0.878788 0.878788
0.878788 0.878788 0.878788
0.878788 0.878788 0.878788
0.888889 0.888889 0.888889
0.848485 0.848485 0.848485
0.838384 0.838384 0.838384
0.848485 0.848485 0.848485
0.848485 0.848485 0.848485
0.848485 0.848485 0.848485
0.858586 0.858586 0.858586
0.858586 0.858586 0.858586
0.828283 0.828283 0.828283
0.000000 0.000000 0.000000
0.000000 0.000000 0.000000
0.000000 0.000000 0.000000
0.000000 0.000000 0.000000
0.000000 0.000000 0.000000
0.000000 0.000000 0.000000
0.000000 0.000000 0.000000
0.000000 0.000000 0.000000
0.000000 0.000000 0.000000
0.000000 0.000000 0.000000
0.000000 0.000000 0.000000
0.030303 0.030303 0.030303
0.000000 0.000000 0.000000
0.000000 0.000000 0.000000
0.111111 0.111111 0.111111
0.101010 0.101010 0.101010
0.030303 0.030303 0.030303
0.242424 0.242424 0.242424
0.515152 0.515152 0.515152
0.545455 0.545455 0.545455
0.606061 0.606061 0.606061
0.010101 0.010101 0.010101
0.303030 0.303030 0.303030
0.424242 0.424242 0.424242
0.656566 0.656566 0.656566
0.666667 0.666667 0.666667
0.666667 0.666667 0.666667
0.676768 0.676768 0.676768
0.555556 0.555556 0.555556
0.595960 0.595960 0.595960
0.646465 0.646465 0.646465
0.646465 0.646465 0.646465
0.646465 0.646465 0.646465
0.656566 0.656566 0.656566
0.666667 0.666667 0.666667
0.646465 0.646465 0.646465
0.000000 0.000000 0.000000
0.000000 0.000000 0.000000
0.000000 0.000000 0.000000
0.000000 0.000000 0.000000
0.000000 0.000000 0.000000
0.000000 0.000000 0.000000
0.000000 0.000000 0.000000
0.000000 0.000000 0.000000
0.000000 0.000000 0.000000
0.000000 0.000000 0.000000
0.000000 0.000000 0.000000
0.000000 0.000000 0.000000
0.000000 0.000000 0.000000
0.000000 0.000000 0.000000
0.000000 0.000000 0.000000
0.000000 0.000000 0.000000
0.000000 0.000000 0.000000
0.000000 0.000000 0.000000
0.070707 0.070707 0.070707
0.030303 0.030303 0.030303
0.040404 0.040404 0.040404
0.000000 0.000000 0.000000
0.000000 0.000000 0.000000
0.000000 0.000000 0.000000
0.323232 0.323232 0.323232
0.323232 0.323232 0.323232
0.333333 0.333333 0.333333
0.343434 0.343434 0.343434
0.262626 0.262626 0.262626
0.181818 0.181818 0.181818
0.333333 0.333333 0.333333
0.333333 0.333333 0.333333
0.343434 0.343434 0.343434
0.353535 0.353535 0.353535
0.373737 0.373737 0.373737
0.373737 0.373737 0.373737
0.000000 0.000000 0.000000
0.000000 0.000000 0.000000
0.000000 0.000000 0.000000
0.000000 0.000000 0.000000
0.000000 0.000000 0.000000
0.000000 0.000000 0.000000
0.000000 0.000000 0.000000
0.000000 0.000000 0.000000
0.000000 0.000000 0.000000
0.000000 0.000000 0.000000
0.000000 0.000000 0.000000
0.000000 0.000000 0.000000
0.000000 0.000000 0.000000
0.000000 0.000000 0.000000
0.000000 0.000000 0.000000
0.000000 0.000000 0.000000
0.000000 0.000000 0.000000
0.000000 0.000000 0.000000
0.000000 0.000000 0.000000
0.000000 0.000000 0.000000
0.000000 0.000000 0.000000
0.000000 0.000000 0.000000
0.000000 0.000000 0.000000
0.000000 0.000000 0.000000
0.000000 0.000000 0.000000
0.000000 0.000000 0.000000
0.000000 0.000000 0.000000
0.000000 0.000000 0.000000
0.000000 0.000000 0.000000
0.000000 0.000000 0.000000
0.000000 0.000000 0.000000
0.000000 0.000000 0.000000
0.000000 0.000000 0.000000
0.000000 0.000000 0.000000
0.000000 0.000000 0.000000
0.000000 0.000000 0.000000
