tests/cmyk_1.cube
LUT_3D_SIZE 6
DOMAIN_MIN 0 0 0
DOMAIN_MAX 1 1 1
0.925490 0.000000 0.549020
0.925490 0.000000 0.549020
0.925490 0.000000 0.549020
0.925490 0.000000 0.549020
0.925490 0.000000 0.549020
0.934943 0.382922 0.627566
1.000000 1.000000 1.000000
1.000000 1.000000 1.000000
0.942725 0.508742 0.684473
0.931020 0.294834 0.596446
0.927865 0.190775 0.569963
0.937287 0.425591 0.645321
1.000000 1.000000 1.000000
1.000000 1.000000 1.000000
1.000000 1.000000 1.000000
0.955002 0.652915 0.764520
0.938845 0.451320 0.656816
0.945043 0.539583 0.700395
1.000000 1.000000 1.000000
1.000000 1.000000 1.000000
1.000000 1.000000 1.000000
1.000000 1.000000 1.000000
0.964075 0.738674 0.818037
0.958796 0.690332 0.787398
1.000000 1.000000 1.000000
1.000000 1.000000 1.000000
1.000000 1.000000 1.000000
1.000000 1.000000 1.000000
1.000000 1.000000 1.000000
0.979685 0.863534 0.901984
1.000000 1.000000 1.000000
1.000000 1.000000 1.000000
1.000000 1.000000 1.000000
1.000000 1.000000 1.000000
1.000000 1.000000 1.000000
1.000000 1.000000 1.000000
0.981155 0.874228 0.909453
0.925490 0.000000 0.549020
0.925490 0.000000 0.549020
0.925490 0.000000 0.549020
0.925490 0.000000 0.549020
0.934943 0.382922 0.627566
1.000000 1.000000 1.000000
0.994973 0.968252 0.976711
0.938066 0.438690 0.651101
0.929444 0.249071 0.583397
0.927865 0.190775 0.569963
0.937287 0.425591 0.645321
1.000000 1.000000 1.000000
1.000000 1.000000 1.000000
0.964075 0.738674 0.818037
0.951953 0.620856 0.745552
0.938845 0.451320 0.656816
0.945043 0.539583 0.700395
1.000000 1.000000 1.000000
1.000000 1.000000 1.000000
1.000000 1.000000 1.000000
0.995693 0.972872 0.980083
0.962571 0.725288 0.809438
0.958796 0.690332 0.787398
1.000000 1.000000 1.000000
1.000000 1.000000 1.000000
1.000000 1.000000 1.000000
1.000000 1.000000 1.000000
0.997850 0.986560 0.990108
0.979685 0.863534 0.901984
1.000000 1.000000 1.000000
1.000000 1.000000 1.000000
1.000000 1.000000 1.000000
1.000000 1.000000 1.000000
1.000000 1.000000 1.000000
1.000000 1.000000 1.000000
0.997132 0.982025 0.986781
0.960308 0.704585 0.796310
0.925490 0.000000 0.549020
0.925490 0.000000 0.549020
0.925490 0.000000 0.549020
0.933376 0.350886 0.615361
0.999284 0.995547 0.996717
0.955002 0.652915 0.764520
0.929444 0.249071 0.583397
0.929444 0.249071 0.583397
0.927865 0.190775 0.569963
0.935725 0.397773 0.633556
1.000000 1.000000 1.000000
0.998567 0.991067 0.993420
0.984085 0.895114 0.924153
0.954241 0.645092 0.759836
0.939622 0.463523 0.662467
0.943499 0.519281 0.689834
1.000000 1.000000 1.000000
1.000000 1.000000 1.000000
1.000000 1.000000 1.000000
0.975998 0.836007 0.882945
0.961063 0.711573 0.800717
0.958039 0.683060 0.782892
1.000000 1.000000 1.000000
1.000000 1.000000 1.000000
1.000000 1.000000 1.000000
1.000000 1.000000 1.000000
0.999284 0.995547 0.996717
0.978949 0.858122 0.898218
1.000000 1.000000 1.000000
1.000000 1.000000 1.000000
1.000000 1.000000 1.000000
1.000000 1.000000 1.000000
1.000000 1.000000 1.000000
1.000000 1.000000 1.000000
1.000000 1.000000 1.000000
0.997132 0.982025 0.986781
0.941175 0.486793 0.673587
0.934160 0.367329 0.621502
0.930233 0.273071 0.589968
0.931806 0.314850 0.602836
1.000000 1.000000 1.000000
0.989912 0.935062 0.952661
0.941175 0.486793 0.673587
0.934943 0.382922 0.627566
0.931806 0.314850 0.602836
0.933376 0.350886 0.615361
1.000000 1.000000 1.000000
0.974519 0.824656 0.875176
0.950423 0.603997 0.735828
0.942725 0.508742 0.684473
0.938845 0.451320 0.656816
0.941951 0.497920 0.679058
1.000000 1.000000 1.000000
1.000000 1.000000 1.000000
0.987732 0.920349 0.942104
1.000000 1.000000 1.000000
0.961063 0.711573 0.800717
0.955763 0.660618 0.769167
1.000000 1.000000 1.000000
1.000000 1.000000 1.000000
1.000000 1.000000 1.000000
1.000000 1.000000 1.000000
0.999284 0.995547 0.996717
0.977475 0.847159 0.890625
1.000000 1.000000 1.000000
1.000000 1.000000 1.000000
1.000000 1.000000 1.000000
1.000000 1.000000 1.000000
1.000000 1.000000 1.000000
1.000000 1.000000 1.000000
1.000000 1.000000 1.000000
1.000000 1.000000 1.000000
0.963323 0.732021 0.813752
0.961063 0.711573 0.800717
0.959553 0.697506 0.791870
0.950423 0.603997 0.735828
1.000000 1.000000 1.000000
1.000000 1.000000 1.000000
0.962571 0.725288 0.809438
0.963323 0.732021 0.813752
0.959553 0.697506 0.791870
0.950423 0.603997 0.735828
1.000000 1.000000 1.000000
1.000000 1.000000 1.000000
0.964075 0.738674 0.818037
0.966325 0.758179 0.830717
0.961063 0.711573 0.800717
0.952716 0.629068 0.750353
1.000000 1.000000 1.000000
0.999284 0.995547 0.996717
0.980421 0.868903 0.905728
0.967822 0.770827 0.839032
0.963323 0.732021 0.813752
0.956522 0.668207 0.773777
1.000000 1.000000 1.000000
1.000000 1.000000 1.000000
1.000000 1.000000 1.000000
1.000000 1.000000 1.000000
0.986276 0.910366 0.934978
0.974519 0.824656 0.875176
1.000000 1.000000 1.000000
1.000000 1.000000 1.000000
1.000000 1.000000 1.000000
1.000000 1.000000 1.000000
1.000000 1.000000 1.000000
1.000000 1.000000 1.000000
1.000000 1.000000 1.000000
1.000000 1.000000 1.000000
0.987732 0.920349 0.942104
0.993530 0.958924 0.969920
1.000000 1.000000 1.000000
0.996413 0.977463 0.983440
1.000000 1.000000 1.000000
1.000000 1.000000 1.000000
0.989912 0.935062 0.952661
0.994973 0.968252 0.976711
1.000000 1.000000 1.000000
0.995693 0.972872 0.980083
1.000000 1.000000 1.000000
1.000000 1.000000 1.000000
0.996413 0.977463 0.983440
1.000000 1.000000 1.000000
1.000000 1.000000 1.000000
0.995693 0.972872 0.980083
1.000000 1.000000 1.000000
1.000000 1.000000 1.000000
1.000000 1.000000 1.000000
1.000000 1.000000 1.000000
1.000000 1.000000 1.000000
0.995693 0.972872 0.980083
1.000000 1.000000 1.000000
1.000000 1.000000 1.000000
1.000000 1.000000 1.000000
1.000000 1.000000 1.000000
1.000000 1.000000 1.000000
0.997132 0.982025 0.986781
1.000000 1.000000 1.000000
1.000000 1.000000 1.000000
1.000000 1.000000 1.000000
1.000000 1.000000 1.000000
1.000000 1.000000 1.000000
1.000000 1.000000 1.000000
