tests/rebeccapurple_0.cube
LUT_3D_SIZE 16
DOMAIN_MIN 0 0 0
DOMAIN_MAX 1 1 1
0.400000 0.200000 0.600000
0.400000 0.200000 0.600000
0.400000 0.200000 0.600000
0.400000 0.200000 0.600000
0.400000 0.200000 0.600000
0.400000 0.200000 0.600000
0.400000 0.200000 0.600000
0.400000 0.200000 0.600000
0.400000 0.200000 0.600000
0.400000 0.200000 0.600000
0.400000 0.200000 0.600000
0.400000 0.200001 0.600000
0.430156 0.266593 0.614665
0.468758 0.336507 0.634653
0.507338 0.397697 0.655893
0.545851 0.453753 0.678252
0.400000 0.200000 0.600000
0.400000 0.200000 0.600000
0.400000 0.200000 0.600000
0.400000 0.200000 0.600000
0.400000 0.200000 0.600000
0.400000 0.200000 0.600000
0.400000 0.200000 0.600000
0.400000 0.200000 0.600000
0.400000 0.200000 0.600000
0.400000 0.200000 0.600000
0.400000 0.200000 0.600000
0.400000 0.200000 0.600000
0.433593 0.273343 0.616391
0.471883 0.341717 0.636328
0.510118 0.401883 0.657469
0.548393 0.457324 0.679766
0.400000 0.200000 0.600000
0.400000 0.200000 0.600000
0.400000 0.200000 0.600000
0.400000 0.200000 0.600000
0.400000 0.200000 0.600000
0.400000 0.200000 0.600000
0.400000 0.200000 0.600000
0.400000 0.200000 0.600000
0.400000 0.200000 0.600000
0.400000 0.200000 0.600000
0.400000 0.200000 0.600000
0.402279 0.205649 0.601078
0.439818 0.285256 0.619544
0.477545 0.351026 0.639383
0.515297 0.409619 0.660422
0.553071 0.463860 0.682563
0.400000 0.200000 0.600000
0.400000 0.200000 0.600000
0.400000 0.200000 0.600000
0.400000 0.200000 0.600000
0.400000 0.200000 0.600000
0.400000 0.200000 0.600000
0.400000 0.200000 0.600000
0.400000 0.200000 0.600000
0.400000 0.200000 0.600000
0.400000 0.200000 0.600000
0.400000 0.200000 0.600000
0.413447 0.231636 0.606433
0.449880 0.303769 0.624713
0.486618 0.365625 0.644335
0.523594 0.421845 0.665195
0.560711 0.474440 0.687166
0.400000 0.200000 0.600000
0.400000 0.200000 0.600000
0.400000 0.200000 0.600000
0.400000 0.200000 0.600000
0.400000 0.200000 0.600000
0.400000 0.200000 0.600000
0.400000 0.200000 0.600000
0.400000 0.200000 0.600000
0.400000 0.200000 0.600000
0.400000 0.200000 0.600000
0.400000 0.200001 0.600000
0.429063 0.264419 0.614119
0.464011 0.328487 0.632125
0.499440 0.385659 0.651447
0.535287 0.438758 0.672010
0.571429 0.489099 0.693690
0.400000 0.200000 0.600000
0.400000 0.200000 0.600000
0.400000 0.200000 0.600000
0.400000 0.200000 0.600000
0.400000 0.200000 0.600000
0.400000 0.200000 0.600000
0.400000 0.200000 0.600000
0.400000 0.200000 0.600000
0.400000 0.200000 0.600000
0.400000 0.200000 0.600000
0.416601 0.238546 0.607967
0.448864 0.301937 0.624187
0.482041 0.358307 0.641828
0.515949 0.410587 0.660795
0.550428 0.460173 0.680981
0.585456 0.507989 0.702343
0.400000 0.200000 0.600000
0.400000 0.200000 0.600000
0.400000 0.200000 0.600000
0.400000 0.200000 0.600000
0.400000 0.200000 0.600000
0.400000 0.200000 0.600000
0.400000 0.200000 0.600000
0.400000 0.200000 0.600000
0.400000 0.200001 0.600000
0.413709 0.232217 0.606560
0.442485 0.290246 0.620905
0.472566 0.342849 0.636695
0.503833 0.392382 0.653914
0.535961 0.439722 0.672405
0.568972 0.485757 0.692187
0.602584 0.530653 0.713081
0.400000 0.200000 0.600000
0.400000 0.200000 0.600000
0.400000 0.200000 0.600000
0.400000 0.200000 0.600000
0.400000 0.200000 0.600000
0.400000 0.200000 0.600000
0.400000 0.200000 0.600000
0.400001 0.200001 0.600000
0.420910 0.247736 0.610078
0.445480 0.295777 0.622441
0.471873 0.341701 0.636322
0.499779 0.386182 0.651637
0.529039 0.429765 0.668356
0.559412 0.472649 0.686380
0.590730 0.515012 0.705630
0.622872 0.557000 0.726033
0.400000 0.200000 0.600000
0.400000 0.200000 0.600000
0.400000 0.200000 0.600000
0.400000 0.200000 0.600000
0.400000 0.200001 0.600000
0.404910 0.212009 0.602328
0.420065 0.245956 0.609662
0.437781 0.281399 0.618508
0.457883 0.317933 0.628889
0.480099 0.355175 0.640770
0.504250 0.393016 0.654149
0.530076 0.431264 0.668960
0.557311 0.469745 0.685112
0.585866 0.508536 0.702598
0.615499 0.547482 0.721297
0.646064 0.586552 0.741135
0.418981 0.243656 0.609130
0.420988 0.247899 0.610116
0.424573 0.255338 0.611886
0.430504 0.267284 0.614840
0.438877 0.283480 0.619065
0.449731 0.303501 0.624636
0.463082 0.326902 0.631632
0.478872 0.353187 0.640103
0.496912 0.381760 0.650034
0.517069 0.412247 0.661437
0.539157 0.444281 0.674287
0.562963 0.477537 0.688530
0.588307 0.511791 0.704117
0.615022 0.546865 0.720992
0.642980 0.582654 0.739109
0.671950 0.618930 0.758342
0.468330 0.335789 0.634424
0.470080 0.338718 0.635360
0.473226 0.343941 0.637050
0.478401 0.352421 0.639847
0.485699 0.364163 0.643830
0.495354 0.379346 0.649166
0.507210 0.397504 0.655820
0.521313 0.418503 0.663878
0.537582 0.442038 0.673359
0.555918 0.467816 0.684274
0.576141 0.495480 0.696582
0.598121 0.524786 0.710265
0.621644 0.555419 0.725242
0.646645 0.587286 0.741518
0.672934 0.620150 0.759003
0.700284 0.653753 0.777572
0.517503 0.412888 0.661686
0.519039 0.415157 0.662568
0.521827 0.419258 0.664174
0.526421 0.425966 0.666833
0.532944 0.435397 0.670636
0.541510 0.447622 0.675677
0.552124 0.462540 0.681996
0.564859 0.480137 0.689681
0.579610 0.500155 0.698721
0.596309 0.522397 0.709125
0.614870 0.546669 0.720895
0.635113 0.572668 0.733966
0.656987 0.600287 0.748352
0.680315 0.629273 0.763977
0.704946 0.659429 0.780774
0.730791 0.690641 0.798707
0.566679 0.482627 0.690789
0.568029 0.484471 0.691612
0.570523 0.487868 0.693135
0.574614 0.493416 0.695643
0.580440 0.501270 0.699234
0.588120 0.511542 0.704001
0.597731 0.524273 0.710020
0.609255 0.539372 0.717312
0.622679 0.556752 0.725909
0.637937 0.576259 0.735808
0.654983 0.597775 0.747023
0.673726 0.621131 0.759535
0.694024 0.646110 0.773289
0.715820 0.672610 0.788281
0.738973 0.700441 0.804448
0.763337 0.729413 0.821710
0.615692 0.547733 0.721421
0.616914 0.549314 0.722204
0.619168 0.552228 0.723651
0.622866 0.556993 0.726030
0.628165 0.563795 0.729453
0.635091 0.572639 0.733952
0.643771 0.583655 0.739629
0.654265 0.596874 0.746547
0.666542 0.612214 0.754718
0.680591 0.629613 0.764163
0.696296 0.648887 0.774841
0.713615 0.669944 0.786755
0.732505 0.692697 0.799908
0.752896 0.717035 0.814282
0.774626 0.742741 0.829792
0.797580 0.769666 0.846378
0.664752 0.609986 0.753521
0.665821 0.611316 0.754235
0.667856 0.613848 0.755597
0.671204 0.618006 0.757841
0.676009 0.623956 0.761072
0.682331 0.631759 0.765341
0.690274 0.641518 0.770733
0.699867 0.653246 0.777286
0.711111 0.666911 0.785023
0.724062 0.682554 0.794009
0.738582 0.699973 0.804172
0.754695 0.719172 0.815559
0.772275 0.739970 0.828105
0.791300 0.762321 0.841820
0.811690 0.786111 0.856672
0.833361 0.811225 0.872621
0.713701 0.670048 0.786815
0.714704 0.671261 0.787509
0.716539 0.673480 0.788780
0.719589 0.677163 0.790897
0.723981 0.682455 0.793952
0.729786 0.689434 0.798004
0.737034 0.698122 0.803085
0.745885 0.708691 0.809319
0.756283 0.721056 0.816687
0.768198 0.735160 0.825184
0.781677 0.751036 0.834865
0.796669 0.768601 0.845716
0.813100 0.787750 0.857705
0.830891 0.808371 0.870795
0.850085 0.830499 0.885039
0.870469 0.853871 0.900296
0.400000 0.200000 0.600000
0.400000 0.200000 0.600000
0.400000 0.200000 0.600000
0.400000 0.200000 0.600000
0.400000 0.200000 0.600000
0.400000 0.200000 0.600000
0.400000 0.200000 0.600000
0.400000 0.200000 0.600000
0.400000 0.200000 0.600000
0.400000 0.200000 0.600000
0.400000 0.200000 0.600000
0.400000 0.200000 0.600000
0.432075 0.270377 0.615627
0.470557 0.339512 0.635616
0.508953 0.400133 0.656808
0.547339 0.455845 0.679137
0.400000 0.200000 0.600000
0.400000 0.200000 0.600000
0.400000 0.200000 0.600000
0.400000 0.200000 0.600000
0.400000 0.200000 0.600000
0.400000 0.200000 0.600000
0.400000 0.200000 0.600000
0.400000 0.200000 0.600000
0.400000 0.200000 0.600000
0.400000 0.200000 0.600000
0.400000 0.200000 0.600000
0.400000 0.200001 0.600000
0.435492 0.277017 0.617349
0.473633 0.344612 0.637269
0.511726 0.404295 0.658384
0.549855 0.459371 0.680638
0.400000 0.200000 0.600000
0.400000 0.200000 0.600000
0.400000 0.200000 0.600000
0.400000 0.200000 0.600000
0.400000 0.200000 0.600000
0.400000 0.200000 0.600000
0.400000 0.200000 0.600000
0.400000 0.200000 0.600000
0.400000 0.200000 0.600000
0.400000 0.200000 0.600000
0.400000 0.200000 0.600000
0.404380 0.210740 0.602076
0.441752 0.288882 0.620530
0.479225 0.353759 0.640295
0.516874 0.411959 0.661326
0.554538 0.465901 0.683444
0.400000 0.200000 0.600000
0.400000 0.200000 0.600000
0.400000 0.200000 0.600000
0.400000 0.200000 0.600000
0.400000 0.200000 0.600000
0.400000 0.200000 0.600000
0.400000 0.200000 0.600000
0.400000 0.200000 0.600000
0.400000 0.200000 0.600000
0.400000 0.200000 0.600000
0.400000 0.200000 0.600000
0.415580 0.236329 0.607469
0.451785 0.307182 0.625702
0.488337 0.368349 0.645281
0.525123 0.424077 0.666081
0.562118 0.476376 0.688018
0.400000 0.200000 0.600000
0.400000 0.200000 0.600000
0.400000 0.200000 0.600000
0.400000 0.200000 0.600000
0.400000 0.200000 0.600000
0.400000 0.200000 0.600000
0.400000 0.200000 0.600000
0.400000 0.200000 0.600000
0.400000 0.200000 0.600000
0.400000 0.200000 0.600000
0.400000 0.200001 0.600000
0.431005 0.268273 0.615091
0.465796 0.331517 0.633073
0.501058 0.388144 0.652354
0.536731 0.440823 0.672858
0.572823 0.490990 0.694543
0.400000 0.200000 0.600000
0.400000 0.200000 0.600000
0.400000 0.200000 0.600000
0.400000 0.200000 0.600000
0.400000 0.200000 0.600000
0.400000 0.200000 0.600000
0.400000 0.200000 0.600000
0.400000 0.200000 0.600000
0.400000 0.200000 0.600000
0.400000 0.200000 0.600000
0.418661 0.242974 0.608974
0.450689 0.305222 0.625133
0.483735 0.361026 0.642754
0.517512 0.412902 0.661691
0.551863 0.462176 0.681839
0.586731 0.509691 0.703136
0.400000 0.200000 0.600000
0.400000 0.200000 0.600000
0.400000 0.200000 0.600000
0.400000 0.200000 0.600000
0.400000 0.200000 0.600000
0.400000 0.200000 0.600000
0.400000 0.200000 0.600000
0.400000 0.200000 0.600000
0.400000 0.200000 0.600000
0.415783 0.236771 0.607568
0.444354 0.293708 0.621863
0.474327 0.345755 0.637643
0.505470 0.394869 0.654837
0.537513 0.441939 0.673318
0.570337 0.487615 0.693021
0.603873 0.532342 0.713896
0.400000 0.200000 0.600000
0.400000 0.200000 0.600000
0.400000 0.200000 0.600000
0.400000 0.200000 0.600000
0.400000 0.200000 0.600000
0.400000 0.200000 0.600000
0.400000 0.200000 0.600000
0.400649 0.201622 0.600306
0.422946 0.251984 0.611081
0.447387 0.299260 0.623424
0.473601 0.344558 0.637252
0.501395 0.388660 0.652543
0.530546 0.431943 0.669235
0.560807 0.474572 0.687224
0.592058 0.516774 0.706460
0.624123 0.558609 0.726840
0.400000 0.200000 0.600000
0.400000 0.200000 0.600000
0.400000 0.200000 0.600000
0.400000 0.200000 0.600000
0.400000 0.200001 0.600000
0.406999 0.216948 0.603326
0.422090 0.250205 0.610659
0.439703 0.285039 0.619485
0.459674 0.321043 0.629832
0.481858 0.358013 0.641729
0.505892 0.395510 0.655075
0.531590 0.433448 0.669844
0.558775 0.471769 0.685996
0.587222 0.510345 0.703441
0.616731 0.549078 0.722087
0.647220 0.588011 0.741896
0.421030 0.247987 0.610136
0.422940 0.251972 0.611078
0.426610 0.259489 0.612897
0.432499 0.271208 0.615840
0.440704 0.286921 0.619995
0.451597 0.306847 0.625605
0.464913 0.330021 0.632604
0.480545 0.355896 0.641013
0.498583 0.384341 0.650968
0.518635 0.414562 0.662336
0.540646 0.446397 0.675166
0.564341 0.479427 0.689366
0.589659 0.513589 0.704960
0.616295 0.548514 0.721808
0.644137 0.584118 0.739869
0.673059 0.620305 0.759087
0.470106 0.338761 0.635374
0.471808 0.341593 0.636288
0.474989 0.346845 0.638001
0.480123 0.355213 0.640783
0.487407 0.366877 0.644769
0.496994 0.381887 0.650080
0.508790 0.399887 0.656715
0.522912 0.420847 0.664801
0.539123 0.444234 0.674267
0.557335 0.469779 0.685127
0.577530 0.497354 0.697438
0.599376 0.526439 0.711055
0.622897 0.557032 0.726049
0.647788 0.588727 0.742270
0.674017 0.621491 0.759731
0.701327 0.655024 0.778287
0.519094 0.415238 0.662600
0.520599 0.417455 0.663467
0.523413 0.421580 0.665091
0.527925 0.428150 0.667707
0.534432 0.437533 0.671508
0.542971 0.449690 0.676542
0.553586 0.464576 0.682872
0.566266 0.482063 0.690537
0.580974 0.501987 0.699564
0.597614 0.524119 0.709946
0.616105 0.548268 0.721686
0.636340 0.574229 0.734766
0.658143 0.601734 0.749119
0.681412 0.630626 0.764719
0.705992 0.660699 0.781493
0.731869 0.691935 0.799462
0.568061 0.484515 0.691631
0.569417 0.486363 0.692459
0.571887 0.489721 0.693970
0.575947 0.495218 0.696463
0.581810 0.503109 0.700081
0.589425 0.513278 0.704815
0.599003 0.525948 0.710820
0.610523 0.541023 0.718120
0.623905 0.558329 0.726700
0.639140 0.577788 0.736595
0.656141 0.599227 0.747791
0.674835 0.622504 0.760281
0.695106 0.647432 0.774028
0.716816 0.673815 0.788972
0.739922 0.701575 0.805115
0.764287 0.730538 0.822389
0.616967 0.549383 0.722238
0.618168 0.550935 0.723008
0.620444 0.553873 0.724470
0.624128 0.558615 0.726843
0.629395 0.565370 0.730250
0.636299 0.574177 0.734739
0.644993 0.585199 0.740431
0.655433 0.598339 0.747321
0.667667 0.613613 0.755470
0.681655 0.630925 0.764883
0.697355 0.650180 0.775566
0.714662 0.671211 0.787480
0.733552 0.693952 0.800641
0.753850 0.718168 0.814959
0.775528 0.743803 0.830440
0.798472 0.770707 0.847026
0.665821 0.611316 0.754235
0.666974 0.612752 0.755007
0.669011 0.615284 0.756371
0.672318 0.619387 0.758589
0.677136 0.625349 0.761831
0.683443 0.633127 0.766094
0.691341 0.642826 0.771459
0.700941 0.654554 0.778023
0.712206 0.668238 0.785780
0.725095 0.683796 0.794728
0.739556 0.701138 0.804858
0.755645 0.720299 0.816233
0.773199 0.741060 0.828768
0.792195 0.763369 0.842469
0.812597 0.787165 0.857336
0.834187 0.812180 0.873232
0.714704 0.671261 0.787509
0.715686 0.672448 0.788189
0.717588 0.674747 0.789508
0.720616 0.678401 0.791610
0.725013 0.683698 0.794672
0.730787 0.690636 0.798704
0.738064 0.699354 0.803808
0.746891 0.709890 0.810030
0.757218 0.722165 0.817351
0.769139 0.736270 0.825857
0.782606 0.752127 0.835535
0.797580 0.769666 0.846378
0.813950 0.788738 0.858328
0.831761 0.809377 0.871438
0.850869 0.831400 0.885623
0.871275 0.854793 0.900903
0.400000 0.200000 0.600000
0.400000 0.200000 0.600000
0.400000 0.200000 0.600000
0.400000 0.200000 0.600000
0.400000 0.200000 0.600000
0.400000 0.200000 0.600000
0.400000 0.200000 0.600000
0.400000 0.200000 0.600000
0.400000 0.200000 0.600000
0.400000 0.200000 0.600000
0.400000 0.200000 0.600000
0.400000 0.200001 0.600000
0.435689 0.277397 0.617448
0.473801 0.344889 0.637359
0.511880 0.404524 0.658471
0.550026 0.459611 0.680741
0.400000 0.200000 0.600000
0.400000 0.200000 0.600000
0.400000 0.200000 0.600000
0.400000 0.200000 0.600000
0.400000 0.200000 0.600000
0.400000 0.200000 0.600000
0.400000 0.200000 0.600000
0.400000 0.200000 0.600000
0.400000 0.200000 0.600000
0.400000 0.200000 0.600000
0.400000 0.200000 0.600000
0.401439 0.203581 0.600680
0.439080 0.283863 0.619168
0.476847 0.349889 0.639005
0.514658 0.408668 0.660056
0.552582 0.463179 0.682270
0.400000 0.200000 0.600000
0.400000 0.200000 0.600000
0.400000 0.200000 0.600000
0.400000 0.200000 0.600000
0.400000 0.200000 0.600000
0.400000 0.200000 0.600000
0.400000 0.200000 0.600000
0.400000 0.200000 0.600000
0.400000 0.200000 0.600000
0.400000 0.200000 0.600000
0.400000 0.200000 0.600000
0.408284 0.219939 0.603942
0.445279 0.295408 0.622338
0.482422 0.358920 0.642036
0.519711 0.416147 0.662955
0.557173 0.469555 0.685029
0.400000 0.200000 0.600000
0.400000 0.200000 0.600000
0.400000 0.200000 0.600000
0.400000 0.200000 0.600000
0.400000 0.200000 0.600000
0.400000 0.200000 0.600000
0.400000 0.200000 0.600000
0.400000 0.200000 0.600000
0.400000 0.200000 0.600000
0.400000 0.200000 0.600000
0.400000 0.200000 0.600000
0.419336 0.244410 0.609304
0.455201 0.313237 0.627484
0.491431 0.373222 0.646989
0.527964 0.428207 0.667730
0.564668 0.479877 0.689565
0.400000 0.200000 0.600000
0.400000 0.200000 0.600000
0.400000 0.200000 0.600000
0.400000 0.200000 0.600000
0.400000 0.200000 0.600000
0.400000 0.200000 0.600000
0.400000 0.200000 0.600000
0.400000 0.200000 0.600000
0.400000 0.200000 0.600000
0.400000 0.200000 0.600000
0.400909 0.202270 0.600430
0.434605 0.275306 0.616901
0.469053 0.337001 0.634811
0.504064 0.392733 0.654044
0.539540 0.444826 0.674513
0.575315 0.494365 0.696074
0.400000 0.200000 0.600000
0.400000 0.200000 0.600000
0.400000 0.200000 0.600000
0.400000 0.200000 0.600000
0.400000 0.200000 0.600000
0.400000 0.200000 0.600000
0.400000 0.200000 0.600000
0.400000 0.200000 0.600000
0.400000 0.200000 0.600000
0.400000 0.200001 0.600000
0.422424 0.250901 0.610824
0.454152 0.311386 0.626936
0.486871 0.366027 0.644474
0.520404 0.417168 0.663354
0.554522 0.465878 0.683434
0.589238 0.513030 0.704698
0.400000 0.200000 0.600000
0.400000 0.200000 0.600000
0.400000 0.200000 0.600000
0.400000 0.200000 0.600000
0.400000 0.200000 0.600000
0.400000 0.200000 0.600000
0.400000 0.200000 0.600000
0.400000 0.200000 0.600000
0.400000 0.200001 0.600000
0.419596 0.244964 0.609432
0.447870 0.300138 0.623674
0.477537 0.351014 0.639379
0.508391 0.399286 0.656489
0.540269 0.445862 0.674944
0.572888 0.491079 0.694584
0.606293 0.535507 0.715430
0.400000 0.200000 0.600000
0.400000 0.200000 0.600000
0.400000 0.200000 0.600000
0.400000 0.200000 0.600000
0.400000 0.200000 0.600000
0.400000 0.200000 0.600000
0.400000 0.200000 0.600000
0.404634 0.211349 0.602197
0.426658 0.259586 0.612920
0.450839 0.305490 0.625211
0.476857 0.349904 0.639010
0.504422 0.393279 0.654246
0.533327 0.435948 0.670861
0.563431 0.478180 0.688814
0.594505 0.520015 0.707993
0.626364 0.561486 0.728288
0.400000 0.200000 0.600000
0.400000 0.200000 0.600000
0.400000 0.200000 0.600000
0.400000 0.200001 0.600000
0.400000 0.200001 0.600000
0.410934 0.226006 0.605218
0.425827 0.257898 0.612507
0.443252 0.291670 0.621298
0.463048 0.326844 0.631614
0.485015 0.363072 0.643455
0.508860 0.399992 0.656755
0.534366 0.437439 0.671469
0.561360 0.475333 0.687558
0.589673 0.513608 0.704969
0.619032 0.552052 0.723563
0.649414 0.590776 0.743342
0.424770 0.255742 0.611983
0.426669 0.259607 0.612926
0.430292 0.266863 0.614733
0.436090 0.278169 0.617652
0.444326 0.293656 0.621849
0.455003 0.312888 0.627380
0.468187 0.335548 0.634347
0.483755 0.361059 0.642765
0.501600 0.388973 0.652658
0.521507 0.418788 0.663990
0.543374 0.450260 0.676781
0.566957 0.483008 0.690958
0.592095 0.516822 0.706483
0.618613 0.551511 0.723294
0.646343 0.586904 0.741319
0.675129 0.622867 0.760479
0.473352 0.344148 0.637118
0.475091 0.347012 0.638056
0.478184 0.352067 0.639730
0.483306 0.360339 0.642519
0.490507 0.371771 0.646478
0.500042 0.386586 0.651784
0.511770 0.404361 0.658409
0.525713 0.424937 0.666423
0.541851 0.448105 0.675879
0.559987 0.473442 0.686728
0.580021 0.500707 0.698975
0.601824 0.529656 0.712601
0.625174 0.559959 0.727519
0.649951 0.591452 0.743696
0.676078 0.624041 0.761118
0.703302 0.657429 0.779644
0.521974 0.419472 0.664259
0.523482 0.421681 0.665130
0.526251 0.425719 0.666735
0.530773 0.432271 0.669367
0.537253 0.441568 0.673165
0.545690 0.453526 0.678156
0.556242 0.468265 0.684469
0.568828 0.485560 0.692099
0.583477 0.505343 0.701114
0.600043 0.527316 0.711476
0.618424 0.551266 0.723172
0.638555 0.577045 0.736212
0.660285 0.604412 0.750543
0.683422 0.633102 0.766079
0.707957 0.663085 0.782847
0.733689 0.694116 0.800737
0.570629 0.488011 0.693200
0.571929 0.489778 0.693996
0.574462 0.493211 0.695550
0.578472 0.498623 0.698018
0.584246 0.506371 0.701591
0.591905 0.516571 0.706364
0.601427 0.529135 0.712350
0.612862 0.544064 0.719612
0.626148 0.561209 0.728148
0.641361 0.580603 0.738048
0.658274 0.601898 0.749207
0.676895 0.625052 0.761669
0.697070 0.649833 0.775371
0.718734 0.676130 0.790303
0.741745 0.703752 0.806399
0.766023 0.732590 0.823628
0.619257 0.552342 0.723707
0.620488 0.553930 0.724498
0.622729 0.556817 0.725941
0.626417 0.561555 0.728322
0.631598 0.568185 0.731679
0.638497 0.576971 0.736174
0.647199 0.587985 0.741882
0.657586 0.601036 0.748749
0.669761 0.616214 0.756873
0.683705 0.633450 0.766271
0.699319 0.652576 0.776910
0.716601 0.673555 0.788823
0.735388 0.696152 0.801929
0.755647 0.720301 0.816234
0.777239 0.745817 0.831669
0.800127 0.772640 0.848231
0.667958 0.613976 0.755665
0.669040 0.615319 0.756389
0.671081 0.617853 0.757759
0.674400 0.621966 0.759989
0.679148 0.627835 0.763189
0.685430 0.635572 0.767441
0.693331 0.645262 0.772816
0.702878 0.656913 0.779352
0.714094 0.670523 0.787086
0.726969 0.686050 0.796036
0.741418 0.703362 0.806168
0.757412 0.722395 0.817489
0.774931 0.743099 0.830010
0.793873 0.765332 0.843686
0.814159 0.788980 0.858481
0.835768 0.814005 0.874402
0.716642 0.673605 0.788852
0.717646 0.674817 0.789548
0.719451 0.676996 0.790801
0.722518 0.680694 0.792934
0.726851 0.685909 0.795954
0.732650 0.692870 0.800009
0.739873 0.701516 0.805080
0.748674 0.712013 0.811291
0.758998 0.724275 0.818617
0.770889 0.738335 0.827111
0.784290 0.754104 0.836750
0.799237 0.771601 0.847583
0.815557 0.790605 0.859506
0.833318 0.811176 0.872589
0.852434 0.833198 0.886790
0.872762 0.856493 0.902021
0.400000 0.200000 0.600000
0.400000 0.200000 0.600000
0.400000 0.200000 0.600000
0.400000 0.200000 0.600000
0.400000 0.200000 0.600000
0.400000 0.200000 0.600000
0.400000 0.200000 0.600000
0.400000 0.200000 0.600000
0.400000 0.200000 0.600000
0.400000 0.200000 0.600000
0.400000 0.200000 0.600000
0.404205 0.210321 0.601993
0.441560 0.288523 0.620432
0.479089 0.353538 0.640221
0.516721 0.411731 0.661238
0.554388 0.465692 0.683354
0.400000 0.200000 0.600000
0.400000 0.200000 0.600000
0.400000 0.200000 0.600000
0.400000 0.200000 0.600000
0.400000 0.200000 0.600000
0.400000 0.200000 0.600000
0.400000 0.200000 0.600000
0.400000 0.200000 0.600000
0.400000 0.200000 0.600000
0.400000 0.200000 0.600000
0.400000 0.200000 0.600000
0.407923 0.219104 0.603769
0.444904 0.294719 0.622145
0.482090 0.358386 0.641855
0.519441 0.415751 0.662800
0.556923 0.469209 0.684879
0.400000 0.200000 0.600000
0.400000 0.200000 0.600000
0.400000 0.200000 0.600000
0.400000 0.200000 0.600000
0.400000 0.200000 0.600000
0.400000 0.200000 0.600000
0.400000 0.200000 0.600000
0.400000 0.200000 0.600000
0.400000 0.200000 0.600000
0.400000 0.200000 0.600000
0.400000 0.200000 0.600000
0.414676 0.234348 0.607029
0.450997 0.305773 0.625293
0.487607 0.367194 0.644879
0.524431 0.423068 0.665680
0.561479 0.475498 0.687631
0.400000 0.200000 0.600000
0.400000 0.200000 0.600000
0.400000 0.200000 0.600000
0.400000 0.200000 0.600000
0.400000 0.200000 0.600000
0.400000 0.200000 0.600000
0.400000 0.200000 0.600000
0.400000 0.200000 0.600000
0.400000 0.200000 0.600000
0.400000 0.200000 0.600000
0.400000 0.200001 0.600000
0.425502 0.257237 0.612346
0.460747 0.322894 0.630397
0.496496 0.381116 0.649802
0.532563 0.434849 0.670413
0.568953 0.485731 0.692176
0.400000 0.200000 0.600000
0.400000 0.200000 0.600000
0.400000 0.200000 0.600000
0.400000 0.200000 0.600000
0.400000 0.200000 0.600000
0.400000 0.200000 0.600000
0.400000 0.200000 0.600000
0.400000 0.200000 0.600000
0.400000 0.200000 0.600000
0.400000 0.200000 0.600000
0.407466 0.218040 0.603550
0.440540 0.286614 0.619912
0.474423 0.345914 0.637695
0.508990 0.400188 0.656829
0.543989 0.451128 0.677145
0.579510 0.500020 0.698659
0.400000 0.200000 0.600000
0.400000 0.200000 0.600000
0.400000 0.200000 0.600000
0.400000 0.200000 0.600000
0.400000 0.200000 0.600000
0.400000 0.200000 0.600000
0.400000 0.200000 0.600000
0.400000 0.200000 0.600000
0.400000 0.200000 0.600000
0.400000 0.200001 0.600000
0.428474 0.263242 0.613825
0.459745 0.321165 0.629869
0.492009 0.374128 0.647309
0.525086 0.424022 0.666059
0.558852 0.471876 0.686042
0.593229 0.518325 0.707193
0.400000 0.200000 0.600000
0.400000 0.200000 0.600000
0.400000 0.200000 0.600000
0.400000 0.200000 0.600000
0.400000 0.200000 0.600000
0.400000 0.200000 0.600000
0.400000 0.200000 0.600000
0.400000 0.200000 0.600000
0.400004 0.200009 0.600002
0.425741 0.257724 0.612465
0.453555 0.310329 0.626624
0.482792 0.359515 0.642239
0.513228 0.406539 0.659240
0.544726 0.452169 0.677583
0.577117 0.496797 0.697183
0.610138 0.540522 0.717874
0.400000 0.200000 0.600000
0.400000 0.200000 0.600000
0.400000 0.200000 0.600000
0.400000 0.200000 0.600000
0.400000 0.200000 0.600000
0.400000 0.200000 0.600000
0.400000 0.200001 0.600000
