tests/rebeccapurple_0m.cube
LUT_3D_SIZE 6
DOMAIN_MIN 0 0 0
DOMAIN_MAX 1 1 1
1.000000 1.000000 1.000000
1.000000 1.000000 1.000000
1.000000 1.000000 1.000000
1.000000 1.000000 1.000000
0.974487 0.974487 0.974487
0.854586 0.854586 0.854586
1.000000 1.000000 1.000000
1.000000 1.000000 1.000000
1.000000 1.000000 1.000000
1.000000 1.000000 1.000000
0.956547 0.956547 0.956547
0.836553 0.836553 0.836553
1.000000 1.000000 1.000000
1.000000 1.000000 1.000000
1.000000 1.000000 1.000000
0.988685 0.988685 0.988685
0.902278 0.902278 0.902278
0.782383 0.782383 0.782383
0.984209 0.984209 0.984209
0.974178 0.974178 0.974178
0.943977 0.943977 0.943977
0.887776 0.887776 0.887776
0.801413 0.801413 0.801413
0.681469 0.681469 0.681469
0.829136 0.829136 0.829136
0.819119 0.819119 0.819119
0.788917 0.788917 0.788917
0.732720 0.732720 0.732720
0.646355 0.646355 0.646355
0.526403 0.526403 0.526403
0.613807 0.613807 0.613807
0.603838 0.603838 0.603838
0.573672 0.573672 0.573672
0.517429 0.517429 0.517429
0.430997 0.430997 0.430997
0.311101 0.311101 0.311101
1.000000 1.000000 1.000000
1.000000 1.000000 1.000000
1.000000 1.000000 1.000000
1.000000 1.000000 1.000000
0.964236 0.964236 0.964236
0.844301 0.844301 0.844301
1.000000 1.000000 1.000000
1.000000 1.000000 1.000000
1.000000 1.000000 1.000000
1.000000 1.000000 1.000000
0.946234 0.946234 0.946234
0.826283 0.826283 0.826283
1.000000 1.000000 1.000000
1.000000 1.000000 1.000000
1.000000 1.000000 1.000000
0.978365 0.978365 0.978365
0.892033 0.892033 0.892033
0.772077 0.772077 0.772077
0.973881 0.973881 0.973881
0.963890 0.963890 0.963890
0.933700 0.933700 0.933700
0.877450 0.877450 0.877450
0.791088 0.791088 0.791088
0.671182 0.671182 0.671182
0.818832 0.818832 0.818832
0.808838 0.808838 0.808838
0.778619 0.778619 0.778619
0.722370 0.722370 0.722370
0.636056 0.636056 0.636056
0.516115 0.516115 0.516115
0.603595 0.603595 0.603595
0.593518 0.593518 0.593518
0.563352 0.563352 0.563352
0.507069 0.507069 0.507069
0.420748 0.420748 0.420748
0.300777 0.300777 0.300777
1.000000 1.000000 1.000000
1.000000 1.000000 1.000000
1.000000 1.000000 1.000000
1.000000 1.000000 1.000000
0.933177 0.933177 0.933177
0.813239 0.813239 0.813239
1.000000 1.000000 1.000000
1.000000 1.000000 1.000000
1.000000 1.000000 1.000000
1.000000 1.000000 1.000000
0.915188 0.915188 0.915188
0.795200 0.795200 0.795200
1.000000 1.000000 1.000000
1.000000 1.000000 1.000000
1.000000 1.000000 1.000000
0.947332 0.947332 0.947332
0.860936 0.860936 0.860936
0.741042 0.741042 0.741042
0.942854 0.942854 0.942854
0.932847 0.932847 0.932847
0.902630 0.902630 0.902630
0.846426 0.846426 0.846426
0.760026 0.760026 0.760026
0.640114 0.640114 0.640114
0.787825 0.787825 0.787825
0.777808 0.777808 0.777808
0.747600 0.747600 0.747600
0.691375 0.691375 0.691375
0.605053 0.605053 0.605053
0.485104 0.485104 0.485104
0.572561 0.572561 0.572561
0.562448 0.562448 0.562448
0.532287 0.532287 0.532287
0.476056 0.476056 0.476056
0.389664 0.389664 0.389664
0.269725 0.269725 0.269725
1.000000 1.000000 1.000000
1.000000 1.000000 1.000000
1.000000 1.000000 1.000000
0.961780 0.961780 0.961780
0.875384 0.875384 0.875384
0.755453 0.755453 0.755453
1.000000 1.000000 1.000000
1.000000 1.000000 1.000000
1.000000 1.000000 1.000000
0.943779 0.943779 0.943779
0.857410 0.857410 0.857410
0.737478 0.737478 0.737478
0.986005 0.986005 0.986005
0.975987 0.975987 0.975987
0.945774 0.945774 0.945774
0.889560 0.889560 0.889560
0.803188 0.803188 0.803188
0.683322 0.683322 0.683322
0.885094 0.885094 0.885094
0.875085 0.875085 0.875085
0.844875 0.844875 0.844875
0.788660 0.788660 0.788660
0.702293 0.702293 0.702293
0.582360 0.582360 0.582360
0.730034 0.730034 0.730034
0.720019 0.720019 0.720019
0.689822 0.689822 0.689822
0.633589 0.633589 0.633589
0.547236 0.547236 0.547236
0.427300 0.427300 0.427300
0.514708 0.514708 0.514708
0.504752 0.504752 0.504752
0.474510 0.474510 0.474510
0.418319 0.418319 0.418319
0.331920 0.331920 0.331920
0.211961 0.211961 0.211961
0.969472 0.969472 0.969472
0.959446 0.959446 0.959446
0.929261 0.929261 0.929261
0.873022 0.873022 0.873022
0.786658 0.786658 0.786658
0.666730 0.666730 0.666730
0.951476 0.951476 0.951476
0.941458 0.941458 0.941458
0.911247 0.911247 0.911247
0.855026 0.855026 0.855026
0.768675 0.768675 0.768675
0.648732 0.648732 0.648732
0.897238 0.897238 0.897238
0.887230 0.887230 0.887230
0.857021 0.857021 0.857021
0.800820 0.800820 0.800820
0.714437 0.714437 0.714437
0.594525 0.594525 0.594525
0.796354 0.796354 0.796354
0.786341 0.786341 0.786341
0.756121 0.756121 0.756121
0.699908 0.699908 0.699908
0.613541 0.613541 0.613541
0.493605 0.493605 0.493605
0.641306 0.641306 0.641306
0.631280 0.631280 0.631280
0.601068 0.601068 0.601068
0.544879 0.544879 0.544879
0.458492 0.458492 0.458492
0.338594 0.338594 0.338594
0.425973 0.425973 0.425973
0.415991 0.415991 0.415991
0.385749 0.385749 0.385749
0.329551 0.329551 0.329551
0.243188 0.243188 0.243188
0.123296 0.123296 0.123296
0.846242 0.846242 0.846242
0.836243 0.836243 0.836243
0.805979 0.805979 0.805979
0.749825 0.749825 0.749825
0.663411 0.663411 0.663411
0.543438 0.543438 0.543438
0.828182 0.828182 0.828182
0.818198 0.818198 0.818198
0.787987 0.787987 0.787987
0.731769 0.731769 0.731769
0.645478 0.645478 0.645478
0.525448 0.525448 0.525448
0.774052 0.774052 0.774052
0.764019 0.764019 0.764019
0.733784 0.733784 0.733784
0.677596 0.677596 0.677596
0.591194 0.591194 0.591194
0.471286 0.471286 0.471286
0.673115 0.673115 0.673115
0.663067 0.663067 0.663067
0.632821 0.632821 0.632821
0.576639 0.576639 0.576639
0.490255 0.490255 0.490255
0.370350 0.370350 0.370350
0.518055 0.518055 0.518055
0.508034 0.508034 0.508034
0.477832 0.477832 0.477832
0.421582 0.421582 0.421582
0.335236 0.335236 0.335236
0.215304 0.215304 0.215304
0.302771 0.302771 0.302771
0.292671 0.292671 0.292671
0.262511 0.262511 0.262511
0.206288 0.206288 0.206288
0.119931 0.119931 0.119931
0.000000 0.000000 0.000000
