tests/rebeccapurple_0.cube
LUT_3D_SIZE 6
DOMAIN_MIN 0 0 0
DOMAIN_MAX 1 1 1
0.400000 0.200000 0.600000
0.400000 0.200000 0.600000
0.400000 0.200000 0.600000
0.400000 0.200000 0.600000
0.430156 0.266593 0.614665
0.545851 0.453753 0.678252
0.400000 0.200000 0.600000
0.400000 0.200000 0.600000
0.400000 0.200000 0.600000
0.400000 0.200000 0.600000
0.449880 0.303769 0.624713
0.560711 0.474440 0.687166
0.400000 0.200000 0.600000
0.400000 0.200000 0.600000
0.400000 0.200000 0.600000
0.413709 0.232217 0.606560
0.503833 0.392382 0.653914
0.602584 0.530653 0.713081
0.418981 0.243656 0.609130
0.430504 0.267284 0.614840
0.463082 0.326902 0.631632
0.517069 0.412247 0.661437
0.588307 0.511791 0.704117
0.671950 0.618930 0.758342
0.566679 0.482627 0.690789
0.574614 0.493416 0.695643
0.597731 0.524273 0.710020
0.637937 0.576259 0.735808
0.694024 0.646110 0.773289
0.763337 0.729413 0.821710
0.713701 0.670048 0.786815
0.719589 0.677163 0.790897
0.737034 0.698122 0.803085
0.768198 0.735160 0.825184
0.813100 0.787750 0.857705
0.870469 0.853871 0.900296
0.400000 0.200000 0.600000
0.400000 0.200000 0.600000
0.400000 0.200000 0.600000
0.400000 0.200000 0.600000
0.441560 0.288523 0.620432
0.554388 0.465692 0.683354
0.400000 0.200000 0.600000
0.400000 0.200000 0.600000
0.400000 0.200000 0.600000
0.400000 0.200000 0.600000
0.460747 0.322894 0.630397
0.568953 0.485731 0.692176
0.400000 0.200000 0.600000
0.400000 0.200000 0.600000
0.400000 0.200000 0.600000
0.425741 0.257724 0.612465
0.513228 0.406539 0.659240
0.610138 0.540522 0.717874
0.430840 0.267946 0.615008
0.441939 0.289231 0.620626
0.473537 0.344453 0.637217
0.526238 0.425700 0.666727
0.596108 0.522132 0.708999
0.678513 0.627050 0.762760
0.574839 0.493721 0.695781
0.582615 0.504189 0.700580
0.605357 0.534284 0.714836
0.644993 0.585199 0.740431
0.700328 0.653807 0.777602
0.768907 0.735996 0.825691
0.719732 0.677334 0.790996
0.725619 0.684427 0.795094
0.742881 0.705109 0.807199
0.773761 0.741721 0.829171
0.818211 0.793686 0.861454
0.875180 0.859256 0.903841
0.400000 0.200000 0.600000
0.400000 0.200000 0.600000
0.400000 0.200000 0.600000
0.400000 0.200000 0.600000
0.474061 0.345317 0.637500
0.579207 0.499613 0.698472
0.400000 0.200000 0.600000
0.400000 0.200000 0.600000
0.400000 0.200000 0.600000
0.400000 0.200001 0.600000
0.491670 0.373597 0.647121
0.593017 0.518045 0.707060
0.400000 0.200000 0.600000
0.400000 0.200000 0.600000
0.400000 0.200001 0.600000
0.459605 0.320923 0.629795
0.540495 0.446182 0.675077
0.632189 0.568940 0.732064
0.464239 0.328876 0.632246
0.474391 0.345861 0.637678
0.503506 0.391884 0.653730
0.552638 0.463258 0.682304
0.618821 0.551778 0.723427
0.697853 0.650788 0.775906
0.598546 0.525347 0.710533
0.605952 0.535062 0.715214
0.627613 0.563088 0.729096
0.665550 0.610979 0.754055
0.718875 0.676301 0.790401
0.785385 0.755388 0.837541
0.737667 0.698879 0.803529
0.743390 0.705716 0.807559
0.760127 0.725614 0.819422
0.790108 0.760926 0.840957
0.833464 0.811345 0.872698
0.889150 0.875188 0.914393
0.400000 0.200000 0.600000
0.400000 0.200000 0.600000
0.400000 0.200000 0.600000
0.444239 0.293495 0.621804
0.528049 0.428330 0.667779
0.622075 0.555974 0.725520
0.400000 0.200000 0.600000
0.400000 0.200000 0.600000
0.400000 0.200000 0.600000
0.463287 0.327252 0.631741
0.543477 0.450406 0.676842
0.634659 0.572090 0.733671
0.416875 0.239140 0.608101
0.428455 0.263204 0.613815
0.461224 0.323716 0.630649
0.515464 0.409867 0.660518
0.586953 0.509987 0.703274
0.670759 0.617453 0.757542
0.519470 0.415793 0.662816
0.528310 0.428708 0.667931
0.553916 0.465036 0.683071
0.597923 0.524526 0.710140
0.658404 0.602060 0.749293
0.732066 0.692170 0.799600
0.639778 0.578597 0.737012
0.646582 0.587206 0.741476
0.666559 0.612235 0.754729
0.701827 0.655633 0.778631
0.751893 0.715842 0.813570
0.814948 0.789898 0.859059
0.769664 0.736890 0.826233
0.774997 0.743178 0.830059
0.790911 0.761866 0.841539
0.819417 0.795085 0.862340
0.860866 0.842876 0.893092
0.914397 0.903852 0.933606
0.435782 0.277575 0.617495
0.446766 0.298130 0.623104
0.477964 0.351709 0.639610
0.530109 0.431311 0.668979
0.599414 0.526489 0.711080
0.681329 0.630523 0.764662
0.455263 0.313346 0.627516
0.465672 0.331308 0.633007
0.495422 0.379451 0.649204
0.545483 0.453235 0.678033
0.612605 0.543729 0.719447
0.692558 0.644316 0.772289
0.508483 0.399424 0.656541
0.517559 0.412971 0.661718
0.543806 0.450869 0.677037
0.588759 0.512392 0.704399
0.650335 0.591935 0.743949
0.725033 0.683722 0.794686
0.592145 0.516890 0.706515
0.599650 0.526800 0.711228
0.621601 0.555364 0.725215
0.659973 0.604023 0.750336
0.713859 0.670239 0.786924
0.780913 0.750138 0.834315
0.697124 0.649898 0.775407
0.703226 0.657337 0.779591
0.721214 0.679122 0.792026
0.753199 0.717394 0.814497
0.799173 0.771527 0.847537
0.857758 0.839311 0.890767
0.815610 0.790667 0.859545
0.820570 0.796422 0.863187
0.835359 0.813533 0.874100
0.861966 0.844137 0.893916
0.900864 0.888508 0.923285
0.951448 0.945649 0.962118
0.552790 0.463468 0.682395
0.560961 0.474785 0.687317
0.584815 0.507132 0.701945
0.626050 0.561084 0.728085
0.683417 0.633095 0.766076
0.753996 0.718341 0.815062
0.567441 0.483669 0.691253
0.575336 0.494393 0.696087
0.598425 0.525188 0.710457
0.638589 0.577088 0.736235
0.694564 0.646770 0.773658
0.763856 0.730028 0.822081
0.608699 0.538648 0.716959
0.615961 0.548081 0.721593
0.637206 0.575330 0.735331
0.674430 0.622003 0.760009
0.726968 0.686049 0.796035
0.792584 0.763824 0.842751
0.677286 0.625535 0.761933
0.683633 0.633361 0.766223
0.702293 0.656201 0.778950
0.735343 0.696097 0.801897
0.782679 0.752213 0.835588
0.842760 0.822068 0.879589
0.767860 0.734761 0.824942
0.773245 0.741113 0.828800
0.789184 0.759843 0.840288
0.817797 0.793205 0.861150
0.859324 0.841107 0.891938
0.912961 0.902226 0.932508
0.874272 0.858220 0.903158
0.878854 0.863452 0.906611
0.892355 0.878836 0.916822
0.916827 0.906603 0.935465
0.952817 0.947188 0.963179
1.000000 1.000000 1.000000
