tests/rebeccapurple_0m.cube
LUT_3D_SIZE 16
DOMAIN_MIN 0 0 0
DOMAIN_MAX 1 1 1
1.000000 1.000000 1.000000
1.000000 1.000000 1.000000
1.000000 1.000000 1.000000
1.000000 1.000000 1.000000
1.000000 1.000000 1.000000
1.000000 1.000000 1.000000
1.000000 1.000000 1.000000
1.000000 1.000000 1.000000
1.000000 1.000000 1.000000
1.000000 1.000000 1.000000
1.000000 1.000000 1.000000
1.000000 1.000000 1.000000
0.974487 0.974487 0.974487
0.938433 0.938433 0.938433
0.898484 0.898484 0.898484
0.854586 0.854586 0.854586
1.000000 1.000000 1.000000
1.000000 1.000000 1.000000
1.000000 1.000000 1.000000
1.000000 1.000000 1.000000
1.000000 1.000000 1.000000
1.000000 1.000000 1.000000
1.000000 1.000000 1.000000
1.000000 1.000000 1.000000
1.000000 1.000000 1.000000
1.000000 1.000000 1.000000
1.000000 1.000000 1.000000
1.000000 1.000000 1.000000
0.971432 0.971432 0.971432
0.935345 0.935345 0.935345
0.895452 0.895452 0.895452
0.851545 0.851545 0.851545
1.000000 1.000000 1.000000
1.000000 1.000000 1.000000
1.000000 1.000000 1.000000
1.000000 1.000000 1.000000
1.000000 1.000000 1.000000
1.000000 1.000000 1.000000
1.000000 1.000000 1.000000
1.000000 1.000000 1.000000
1.000000 1.000000 1.000000
1.000000 1.000000 1.000000
1.000000 1.000000 1.000000
0.998151 0.998151 0.998151
0.965824 0.965824 0.965824
0.929683 0.929683 0.929683
0.889745 0.889745 0.889745
0.845902 0.845902 0.845902
1.000000 1.000000 1.000000
1.000000 1.000000 1.000000
1.000000 1.000000 1.000000
1.000000 1.000000 1.000000
1.000000 1.000000 1.000000
1.000000 1.000000 1.000000
1.000000 1.000000 1.000000
1.000000 1.000000 1.000000
1.000000 1.000000 1.000000
1.000000 1.000000 1.000000
1.000000 1.000000 1.000000
0.988906 0.988906 0.988906
0.956547 0.956547 0.956547
0.920433 0.920433 0.920433
0.880451 0.880451 0.880451
0.836553 0.836553 0.836553
1.000000 1.000000 1.000000
1.000000 1.000000 1.000000
1.000000 1.000000 1.000000
1.000000 1.000000 1.000000
1.000000 1.000000 1.000000
1.000000 1.000000 1.000000
1.000000 1.000000 1.000000
1.000000 1.000000 1.000000
1.000000 1.000000 1.000000
1.000000 1.000000 1.000000
1.000000 1.000000 1.000000
0.975451 0.975451 0.975451
0.943076 0.943076 0.943076
0.906987 0.906987 0.906987
0.867033 0.867033 0.867033
0.823160 0.823160 0.823160
1.000000 1.000000 1.000000
1.000000 1.000000 1.000000
1.000000 1.000000 1.000000
1.000000 1.000000 1.000000
1.000000 1.000000 1.000000
1.000000 1.000000 1.000000
1.000000 1.000000 1.000000
1.000000 1.000000 1.000000
1.000000 1.000000 1.000000
1.000000 1.000000 1.000000
0.986239 0.986239 0.986239
0.957496 0.957496 0.957496
0.925127 0.925127 0.925127
0.889021 0.889021 0.889021
0.849098 0.849098 0.849098
0.805144 0.805144 0.805144
1.000000 1.000000 1.000000
1.000000 1.000000 1.000000
1.000000 1.000000 1.000000
1.000000 1.000000 1.000000
1.000000 1.000000 1.000000
1.000000 1.000000 1.000000
1.000000 1.000000 1.000000
1.000000 1.000000 1.000000
1.000000 1.000000 1.000000
0.988685 0.988685 0.988685
0.963391 0.963391 0.963391
0.934666 0.934666 0.934666
0.902278 0.902278 0.902278
0.866248 0.866248 0.866248
0.826259 0.826259 0.826259
0.782383 0.782383 0.782383
1.000000 1.000000 1.000000
1.000000 1.000000 1.000000
1.000000 1.000000 1.000000
1.000000 1.000000 1.000000
1.000000 1.000000 1.000000
1.000000 1.000000 1.000000
1.000000 1.000000 1.000000
1.000000 1.000000 1.000000
0.982553 0.982553 0.982553
0.960636 0.960636 0.960636
0.935354 0.935354 0.935354
0.906625 0.906625 0.906625
0.874249 0.874249 0.874249
0.838154 0.838154 0.838154
0.798225 0.798225 0.798225
0.754328 0.754328 0.754328
1.000000 1.000000 1.000000
1.000000 1.000000 1.000000
1.000000 1.000000 1.000000
1.000000 1.000000 1.000000
1.000000 1.000000 1.000000
0.996002 0.996002 0.996002
0.983279 0.983279 0.983279
0.967670 0.967670 0.967670
0.948981 0.948981 0.948981
0.927101 0.927101 0.927101
0.901828 0.901828 0.901828
0.873060 0.873060 0.873060
0.840733 0.840733 0.840733
0.804609 0.804609 0.804609
0.764662 0.764662 0.764662
0.720787 0.720787 0.720787
0.984209 0.984209 0.984209
0.982486 0.982486 0.982486
0.979383 0.979383 0.979383
0.974178 0.974178 0.974178
0.966678 0.966678 0.966678
0.956687 0.956687 0.956687
0.943977 0.943977 0.943977
0.928343 0.928343 0.928343
0.909672 0.909672 0.909672
0.887776 0.887776 0.887776
0.862509 0.862509 0.862509
0.833766 0.833766 0.833766
0.801413 0.801413 0.801413
0.765324 0.765324 0.765324
0.725338 0.725338 0.725338
0.681469 0.681469 0.681469
0.938854 0.938854 0.938854
0.937129 0.937129 0.937129
0.934009 0.934009 0.934009
0.928819 0.928819 0.928819
0.921380 0.921380 0.921380
0.911319 0.911319 0.911319
0.898623 0.898623 0.898623
0.883025 0.883025 0.883025
0.864356 0.864356 0.864356
0.842437 0.842437 0.842437
0.817171 0.817171 0.817171
0.788395 0.788395 0.788395
0.756060 0.756060 0.756060
0.719925 0.719925 0.719925
0.679935 0.679935 0.679935
0.636129 0.636129 0.636129
0.887293 0.887293 0.887293
0.885577 0.885577 0.885577
0.882446 0.882446 0.882446
0.877242 0.877242 0.877242
0.869752 0.869752 0.869752
0.859739 0.859739 0.859739
0.847049 0.847049 0.847049
0.831409 0.831409 0.831409
0.812720 0.812720 0.812720
0.790820 0.790820 0.790820
0.765535 0.765535 0.765535
0.736821 0.736821 0.736821
0.704438 0.704438 0.704438
0.668335 0.668335 0.668335
0.628434 0.628434 0.628434
0.584577 0.584577 0.584577
0.829136 0.829136 0.829136
0.827444 0.827444 0.827444
0.824305 0.824305 0.824305
0.819119 0.819119 0.819119
0.811651 0.811651 0.811651
0.801659 0.801659 0.801659
0.788917 0.788917 0.788917
0.773290 0.773290 0.773290
0.754600 0.754600 0.754600
0.732720 0.732720 0.732720
0.707464 0.707464 0.707464
0.678698 0.678698 0.678698
0.646355 0.646355 0.646355
0.610233 0.610233 0.610233
0.570262 0.570262 0.570262
0.526403 0.526403 0.526403
0.764393 0.764393 0.764393
0.762691 0.762691 0.762691
0.759538 0.759538 0.759538
0.754336 0.754336 0.754336
0.746811 0.746811 0.746811
0.736853 0.736853 0.736853
0.724173 0.724173 0.724173
0.708546 0.708546 0.708546
0.689847 0.689847 0.689847
0.667899 0.667899 0.667899
0.642657 0.642657 0.642657
0.613952 0.613952 0.613952
0.581594 0.581594 0.581594
0.545425 0.545425 0.545425
0.505448 0.505448 0.505448
0.461598 0.461598 0.461598
0.692602 0.692602 0.692602
0.690959 0.690959 0.690959
0.687821 0.687821 0.687821
0.682629 0.682629 0.682629
0.675122 0.675122 0.675122
0.665138 0.665138 0.665138
0.652424 0.652424 0.652424
0.636813 0.636813 0.636813
0.618159 0.618159 0.618159
0.596193 0.596193 0.596193
0.570952 0.570952 0.570952
0.542171 0.542171 0.542171
0.509846 0.509846 0.509846
0.473762 0.473762 0.473762
0.433808 0.433808 0.433808
0.389878 0.389878 0.389878
0.613807 0.613807 0.613807
0.612117 0.612117 0.612117
0.609015 0.609015 0.609015
0.603838 0.603838 0.603838
0.596333 0.596333 0.596333
0.586321 0.586321 0.586321
0.573672 0.573672 0.573672
0.558007 0.558007 0.558007
0.539292 0.539292 0.539292
0.517429 0.517429 0.517429
0.492156 0.492156 0.492156
0.463370 0.463370 0.463370
0.430997 0.430997 0.430997
0.394962 0.394962 0.394962
0.354932 0.354932 0.354932
0.311101 0.311101 0.311101
1.000000 1.000000 1.000000
1.000000 1.000000 1.000000
1.000000 1.000000 1.000000
1.000000 1.000000 1.000000
1.000000 1.000000 1.000000
1.000000 1.000000 1.000000
1.000000 1.000000 1.000000
1.000000 1.000000 1.000000
1.000000 1.000000 1.000000
1.000000 1.000000 1.000000
1.000000 1.000000 1.000000
1.000000 1.000000 1.000000
0.972785 0.972785 0.972785
0.936658 0.936658 0.936658
0.896724 0.896724 0.896724
0.852809 0.852809 0.852809
1.000000 1.000000 1.000000
1.000000 1.000000 1.000000
1.000000 1.000000 1.000000
1.000000 1.000000 1.000000
1.000000 1.000000 1.000000
1.000000 1.000000 1.000000
1.000000 1.000000 1.000000
1.000000 1.000000 1.000000
1.000000 1.000000 1.000000
1.000000 1.000000 1.000000
1.000000 1.000000 1.000000
1.000000 1.000000 1.000000
0.969732 0.969732 0.969732
0.933604 0.933604 0.933604
0.893687 0.893687 0.893687
0.849788 0.849788 0.849788
1.000000 1.000000 1.000000
1.000000 1.000000 1.000000
1.000000 1.000000 1.000000
1.000000 1.000000 1.000000
1.000000 1.000000 1.000000
1.000000 1.000000 1.000000
1.000000 1.000000 1.000000
1.000000 1.000000 1.000000
1.000000 1.000000 1.000000
1.000000 1.000000 1.000000
1.000000 1.000000 1.000000
0.996436 0.996436 0.996436
0.964061 0.964061 0.964061
0.927986 0.927986 0.927986
0.887993 0.887993 0.887993
0.844118 0.844118 0.844118
1.000000 1.000000 1.000000
1.000000 1.000000 1.000000
1.000000 1.000000 1.000000
1.000000 1.000000 1.000000
1.000000 1.000000 1.000000
1.000000 1.000000 1.000000
1.000000 1.000000 1.000000
1.000000 1.000000 1.000000
1.000000 1.000000 1.000000
1.000000 1.000000 1.000000
1.000000 1.000000 1.000000
0.987104 0.987104 0.987104
0.954762 0.954762 0.954762
0.918656 0.918656 0.918656
0.878718 0.878718 0.878718
0.834813 0.834813 0.834813
1.000000 1.000000 1.000000
1.000000 1.000000 1.000000
1.000000 1.000000 1.000000
1.000000 1.000000 1.000000
1.000000 1.000000 1.000000
1.000000 1.000000 1.000000
1.000000 1.000000 1.000000
1.000000 1.000000 1.000000
1.000000 1.000000 1.000000
1.000000 1.000000 1.000000
1.000000 1.000000 1.000000
0.973734 0.973734 0.973734
0.941337 0.941337 0.941337
0.905258 0.905258 0.905258
0.865350 0.865350 0.865350
0.821396 0.821396 0.821396
1.000000 1.000000 1.000000
1.000000 1.000000 1.000000
1.000000 1.000000 1.000000
1.000000 1.000000 1.000000
1.000000 1.000000 1.000000
1.000000 1.000000 1.000000
1.000000 1.000000 1.000000
1.000000 1.000000 1.000000
1.000000 1.000000 1.000000
1.000000 1.000000 1.000000
0.984482 0.984482 0.984482
0.955790 0.955790 0.955790
0.923396 0.923396 0.923396
0.887282 0.887282 0.887282
0.847365 0.847365 0.847365
0.803478 0.803478 0.803478
1.000000 1.000000 1.000000
1.000000 1.000000 1.000000
1.000000 1.000000 1.000000
1.000000 1.000000 1.000000
1.000000 1.000000 1.000000
1.000000 1.000000 1.000000
1.000000 1.000000 1.000000
1.000000 1.000000 1.000000
1.000000 1.000000 1.000000
0.986932 0.986932 0.986932
0.961674 0.961674 0.961674
0.932911 0.932911 0.932911
0.900511 0.900511 0.900511
0.864436 0.864436 0.864436
0.824540 0.824540 0.824540
0.780636 0.780636 0.780636
1.000000 1.000000 1.000000
1.000000 1.000000 1.000000
1.000000 1.000000 1.000000
1.000000 1.000000 1.000000
1.000000 1.000000 1.000000
1.000000 1.000000 1.000000
1.000000 1.000000 1.000000
0.999475 0.999475 0.999475
0.980795 0.980795 0.980795
0.958870 0.958870 0.958870
0.933636 0.933636 0.933636
0.904898 0.904898 0.904898
0.872519 0.872519 0.872519
0.836434 0.836434 0.836434
0.796471 0.796471 0.796471
0.752559 0.752559 0.752559
1.000000 1.000000 1.000000
1.000000 1.000000 1.000000
1.000000 1.000000 1.000000
1.000000 1.000000 1.000000
1.000000 1.000000 1.000000
0.994282 0.994282 0.994282
0.981535 0.981535 0.981535
0.965928 0.965928 0.965928
0.947265 0.947265 0.947265
0.925313 0.925313 0.925313
0.900053 0.900053 0.900053
0.871317 0.871317 0.871317
0.838937 0.838937 0.838937
0.802836 0.802836 0.802836
0.762946 0.762946 0.762946
0.719072 0.719072 0.719072
0.982450 0.982450 0.982450
0.980800 0.980800 0.980800
0.977605 0.977605 0.977605
0.972408 0.972408 0.972408
0.965017 0.965017 0.965017
0.954938 0.954938 0.954938
0.942198 0.942198 0.942198
0.926648 0.926648 0.926648
0.907899 0.907899 0.907899
0.886028 0.886028 0.886028
0.860757 0.860757 0.860757
0.832054 0.832054 0.832054
0.799637 0.799637 0.799637
0.763553 0.763553 0.763553
0.723633 0.723633 0.723633
0.679739 0.679739 0.679739
0.937104 0.937104 0.937104
0.935419 0.935419 0.935419
0.932249 0.932249 0.932249
0.927077 0.927077 0.927077
0.919618 0.919618 0.919618
0.909586 0.909586 0.909586
0.896903 0.896903 0.896903
0.881222 0.881222 0.881222
0.862549 0.862549 0.862549
0.840704 0.840704 0.840704
0.815393 0.815393 0.815393
0.786711 0.786711 0.786711
0.754293 0.754293 0.754293
0.718229 0.718229 0.718229
0.678244 0.678244 0.678244
0.634413 0.634413 0.634413
0.885515 0.885515 0.885515
0.883827 0.883827 0.883827
0.880656 0.880656 0.880656
0.875526 0.875526 0.875526
0.868028 0.868028 0.868028
0.858011 0.858011 0.858011
0.845277 0.845277 0.845277
0.829652 0.829652 0.829652
0.810962 0.810962 0.810962
0.789074 0.789074 0.789074
0.763818 0.763818 0.763818
0.735042 0.735042 0.735042
0.702688 0.702688 0.702688
0.666597 0.666597 0.666597
0.626701 0.626701 0.626701
0.582702 0.582702 0.582702
0.827404 0.827404 0.827404
0.825700 0.825700 0.825700
0.822581 0.822581 0.822581
0.817418 0.817418 0.817418
0.809881 0.809881 0.809881
0.799944 0.799944 0.799944
0.787211 0.787211 0.787211
0.771547 0.771547 0.771547
0.752867 0.752867 0.752867
0.730965 0.730965 0.730965
0.705717 0.705717 0.705717
0.676963 0.676963 0.676963
0.644596 0.644596 0.644596
0.608546 0.608546 0.608546
0.568588 0.568588 0.568588
0.524654 0.524654 0.524654
0.762617 0.762617 0.762617
0.760939 0.760939 0.760939
0.757748 0.757748 0.757748
0.752552 0.752552 0.752552
0.745053 0.745053 0.745053
0.735102 0.735102 0.735102
0.722370 0.722370 0.722370
0.706786 0.706786 0.706786
0.688112 0.688112 0.688112
0.666212 0.666212 0.666212
0.640928 0.640928 0.640928
0.612187 0.612187 0.612187
0.579769 0.579769 0.579769
0.543701 0.543701 0.543701
0.503757 0.503757 0.503757
0.459861 0.459861 0.459861
0.690959 0.690959 0.690959
0.689181 0.689181 0.689181
0.686032 0.686032 0.686032
0.680895 0.680895 0.680895
0.673352 0.673352 0.673352
0.663370 0.663370 0.663370
0.650701 0.650701 0.650701
0.635047 0.635047 0.635047
0.616322 0.616322 0.616322
0.594419 0.594419 0.594419
0.569233 0.569233 0.569233
0.540450 0.540450 0.540450
0.508119 0.508119 0.508119
0.472037 0.472037 0.472037
0.432000 0.432000 0.432000
0.388172 0.388172 0.388172
0.612117 0.612117 0.612117
0.610459 0.610459 0.610459
0.607237 0.607237 0.607237
0.602088 0.602088 0.602088
0.594560 0.594560 0.594560
0.584584 0.584584 0.584584
0.571863 0.571863 0.571863
0.556212 0.556212 0.556212
0.537592 0.537592 0.537592
0.515683 0.515683 0.515683
0.490394 0.490394 0.490394
0.461598 0.461598 0.461598
0.429298 0.429298 0.429298
0.393172 0.393172 0.393172
0.353271 0.353271 0.353271
0.309339 0.309339 0.309339
1.000000 1.000000 1.000000
1.000000 1.000000 1.000000
1.000000 1.000000 1.000000
1.000000 1.000000 1.000000
1.000000 1.000000 1.000000
1.000000 1.000000 1.000000
1.000000 1.000000 1.000000
1.000000 1.000000 1.000000
1.000000 1.000000 1.000000
1.000000 1.000000 1.000000
1.000000 1.000000 1.000000
1.000000 1.000000 1.000000
0.969555 0.969555 0.969555
0.933436 0.933436 0.933436
0.893518 0.893518 0.893518
0.849582 0.849582 0.849582
1.000000 1.000000 1.000000
1.000000 1.000000 1.000000
1.000000 1.000000 1.000000
1.000000 1.000000 1.000000
1.000000 1.000000 1.000000
1.000000 1.000000 1.000000
1.000000 1.000000 1.000000
1.000000 1.000000 1.000000
1.000000 1.000000 1.000000
1.000000 1.000000 1.000000
1.000000 1.000000 1.000000
0.998835 0.998835 0.998835
0.966494 0.966494 0.966494
0.930385 0.930385 0.930385
0.890453 0.890453 0.890453
0.846494 0.846494 0.846494
1.000000 1.000000 1.000000
1.000000 1.000000 1.000000
1.000000 1.000000 1.000000
1.000000 1.000000 1.000000
1.000000 1.000000 1.000000
1.000000 1.000000 1.000000
1.000000 1.000000 1.000000
1.000000 1.000000 1.000000
1.000000 1.000000 1.000000
1.000000 1.000000 1.000000
1.000000 1.000000 1.000000
0.993219 0.993219 0.993219
0.960822 0.960822 0.960822
0.924738 0.924738 0.924738
0.884825 0.884825 0.884825
0.840902 0.840902 0.840902
1.000000 1.000000 1.000000
1.000000 1.000000 1.000000
1.000000 1.000000 1.000000
1.000000 1.000000 1.000000
1.000000 1.000000 1.000000
1.000000 1.000000 1.000000
1.000000 1.000000 1.000000
1.000000 1.000000 1.000000
1.000000 1.000000 1.000000
1.000000 1.000000 1.000000
1.000000 1.000000 1.000000
0.983905 0.983905 0.983905
0.951535 0.951535 0.951535
0.915437 0.915437 0.915437
0.875480 0.875480 0.875480
0.831646 0.831646 0.831646
1.000000 1.000000 1.000000
1.000000 1.000000 1.000000
1.000000 1.000000 1.000000
1.000000 1.000000 1.000000
1.000000 1.000000 1.000000
1.000000 1.000000 1.000000
1.000000 1.000000 1.000000
1.000000 1.000000 1.000000
1.000000 1.000000 1.000000
1.000000 1.000000 1.000000
0.999264 0.999264 0.999264
0.970527 0.970527 0.970527
0.938142 0.938142 0.938142
0.902029 0.902029 0.902029
0.862060 0.862060 0.862060
0.818225 0.818225 0.818225
1.000000 1.000000 1.000000
1.000000 1.000000 1.000000
1.000000 1.000000 1.000000
1.000000 1.000000 1.000000
1.000000 1.000000 1.000000
1.000000 1.000000 1.000000
1.000000 1.000000 1.000000
1.000000 1.000000 1.000000
1.000000 1.000000 1.000000
1.000000 1.000000 1.000000
0.981247 0.981247 0.981247
0.952529 0.952529 0.952529
0.920172 0.920172 0.920172
0.884046 0.884046 0.884046
0.844139 0.844139 0.844139
0.800190 0.800190 0.800190
1.000000 1.000000 1.000000
1.000000 1.000000 1.000000
1.000000 1.000000 1.000000
1.000000 1.000000 1.000000
1.000000 1.000000 1.000000
1.000000 1.000000 1.000000
1.000000 1.000000 1.000000
1.000000 1.000000 1.000000
1.000000 1.000000 1.000000
0.983681 0.983681 0.983681
0.958421 0.958421 0.958421
0.929691 0.929691 0.929691
0.897338 0.897338 0.897338
0.861201 0.861201 0.861201
0.821313 0.821313 0.821313
0.777343 0.777343 0.777343
1.000000 1.000000 1.000000
1.000000 1.000000 1.000000
1.000000 1.000000 1.000000
1.000000 1.000000 1.000000
1.000000 1.000000 1.000000
1.000000 1.000000 1.000000
1.000000 1.000000 1.000000
0.996228 0.996228 0.996228
0.977563 0.977563 0.977563
0.955650 0.955650 0.955650
0.930376 0.930376 0.930376
0.901642 0.901642 0.901642
0.869308 0.869308 0.869308
0.833185 0.833185 0.833185
0.793223 0.793223 0.793223
0.749379 0.749379 0.749379
1.000000 1.000000 1.000000
1.000000 1.000000 1.000000
1.000000 1.000000 1.000000
1.000000 1.000000 1.000000
1.000000 1.000000 1.000000
0.991013 0.991013 0.991013
0.978291 0.978291 0.978291
0.962687 0.962687 0.962687
0.944010 0.944010 0.944010
0.922083 0.922083 0.922083
0.896827 0.896827 0.896827
0.868103 0.868103 0.868103
0.835751 0.835751 0.835751
0.799618 0.799618 0.799618
0.759729 0.759729 0.759729
0.715810 0.715810 0.715810
0.979212 0.979212 0.979212
0.977554 0.977554 0.977554
0.974366 0.974366 0.974366
0.969194 0.969194 0.969194
0.961700 0.961700 0.961700
0.951723 0.951723 0.951723
0.938995 0.938995 0.938995
0.923375 0.923375 0.923375
0.904678 0.904678 0.904678
0.882807 0.882807 0.882807
0.857533 0.857533 0.857533
0.828788 0.828788 0.828788
0.796422 0.796422 0.796422
0.760316 0.760316 0.760316
0.720373 0.720373 0.720373
0.676503 0.676503 0.676503
0.933884 0.933884 0.933884
0.932147 0.932147 0.932147
0.929039 0.929039 0.929039
0.923835 0.923835 0.923835
0.916401 0.916401 0.916401
0.906344 0.906344 0.906344
0.893639 0.893639 0.893639
0.878047 0.878047 0.878047
0.859336 0.859336 0.859336
0.837446 0.837446 0.837446
0.812191 0.812191 0.812191
0.783410 0.783410 0.783410
0.751069 0.751069 0.751069
0.715010 0.715010 0.715010
0.675014 0.675014 0.675014
0.631155 0.631155 0.631155
0.882281 0.882281 0.882281
0.880578 0.880578 0.880578
0.877436 0.877436 0.877436
0.872258 0.872258 0.872258
0.864741 0.864741 0.864741
0.854778 0.854778 0.854778
0.842041 0.842041 0.842041
0.826440 0.826440 0.826440
0.807720 0.807720 0.807720
0.785813 0.785813 0.785813
0.760581 0.760581 0.760581
0.731819 0.731819 0.731819
0.699434 0.699434 0.699434
0.663403 0.663403 0.663403
0.623432 0.623432 0.623432
0.579530 0.579530 0.579530
0.824172 0.824172 0.824172
0.822528 0.822528 0.822528
0.819312 0.819312 0.819312
0.814184 0.814184 0.814184
0.806720 0.806720 0.806720
0.796673 0.796673 0.796673
0.783947 0.783947 0.783947
0.768319 0.768319 0.768319
0.749686 0.749686 0.749686
0.727716 0.727716 0.727716
0.702489 0.702489 0.702489
0.673730 0.673730 0.673730
0.641393 0.641393 0.641393
0.605293 0.605293 0.605293
0.565366 0.565366 0.565366
0.521453 0.521453 0.521453
0.759415 0.759415 0.759415
0.757687 0.757687 0.757687
0.754530 0.754530 0.754530
0.749302 0.749302 0.749302
0.741893 0.741893 0.741893
0.731904 0.731904 0.731904
0.719103 0.719103 0.719103
0.703533 0.703533 0.703533
0.684871 0.684871 0.684871
0.662952 0.662952 0.662952
0.637713 0.637713 0.637713
0.608910 0.608910 0.608910
0.576559 0.576559 0.576559
0.540447 0.540447 0.540447
0.500542 0.500542 0.500542
0.456629 0.456629 0.456629
0.687662 0.687662 0.687662
0.685989 0.685989 0.685989
0.682821 0.682821 0.682821
0.677643 0.677643 0.677643
0.670179 0.670179 0.670179
0.660200 0.660200 0.660200
0.647480 0.647480 0.647480
0.631855 0.631855 0.631855
0.613146 0.613146 0.613146
0.591192 0.591192 0.591192
0.565944 0.565944 0.565944
0.537240 0.537240 0.537240
0.504878 0.504878 0.504878
0.468794 0.468794 0.468794
0.428880 0.428880 0.428880
0.384904 0.384904 0.384904
0.608840 0.608840 0.608840
0.607140 0.607140 0.607140
0.604072 0.604072 0.604072
0.598838 0.598838 0.598838
0.591394 0.591394 0.591394
0.581343 0.581343 0.581343
0.568675 0.568675 0.568675
0.553021 0.553021 0.553021
0.534350 0.534350 0.534350
0.512430 0.512430 0.512430
0.487191 0.487191 0.487191
0.458367 0.458367 0.458367
0.426080 0.426080 0.426080
0.389966 0.389966 0.389966
0.349952 0.349952 0.349952
0.306085 0.306085 0.306085
1.000000 1.000000 1.000000
1.000000 1.000000 1.000000
1.000000 1.000000 1.000000
1.000000 1.000000 1.000000
1.000000 1.000000 1.000000
1.000000 1.000000 1.000000
1.000000 1.000000 1.000000
1.000000 1.000000 1.000000
1.000000 1.000000 1.000000
1.000000 1.000000 1.000000
1.000000 1.000000 1.000000
0.996579 0.996579 0.996579
0.964236 0.964236 0.964236
0.928124 0.928124 0.928124
0.888163 0.888163 0.888163
0.844301 0.844301 0.844301
1.000000 1.000000 1.000000
1.000000 1.000000 1.000000
1.000000 1.000000 1.000000
1.000000 1.000000 1.000000
1.000000 1.000000 1.000000
1.000000 1.000000 1.000000
1.000000 1.000000 1.000000
1.000000 1.000000 1.000000
1.000000 1.000000 1.000000
1.000000 1.000000 1.000000
1.000000 1.000000 1.000000
0.993518 0.993518 0.993518
0.961168 0.961168 0.961168
0.925077 0.925077 0.925077
0.885126 0.885126 0.885126
0.841208 0.841208 0.841208
1.000000 1.000000 1.000000
1.000000 1.000000 1.000000
1.000000 1.000000 1.000000
1.000000 1.000000 1.000000
1.000000 1.000000 1.000000
1.000000 1.000000 1.000000
1.000000 1.000000 1.000000
1.000000 1.000000 1.000000
1.000000 1.000000 1.000000
1.000000 1.000000 1.000000
1.000000 1.000000 1.000000
0.987870 0.987870 0.987870
0.955501 0.955501 0.955501
0.919411 0.919411 0.919411
0.879503 0.879503 0.879503
0.835603 0.835603 0.835603
1.000000 1.000000 1.000000
1.000000 1.000000 1.000000
1.000000 1.000000 1.000000
1.000000 1.000000 1.000000
1.000000 1.000000 1.000000
1.000000 1.000000 1.000000
1.000000 1.000000 1.000000
1.000000 1.000000 1.000000
1.000000 1.000000 1.000000
1.000000 1.000000 1.000000
1.000000 1.000000 1.000000
0.978574 0.978574 0.978574
0.946234 0.946234 0.946234
0.910113 0.910113 0.910113
0.870193 0.870193 0.870193
0.826283 0.826283 0.826283
1.000000 1.000000 1.000000
1.000000 1.000000 1.000000
1.000000 1.000000 1.000000
1.000000 1.000000 1.000000
1.000000 1.000000 1.000000
1.000000 1.000000 1.000000
1.000000 1.000000 1.000000
1.000000 1.000000 1.000000
1.000000 1.000000 1.000000
1.000000 1.000000 1.000000
0.993896 0.993896 0.993896
0.965167 0.965167 0.965167
0.932815 0.932815 0.932815
0.896684 0.896684 0.896684
0.856803 0.856803 0.856803
0.812849 0.812849 0.812849
1.000000 1.000000 1.000000
1.000000 1.000000 1.000000
1.000000 1.000000 1.000000
1.000000 1.000000 1.000000
1.000000 1.000000 1.000000
1.000000 1.000000 1.000000
1.000000 1.000000 1.000000
1.000000 1.000000 1.000000
1.000000 1.000000 1.000000
1.000000 1.000000 1.000000
0.975970 0.975970 0.975970
0.947198 0.947198 0.947198
0.914833 0.914833 0.914833
0.878760 0.878760 0.878760
0.838842 0.838842 0.838842
0.794919 0.794919 0.794919
1.000000 1.000000 1.000000
1.000000 1.000000 1.000000
1.000000 1.000000 1.000000
1.000000 1.000000 1.000000
1.000000 1.000000 1.000000
1.000000 1.000000 1.000000
1.000000 1.000000 1.000000
1.000000 1.000000 1.000000
0.999997 0.999997 0.999997
0.978365 0.978365 0.978365
0.953094 0.953094 0.953094
0.924360 0.924360 0.924360
0.892033 0.892033 0.892033
0.855926 0.855926 0.855926
0.815922 0.815922 0.815922
0.772077 0.772077 0.772077
1.000000 1.000000 1.000000
1.000000 1.000000 1.000000
1.000000 1.000000 1.000000
1.000000 1.000000 1.000000
1.000000 1.000000 1.000000
1.000000 1.000000 1.000000
1.000000 1.000000 1.000000
